(Exported by FreeCAD)
(Post Processor: linuxcnc_post)
(Output Time:2023-02-26 13:10:13.121901)
(begin preamble)
G17 G54 G40 G49 G80 G90
G21
(begin operation: G54)
(machine units: mm/min)
G54 
G0 Z23.500 
(finish operation: G54)
(begin operation: TC: Default Tool)
(machine units: mm/min)
(TC: Default Tool) 
M5
M6 T1 
G43 H1 
M3 S18000 
(finish operation: TC: Default Tool)
(begin operation: Profile)
(machine units: mm/min)
(Profile) 
(Compensated Tool Path. Diameter: 6.0) 
G0 Z30.000 
G0 X0.000 Y0.000 
G0 X1.486 Y-9.381 
G0 X1.486 Y-9.381 Z21.500 
G1 X1.486 Y-9.381 Z18.500 F3000.000 
G3 X-1.486 Y9.381 Z18.500 I-1.486 J9.381 F3000.000 
G3 X1.486 Y-9.381 Z18.500 I1.486 J-9.381 F3000.000 
G1 X1.486 Y-9.381 Z13.000 F3000.000 
G3 X-1.486 Y9.381 Z13.000 I-1.486 J9.381 F3000.000 
G3 X1.486 Y-9.381 Z13.000 I1.486 J-9.381 F3000.000 
G1 X1.486 Y-9.381 Z7.500 F3000.000 
G3 X-1.486 Y9.381 Z7.500 I-1.486 J9.381 F3000.000 
G3 X1.486 Y-9.381 Z7.500 I1.486 J-9.381 F3000.000 
G1 X1.486 Y-9.381 Z2.000 F3000.000 
G3 X-1.486 Y9.381 Z2.000 I-1.486 J9.381 F3000.000 
G3 X1.486 Y-9.381 Z2.000 I1.486 J-9.381 F3000.000 
G1 X1.486 Y-9.381 Z0.000 F3000.000 
G3 X-1.486 Y9.381 Z0.000 I-1.486 J9.381 F3000.000 
G3 X1.486 Y-9.381 Z0.000 I1.486 J-9.381 F3000.000 
G0 Z23.500 
G0 Z23.500 
G0 X1.486 Y-9.381 
G0 X24.157 Y23.767 
G0 X24.157 Y23.767 Z21.500 
G1 X24.157 Y23.767 Z18.500 F3000.000 
G3 X25.387 Y23.557 Z18.500 I0.843 J1.233 F3000.000 
G3 X24.613 Y26.443 Z18.500 I-0.387 J1.443 F3000.000 
G3 X24.157 Y23.767 Z18.500 I0.387 J-1.443 F3000.000 
G1 X24.157 Y23.767 Z13.000 F3000.000 
G3 X25.387 Y23.557 Z13.000 I0.843 J1.233 F3000.000 
G3 X24.613 Y26.443 Z13.000 I-0.387 J1.443 F3000.000 
G3 X24.157 Y23.767 Z13.000 I0.387 J-1.443 F3000.000 
G1 X24.157 Y23.767 Z7.500 F3000.000 
G3 X25.387 Y23.557 Z7.500 I0.843 J1.233 F3000.000 
G3 X24.613 Y26.443 Z7.500 I-0.387 J1.443 F3000.000 
G3 X24.157 Y23.767 Z7.500 I0.387 J-1.443 F3000.000 
G1 X24.157 Y23.767 Z2.000 F3000.000 
G3 X25.387 Y23.557 Z2.000 I0.843 J1.233 F3000.000 
G3 X24.613 Y26.443 Z2.000 I-0.387 J1.443 F3000.000 
G3 X24.157 Y23.767 Z2.000 I0.387 J-1.443 F3000.000 
G1 X24.157 Y23.767 Z0.000 F3000.000 
G3 X25.387 Y23.557 Z0.000 I0.843 J1.233 F3000.000 
G3 X24.613 Y26.443 Z0.000 I-0.387 J1.443 F3000.000 
G3 X24.157 Y23.767 Z0.000 I0.387 J-1.443 F3000.000 
G0 Z23.500 
G0 Z23.500 
G0 X24.157 Y23.767 
G0 X-23.507 Y24.963 
G0 X-23.507 Y24.963 Z21.500 
G1 X-23.507 Y24.963 Z18.500 F3000.000 
G3 X-25.387 Y26.443 Z18.500 I-1.493 J0.037 F3000.000 
G3 X-24.613 Y23.557 Z18.500 I0.387 J-1.443 F3000.000 
G3 X-23.507 Y24.963 Z18.500 I-0.387 J1.443 F3000.000 
G1 X-23.507 Y24.963 Z13.000 F3000.000 
G3 X-25.387 Y26.443 Z13.000 I-1.493 J0.037 F3000.000 
G3 X-24.613 Y23.557 Z13.000 I0.387 J-1.443 F3000.000 
G3 X-23.507 Y24.963 Z13.000 I-0.387 J1.443 F3000.000 
G1 X-23.507 Y24.963 Z7.500 F3000.000 
G3 X-25.387 Y26.443 Z7.500 I-1.493 J0.037 F3000.000 
G3 X-24.613 Y23.557 Z7.500 I0.387 J-1.443 F3000.000 
G3 X-23.507 Y24.963 Z7.500 I-0.387 J1.443 F3000.000 
G1 X-23.507 Y24.963 Z2.000 F3000.000 
G3 X-25.387 Y26.443 Z2.000 I-1.493 J0.037 F3000.000 
G3 X-24.613 Y23.557 Z2.000 I0.387 J-1.443 F3000.000 
G3 X-23.507 Y24.963 Z2.000 I-0.387 J1.443 F3000.000 
G1 X-23.507 Y24.963 Z0.000 F3000.000 
G3 X-25.387 Y26.443 Z0.000 I-1.493 J0.037 F3000.000 
G3 X-24.613 Y23.557 Z0.000 I0.387 J-1.443 F3000.000 
G3 X-23.507 Y24.963 Z0.000 I-0.387 J1.443 F3000.000 
G0 Z23.500 
G0 Z23.500 
G0 X-23.507 Y24.963 
G0 X-24.955 Y-23.507 
G0 X-24.955 Y-23.507 Z21.500 
G1 X-24.955 Y-23.507 Z18.500 F3000.000 
G3 X-25.387 Y-23.557 Z18.500 I-0.045 J-1.493 F3000.000 
G3 X-24.613 Y-26.443 Z18.500 I0.387 J-1.443 F3000.000 
G3 X-24.955 Y-23.507 Z18.500 I-0.387 J1.443 F3000.000 
G1 X-24.955 Y-23.507 Z13.000 F3000.000 
G3 X-25.387 Y-23.557 Z13.000 I-0.045 J-1.493 F3000.000 
G3 X-24.613 Y-26.443 Z13.000 I0.387 J-1.443 F3000.000 
G3 X-24.955 Y-23.507 Z13.000 I-0.387 J1.443 F3000.000 
G1 X-24.955 Y-23.507 Z7.500 F3000.000 
G3 X-25.387 Y-23.557 Z7.500 I-0.045 J-1.493 F3000.000 
G3 X-24.613 Y-26.443 Z7.500 I0.387 J-1.443 F3000.000 
G3 X-24.955 Y-23.507 Z7.500 I-0.387 J1.443 F3000.000 
G1 X-24.955 Y-23.507 Z2.000 F3000.000 
G3 X-25.387 Y-23.557 Z2.000 I-0.045 J-1.493 F3000.000 
G3 X-24.613 Y-26.443 Z2.000 I0.387 J-1.443 F3000.000 
G3 X-24.955 Y-23.507 Z2.000 I-0.387 J1.443 F3000.000 
G1 X-24.955 Y-23.507 Z0.000 F3000.000 
G3 X-25.387 Y-23.557 Z0.000 I-0.045 J-1.493 F3000.000 
G3 X-24.613 Y-26.443 Z0.000 I0.387 J-1.443 F3000.000 
G3 X-24.955 Y-23.507 Z0.000 I-0.387 J1.443 F3000.000 
G0 Z23.500 
G0 Z23.500 
G0 X-24.955 Y-23.507 
G0 X23.507 Y-24.955 
G0 X23.507 Y-24.955 Z21.500 
G1 X23.507 Y-24.955 Z18.500 F3000.000 
G3 X25.387 Y-26.443 Z18.500 I1.493 J-0.045 F3000.000 
G3 X24.613 Y-23.557 Z18.500 I-0.387 J1.443 F3000.000 
G3 X23.507 Y-24.955 Z18.500 I0.387 J-1.443 F3000.000 
G1 X23.507 Y-24.955 Z13.000 F3000.000 
G3 X25.387 Y-26.443 Z13.000 I1.493 J-0.045 F3000.000 
G3 X24.613 Y-23.557 Z13.000 I-0.387 J1.443 F3000.000 
G3 X23.507 Y-24.955 Z13.000 I0.387 J-1.443 F3000.000 
G1 X23.507 Y-24.955 Z7.500 F3000.000 
G3 X25.387 Y-26.443 Z7.500 I1.493 J-0.045 F3000.000 
G3 X24.613 Y-23.557 Z7.500 I-0.387 J1.443 F3000.000 
G3 X23.507 Y-24.955 Z7.500 I0.387 J-1.443 F3000.000 
G1 X23.507 Y-24.955 Z2.000 F3000.000 
G3 X25.387 Y-26.443 Z2.000 I1.493 J-0.045 F3000.000 
G3 X24.613 Y-23.557 Z2.000 I-0.387 J1.443 F3000.000 
G3 X23.507 Y-24.955 Z2.000 I0.387 J-1.443 F3000.000 
G1 X23.507 Y-24.955 Z0.000 F3000.000 
G3 X25.387 Y-26.443 Z0.000 I1.493 J-0.045 F3000.000 
G3 X24.613 Y-23.557 Z0.000 I-0.387 J1.443 F3000.000 
G3 X23.507 Y-24.955 Z0.000 I0.387 J-1.443 F3000.000 
G0 Z23.500 
G0 Z23.500 
G0 X23.507 Y-24.955 
G0 X133.531 Y-133.551 
G0 X133.531 Y-133.551 Z21.500 
G1 X133.531 Y-133.551 Z18.500 F3000.000 
G3 X135.571 Y-137.140 Z18.500 I1.526 J-1.506 F3000.000 
G3 X134.544 Y-132.975 Z18.500 I-0.513 J2.082 F3000.000 
G3 X133.531 Y-133.551 Z18.500 I0.513 J-2.082 F3000.000 
G1 X133.531 Y-133.551 Z13.000 F3000.000 
G3 X135.571 Y-137.140 Z13.000 I1.526 J-1.506 F3000.000 
G3 X134.544 Y-132.975 Z13.000 I-0.513 J2.082 F3000.000 
G3 X133.531 Y-133.551 Z13.000 I0.513 J-2.082 F3000.000 
G1 X133.531 Y-133.551 Z7.500 F3000.000 
G3 X135.571 Y-137.140 Z7.500 I1.526 J-1.506 F3000.000 
G3 X134.544 Y-132.975 Z7.500 I-0.513 J2.082 F3000.000 
G3 X133.531 Y-133.551 Z7.500 I0.513 J-2.082 F3000.000 
G1 X133.531 Y-133.551 Z2.000 F3000.000 
G3 X135.571 Y-137.140 Z2.000 I1.526 J-1.506 F3000.000 
G3 X134.544 Y-132.975 Z2.000 I-0.513 J2.082 F3000.000 
G3 X133.531 Y-133.551 Z2.000 I0.513 J-2.082 F3000.000 
G1 X133.531 Y-133.551 Z0.000 F3000.000 
G3 X135.571 Y-137.140 Z0.000 I1.526 J-1.506 F3000.000 
G3 X134.544 Y-132.975 Z0.000 I-0.513 J2.082 F3000.000 
G3 X133.531 Y-133.551 Z0.000 I0.513 J-2.082 F3000.000 
G0 Z23.500 
G0 Z23.500 
G0 X133.531 Y-133.551 
G0 X-132.913 Y-135.045 
G0 X-132.913 Y-135.045 Z21.500 
G1 X-132.913 Y-135.045 Z18.500 F3000.000 
G3 X-135.571 Y-132.975 Z18.500 I-2.144 J-0.012 F3000.000 
G3 X-134.544 Y-137.140 Z18.500 I0.513 J-2.082 F3000.000 
G3 X-132.913 Y-135.045 Z18.500 I-0.513 J2.082 F3000.000 
G1 X-132.913 Y-135.045 Z13.000 F3000.000 
G3 X-135.571 Y-132.975 Z13.000 I-2.144 J-0.012 F3000.000 
G3 X-134.544 Y-137.140 Z13.000 I0.513 J-2.082 F3000.000 
G3 X-132.913 Y-135.045 Z13.000 I-0.513 J2.082 F3000.000 
G1 X-132.913 Y-135.045 Z7.500 F3000.000 
G3 X-135.571 Y-132.975 Z7.500 I-2.144 J-0.012 F3000.000 
G3 X-134.544 Y-137.140 Z7.500 I0.513 J-2.082 F3000.000 
G3 X-132.913 Y-135.045 Z7.500 I-0.513 J2.082 F3000.000 
G1 X-132.913 Y-135.045 Z2.000 F3000.000 
G3 X-135.571 Y-132.975 Z2.000 I-2.144 J-0.012 F3000.000 
G3 X-134.544 Y-137.140 Z2.000 I0.513 J-2.082 F3000.000 
G3 X-132.913 Y-135.045 Z2.000 I-0.513 J2.082 F3000.000 
G1 X-132.913 Y-135.045 Z0.000 F3000.000 
G3 X-135.571 Y-132.975 Z0.000 I-2.144 J-0.012 F3000.000 
G3 X-134.544 Y-137.140 Z0.000 I0.513 J-2.082 F3000.000 
G3 X-132.913 Y-135.045 Z0.000 I-0.513 J2.082 F3000.000 
G0 Z23.500 
G0 Z23.500 
G0 X-132.913 Y-135.045 
G0 X-135.040 Y132.913 
G0 X-135.040 Y132.913 Z21.500 
G1 X-135.040 Y132.913 Z18.500 F3000.000 
G3 X-134.544 Y132.975 Z18.500 I-0.017 J2.144 F3000.000 
G3 X-135.571 Y137.140 Z18.500 I-0.513 J2.082 F3000.000 
G3 X-135.040 Y132.913 Z18.500 I0.513 J-2.082 F3000.000 
G1 X-135.040 Y132.913 Z13.000 F3000.000 
G3 X-134.544 Y132.975 Z13.000 I-0.017 J2.144 F3000.000 
G3 X-135.571 Y137.140 Z13.000 I-0.513 J2.082 F3000.000 
G3 X-135.040 Y132.913 Z13.000 I0.513 J-2.082 F3000.000 
G1 X-135.040 Y132.913 Z7.500 F3000.000 
G3 X-134.544 Y132.975 Z7.500 I-0.017 J2.144 F3000.000 
G3 X-135.571 Y137.140 Z7.500 I-0.513 J2.082 F3000.000 
G3 X-135.040 Y132.913 Z7.500 I0.513 J-2.082 F3000.000 
G1 X-135.040 Y132.913 Z2.000 F3000.000 
G3 X-134.544 Y132.975 Z2.000 I-0.017 J2.144 F3000.000 
G3 X-135.571 Y137.140 Z2.000 I-0.513 J2.082 F3000.000 
G3 X-135.040 Y132.913 Z2.000 I0.513 J-2.082 F3000.000 
G1 X-135.040 Y132.913 Z0.000 F3000.000 
G3 X-134.544 Y132.975 Z0.000 I-0.017 J2.144 F3000.000 
G3 X-135.571 Y137.140 Z0.000 I-0.513 J2.082 F3000.000 
G3 X-135.040 Y132.913 Z0.000 I0.513 J-2.082 F3000.000 
G0 Z23.500 
G0 Z23.500 
G0 X-135.040 Y132.913 
G0 X132.913 Y135.040 
G0 X132.913 Y135.040 Z21.500 
G1 X132.913 Y135.040 Z18.500 F3000.000 
G3 X135.571 Y132.975 Z18.500 I2.144 J0.017 F3000.000 
G3 X134.544 Y137.140 Z18.500 I-0.513 J2.082 F3000.000 
G3 X132.913 Y135.040 Z18.500 I0.513 J-2.082 F3000.000 
G1 X132.913 Y135.040 Z13.000 F3000.000 
G3 X135.571 Y132.975 Z13.000 I2.144 J0.017 F3000.000 
G3 X134.544 Y137.140 Z13.000 I-0.513 J2.082 F3000.000 
G3 X132.913 Y135.040 Z13.000 I0.513 J-2.082 F3000.000 
G1 X132.913 Y135.040 Z7.500 F3000.000 
G3 X135.571 Y132.975 Z7.500 I2.144 J0.017 F3000.000 
G3 X134.544 Y137.140 Z7.500 I-0.513 J2.082 F3000.000 
G3 X132.913 Y135.040 Z7.500 I0.513 J-2.082 F3000.000 
G1 X132.913 Y135.040 Z2.000 F3000.000 
G3 X135.571 Y132.975 Z2.000 I2.144 J0.017 F3000.000 
G3 X134.544 Y137.140 Z2.000 I-0.513 J2.082 F3000.000 
G3 X132.913 Y135.040 Z2.000 I0.513 J-2.082 F3000.000 
G1 X132.913 Y135.040 Z0.000 F3000.000 
G3 X135.571 Y132.975 Z0.000 I2.144 J0.017 F3000.000 
G3 X134.544 Y137.140 Z0.000 I-0.513 J2.082 F3000.000 
G3 X132.913 Y135.040 Z0.000 I0.513 J-2.082 F3000.000 
G0 Z23.500 
G0 Z23.500 
G0 X132.913 Y135.040 
G0 X164.495 Y167.128 
G0 X164.495 Y167.128 Z21.500 
G1 X164.495 Y167.128 Z18.500 F3000.000 
G2 X6.540 Y-234.409 Z18.500 I-164.495 J-167.128 F3000.000 
G2 X-234.409 Y-6.540 Z18.500 I-6.540 J234.409 F3000.000 
G2 X-6.540 Y234.409 Z18.500 I234.409 J6.540 F3000.000 
G2 X164.495 Y167.128 Z18.500 I6.540 J-234.409 F3000.000 
G1 X164.495 Y167.128 Z13.000 F3000.000 
G2 X6.540 Y-234.409 Z13.000 I-164.495 J-167.128 F3000.000 
G2 X-234.409 Y-6.540 Z13.000 I-6.540 J234.409 F3000.000 
G2 X-6.540 Y234.409 Z13.000 I234.409 J6.540 F3000.000 
G2 X164.495 Y167.128 Z13.000 I6.540 J-234.409 F3000.000 
G1 X164.495 Y167.128 Z7.500 F3000.000 
G2 X6.540 Y-234.409 Z7.500 I-164.495 J-167.128 F3000.000 
G2 X-234.409 Y-6.540 Z7.500 I-6.540 J234.409 F3000.000 
G2 X-6.540 Y234.409 Z7.500 I234.409 J6.540 F3000.000 
G2 X164.495 Y167.128 Z7.500 I6.540 J-234.409 F3000.000 
G1 X164.495 Y167.128 Z2.000 F3000.000 
G2 X6.540 Y-234.409 Z2.000 I-164.495 J-167.128 F3000.000 
G2 X-234.409 Y-6.540 Z2.000 I-6.540 J234.409 F3000.000 
G2 X-6.540 Y234.409 Z2.000 I234.409 J6.540 F3000.000 
G2 X164.495 Y167.128 Z2.000 I6.540 J-234.409 F3000.000 
G1 X164.495 Y167.128 Z0.000 F3000.000 
G2 X6.540 Y-234.409 Z0.000 I-164.495 J-167.128 F3000.000 
G2 X-234.409 Y-6.540 Z0.000 I-6.540 J234.409 F3000.000 
G2 X-6.540 Y234.409 Z0.000 I234.409 J6.540 F3000.000 
G2 X164.495 Y167.128 Z0.000 I6.540 J-234.409 F3000.000 
G0 Z23.500 
G0 Z23.500 
(finish operation: Profile)
(begin postamble)
M05
G17 G54 G90 G80 G40
M2
