;FLAVOR:Marlin
;TIME:2586
;Filament used: 0.895161m, 0m
;Layer height: 0.2
;MINX:75.368
;MINY:91.751
;MINZ:0.2
;MAXX:134.633
;MAXY:205.242
;MAXZ:2.2
;Generated with StratosEngine 1.6.0
T0
M82 ;absolute extrusion mode
;Machine Model: Sigma R19 
;Materials used: T0 ABS  
;Extruders used: T0 0.4  
M141 S0 	;Set chamber temperature 
M140 S100 	;Heat build surface
M104 T0 S235	;Heat extruder 0
M190 S100 	;Wait until bed temperature reached 
M109 T0 S235	;Heat extruder 0 and wait
G21 		;metric values 
G90 		;absolute positioning 
M204 S600 	;set default acceleration 
M205 X12.5 Y12.5 ;set default jerk 
M107 		;start with the fan off 
G28 X0 Y0 	;move X/Y to min endstops 
G28 Z0 		;move Z to min endstops 
G1 Z5 F200 	;safety Z axis movement

T0
G92 E0 		;set zero the extruded length 
G1 E15 F30
G92 E0 
G4 S2 		;stabilize hotend 
G1 E-0.5 F1000 
G92 E0

G4 P1
G4 P2
G4 P3

G92 E0
;LAYER_COUNT:10
;LAYER:0
M107
M204 S627
M205 X9.38 Y9.38
G1 F600 Z0.6
G0 F6030 X94.343 Y205.218 Z0.6
M204 S470
;TYPE:SKIRT
G1 F600 Z0.2
G1 F1050 E0
G1 F2010 X93.254 Y205.242 E0.01639
G1 X91.496 Y205.011 E0.04307
G1 X89.804 Y204.472 E0.0698
G1 X88.239 Y203.645 E0.09643
G1 X86.848 Y202.561 E0.12297
G1 X85.666 Y201.249 E0.14955
G1 X84.727 Y199.738 E0.17632
G1 X84.072 Y198.09 E0.203
G1 X83.713 Y196.322 E0.23015
G1 X83.677 Y195.78 E0.23833
G1 X81.989 Y195.293 E0.26476
G1 X80.431 Y194.53 E0.29087
G1 X78.957 Y193.445 E0.31841
G1 X77.733 Y192.151 E0.34522
G1 X76.754 Y190.652 E0.37216
G1 X76.057 Y189.005 E0.39907
G1 X75.787 Y187.924 E0.41584
G1 X75.612 Y186.627 E0.43553
G1 X75.567 Y185.965 E0.44552
G1 X75.368 Y101.781 E1.71236
G1 X75.41 Y101.122 E1.7223
G1 X75.574 Y99.856 E1.74151
G1 X75.841 Y98.765 E1.75841
G1 X76.551 Y97.071 E1.78605
G1 X77.5 Y95.606 E1.81232
G1 X78.704 Y94.316 E1.83887
G1 X80.13 Y93.247 E1.86569
G1 X81.686 Y92.463 E1.89191
G1 X83.376 Y91.955 E1.91847
G1 X85.154 Y91.751 E1.9454
G1 X86.943 Y91.866 E1.97238
G1 X88.667 Y92.292 E1.9991
G1 X90.272 Y93.005 E2.02553
G1 X91.366 Y93.696 E2.045
G1 X115.966 Y111.84 E2.50499
G1 X116.817 Y110.605 E2.52756
G1 X118.09 Y109.305 E2.55494
G1 X119.536 Y108.279 E2.58162
G1 X121.128 Y107.528 E2.60811
G1 X122.896 Y107.056 E2.63565
G1 X124.66 Y106.911 E2.66229
G1 X126.419 Y107.079 E2.68888
G1 X128.173 Y107.573 E2.7163
G1 X129.764 Y108.347 E2.74292
G1 X131.19 Y109.386 E2.76947
G1 X132.437 Y110.692 E2.79665
G1 X133.415 Y112.171 E2.82333
G1 X134.141 Y113.872 E2.85116
G1 X134.418 Y114.976 E2.86829
G1 X134.588 Y116.251 E2.88765
G1 X134.632 Y116.917 E2.89769
G1 X134.633 Y186.939 E3.95141
G1 X134.538 Y188.248 E3.97116
G1 X134.324 Y189.324 E3.98767
G1 X133.938 Y190.549 E4.007
G1 X133.496 Y191.554 E4.02352
G1 X132.689 Y192.872 E4.04678
G1 X132.391 Y193.229 E4.05378
G1 X131.536 Y194.162 E4.07282
G1 X130.727 Y194.874 E4.08904
G1 X129.458 Y195.721 E4.112
G1 X129.028 Y195.924 E4.11915
G1 X127.843 Y196.417 E4.13847
G1 X127.212 Y196.632 E4.1485
G1 X96.283 Y204.92 E4.63035
G1 X95.633 Y205.049 E4.64033
G1 X94.343 Y205.218 E4.6599
M204 S627
G0 F6030 X94.28 Y204.742
M204 S470
G1 F2010 X93.295 Y204.764 E4.67473
G1 X91.621 Y204.548 E4.70013
G1 X90.01 Y204.038 E4.72556
G1 X88.517 Y203.254 E4.75094
G1 X87.19 Y202.224 E4.77621
G1 X86.062 Y200.978 E4.80151
G1 X85.164 Y199.542 E4.82699
G1 X84.538 Y197.973 E4.85242
G1 X84.192 Y196.291 E4.87826
G1 X84.135 Y195.365 E4.89222
G1 X82.984 Y195.122 E4.90992
G1 X81.423 Y194.524 E4.93508
G1 X79.971 Y193.648 E4.96059
G1 X78.678 Y192.51 E4.98652
G1 X77.618 Y191.172 E5.0122
G1 X76.819 Y189.678 E5.0377
G1 X76.335 Y188.259 E5.06026
G1 X76.263 Y187.86 E5.06636
G1 X76.088 Y186.563 E5.08606
G1 X76.047 Y185.964 E5.09509
G1 X75.848 Y101.78 E6.36193
G1 X75.886 Y101.183 E6.37094
G1 X76.05 Y99.917 E6.39015
G1 X76.292 Y98.931 E6.40542
G1 X76.964 Y97.314 E6.43178
G1 X77.866 Y95.917 E6.4568
G1 X79.008 Y94.688 E6.48205
G1 X80.365 Y93.666 E6.50761
G1 X81.844 Y92.917 E6.53256
G1 X83.453 Y92.429 E6.55786
G1 X85.144 Y92.231 E6.58348
G1 X86.848 Y92.337 E6.60917
G1 X88.491 Y92.739 E6.63463
G1 X90.022 Y93.415 E6.65981
G1 X91.081 Y94.082 E6.67865
G1 X116.121 Y112.551 E7.14687
G1 X116.674 Y111.603 E7.16338
G1 X117.748 Y110.282 E7.189
G1 X119.065 Y109.152 E7.21512
G1 X120.497 Y108.314 E7.24009
G1 X122.104 Y107.721 E7.26586
G1 X123.811 Y107.422 E7.29194
G1 X125.468 Y107.431 E7.31688
G1 X127.159 Y107.743 E7.34275
G1 X128.768 Y108.352 E7.36864
G1 X130.194 Y109.207 E7.39366
G1 X131.49 Y110.335 E7.41952
G1 X132.548 Y111.657 E7.445
G1 X133.362 Y113.161 E7.47074
G1 X133.866 Y114.619 E7.49395
G1 X133.942 Y115.039 E7.50037
G1 X134.112 Y116.314 E7.51973
G1 X134.152 Y116.917 E7.52882
G1 X134.153 Y186.939 E8.58255
G1 X134.06 Y188.206 E8.60166
G1 X133.866 Y189.179 E8.61659
G1 X133.48 Y190.404 E8.63592
G1 X133.08 Y191.314 E8.65088
G1 X132.289 Y192.605 E8.67366
G1 X132.037 Y192.905 E8.67956
G1 X131.182 Y193.838 E8.6986
G1 X130.45 Y194.482 E8.71328
G1 X129.207 Y195.311 E8.73576
G1 X128.844 Y195.481 E8.74179
G1 X127.659 Y195.974 E8.76111
G1 X127.087 Y196.169 E8.7702
G1 X96.158 Y204.457 E9.25205
G1 X95.57 Y204.573 E9.26107
G1 X94.28 Y204.742 E9.28065
M204 S627
G0 F6030 X94.218 Y204.266
M204 S470
G1 F2010 X93.337 Y204.286 E9.29391
G1 X91.746 Y204.084 E9.31805
G1 X90.215 Y203.604 E9.34219
G1 X88.795 Y202.863 E9.3663
G1 X87.532 Y201.888 E9.39031
G1 X86.457 Y200.706 E9.41435
G1 X85.602 Y199.345 E9.43854
G1 X85.003 Y197.857 E9.46267
G1 X84.671 Y196.259 E9.48724
G1 X84.623 Y194.951 E9.50693
G1 X83.138 Y194.668 E9.52968
G1 X81.653 Y194.102 E9.5536
G1 X80.273 Y193.275 E9.57781
G1 X79.041 Y192.196 E9.60245
G1 X78.032 Y190.928 E9.62684
G1 X77.269 Y189.511 E9.65106
G1 X76.796 Y188.123 E9.67312
G1 X76.739 Y187.796 E9.67812
G1 X76.564 Y186.499 E9.69781
G1 X76.527 Y185.963 E9.7059
G1 X76.328 Y101.779 E10.97274
G1 X76.362 Y101.245 E10.98079
G1 X76.526 Y99.979 E11
G1 X76.742 Y99.096 E11.01368
G1 X77.378 Y97.558 E11.03873
G1 X78.231 Y96.228 E11.0625
G1 X79.312 Y95.059 E11.08646
G1 X80.6 Y94.084 E11.11077
G1 X82.002 Y93.37 E11.13445
G1 X83.529 Y92.903 E11.15848
G1 X85.135 Y92.711 E11.18282
G1 X86.754 Y92.807 E11.20723
G1 X88.316 Y93.185 E11.23141
G1 X89.771 Y93.824 E11.25532
G1 X90.796 Y94.469 E11.27355
G1 X116.295 Y113.276 E11.75035
G1 X117.059 Y111.89 E11.77417
G1 X118.076 Y110.633 E11.7985
G1 X119.324 Y109.556 E11.8233
G1 X120.683 Y108.756 E11.84704
G1 X122.206 Y108.189 E11.87149
G1 X123.828 Y107.902 E11.89628
G1 X125.402 Y107.907 E11.91996
G1 X127.008 Y108.198 E11.94453
G1 X128.539 Y108.774 E11.96914
G1 X129.895 Y109.582 E11.9929
G1 X131.128 Y110.65 E12.01744
G1 X132.136 Y111.904 E12.04165
G1 X132.912 Y113.329 E12.06607
G1 X133.405 Y114.757 E12.08881
G1 X133.466 Y115.103 E12.09409
G1 X133.636 Y116.378 E12.11345
G1 X133.672 Y116.917 E12.12158
G1 X133.673 Y186.939 E13.1753
G1 X133.582 Y188.164 E13.19379
G1 X133.408 Y189.035 E13.20715
G1 X133.022 Y190.26 E13.22648
G1 X132.665 Y191.074 E13.23986
G1 X131.889 Y192.337 E13.26216
G1 X131.683 Y192.581 E13.26697
G1 X130.828 Y193.514 E13.28601
G1 X130.173 Y194.09 E13.29914
G1 X128.957 Y194.9 E13.32113
G1 X128.659 Y195.038 E13.32607
G1 X127.474 Y195.531 E13.34538
G1 X126.963 Y195.705 E13.3535
G1 X96.034 Y203.993 E13.83536
G1 X95.508 Y204.097 E13.84343
G1 X94.218 Y204.266 E13.86301
M204 S627
G0 F6030 X94.156 Y203.79
M204 S470
G1 F2010 X92.499 Y203.732 E13.88796
G1 X91.022 Y203.392 E13.91076
G1 X89.619 Y202.791 E13.93373
G1 X88.354 Y201.96 E13.95651
G1 X87.255 Y200.922 E13.97926
G1 X86.356 Y199.71 E14.00197
G1 X85.677 Y198.34 E14.02498
G1 X85.25 Y196.866 E14.04807
G1 X85.092 Y195.348 E14.07104
G1 X85.128 Y194.511 E14.08364
G1 X83.923 Y194.364 E14.10191
G1 X82.45 Y193.929 E14.12502
G1 X81.119 Y193.265 E14.14741
G1 X79.863 Y192.326 E14.17101
G1 X78.822 Y191.209 E14.19398
G1 X77.994 Y189.92 E14.21704
G1 X77.407 Y188.503 E14.24012
G1 X77.214 Y187.731 E14.25209
G1 X77.039 Y186.434 E14.27179
G1 X77.007 Y185.962 E14.27891
G1 X76.808 Y101.778 E15.54575
G1 X76.838 Y101.307 E15.55285
G1 X77.002 Y100.041 E15.57206
G1 X77.514 Y98.388 E15.5981
G1 X78.237 Y97.045 E15.62106
G1 X79.155 Y95.883 E15.64334
G1 X80.317 Y94.857 E15.66667
G1 X81.583 Y94.083 E15.689
G1 X82.994 Y93.532 E15.71179
G1 X84.479 Y93.236 E15.73458
G1 X85.125 Y93.191 E15.74432
G1 X86.66 Y93.278 E15.76746
G1 X88.14 Y93.632 E15.79036
G1 X89.521 Y94.234 E15.81303
G1 X90.511 Y94.855 E15.83062
G1 X116.283 Y113.864 E16.31253
G1 X116.492 Y114.041 E16.31665
G1 X117.112 Y112.715 E16.33868
G1 X117.973 Y111.465 E16.36152
G1 X119.073 Y110.358 E16.385
G1 X120.315 Y109.49 E16.40781
G1 X121.685 Y108.856 E16.43052
G1 X123.204 Y108.462 E16.45414
G1 X124.711 Y108.35 E16.47688
G1 X126.221 Y108.505 E16.49972
G1 X127.72 Y108.94 E16.52321
G1 X129.075 Y109.612 E16.54597
G1 X130.293 Y110.513 E16.56877
G1 X131.351 Y111.637 E16.592
G1 X132.18 Y112.912 E16.61488
G1 X132.793 Y114.378 E16.6388
G1 X132.99 Y115.166 E16.65102
G1 X133.16 Y116.441 E16.67038
G1 X133.192 Y116.917 E16.67755
G1 X133.193 Y186.939 E17.73128
G1 X133.103 Y188.122 E17.74913
G1 X132.951 Y188.891 E17.76093
G1 X132.565 Y190.116 E17.78025
G1 X131.793 Y191.624 E17.80575
G1 X131.329 Y192.256 E17.81755
G1 X130.474 Y193.189 E17.83659
G1 X129.168 Y194.212 E17.86156
G1 X128.475 Y194.595 E17.87347
G1 X127.29 Y195.088 E17.89279
G1 X126.839 Y195.241 E17.89995
G1 X95.91 Y203.529 E18.38181
G1 X95.446 Y203.621 E18.38892
G1 X94.156 Y203.79 E18.4085
M204 S627
G0 F6030 X94.093 Y203.315
M204 S470
G1 F2010 X92.54 Y203.253 E18.43189
G1 X91.147 Y202.928 E18.45342
G1 X89.825 Y202.357 E18.47509
G1 X88.633 Y201.569 E18.49659
G1 X87.597 Y200.585 E18.51809
G1 X86.752 Y199.439 E18.53952
G1 X86.115 Y198.144 E18.56124
G1 X85.716 Y196.749 E18.58307
G1 X85.571 Y195.316 E18.60475
G1 X85.664 Y194.041 E18.62398
G1 X84.876 Y194.018 E18.63585
G1 X83.445 Y193.758 E18.65773
G1 X82.111 Y193.259 E18.67917
G1 X80.877 Y192.529 E18.70074
G1 X79.767 Y191.568 E18.72284
G1 X78.858 Y190.44 E18.74464
G1 X78.169 Y189.176 E18.7663
G1 X77.69 Y187.667 E18.79013
G1 X77.515 Y186.37 E18.80982
G1 X77.487 Y185.96 E18.816
G1 X77.288 Y101.776 E20.08285
G1 X77.314 Y101.368 E20.089
G1 X77.478 Y100.102 E20.10821
G1 X77.964 Y98.553 E20.13264
G1 X78.651 Y97.288 E20.1543
G1 X79.52 Y96.194 E20.17533
G1 X80.621 Y95.228 E20.19737
G1 X81.818 Y94.502 E20.21844
G1 X83.152 Y93.985 E20.23996
G1 X84.556 Y93.71 E20.26149
G1 X85.115 Y93.671 E20.26993
G1 X86.566 Y93.749 E20.29179
G1 X87.964 Y94.079 E20.31341
G1 X89.271 Y94.643 E20.33483
G1 X90.226 Y95.241 E20.35179
G1 X115.998 Y114.25 E20.8337
G1 X116.68 Y114.87 E20.84757
G1 X117.151 Y113.71 E20.86641
G1 X117.829 Y112.463 E20.88777
G1 X118.731 Y111.334 E20.90952
G1 X119.844 Y110.364 E20.93173
G1 X121.054 Y109.641 E20.95294
G1 X122.412 Y109.127 E20.97479
G1 X123.862 Y108.861 E20.99698
G1 X125.269 Y108.858 E21.01815
G1 X126.706 Y109.109 E21.0401
G1 X128.08 Y109.617 E21.06215
G1 X129.297 Y110.333 E21.0834
G1 X130.404 Y111.28 E21.10532
G1 X131.312 Y112.397 E21.12698
G1 X132.013 Y113.666 E21.1488
G1 X132.515 Y115.23 E21.17352
G1 X132.685 Y116.505 E21.19287
G1 X132.712 Y116.917 E21.19909
G1 X132.713 Y186.939 E22.25281
G1 X132.625 Y188.081 E22.27004
G1 X132.493 Y188.747 E22.28026
G1 X132.107 Y189.972 E22.29959
G1 X131.377 Y191.384 E22.32351
G1 X130.975 Y191.932 E22.33374
G1 X130.12 Y192.865 E22.35278
G1 X128.892 Y193.82 E22.37619
G1 X128.29 Y194.152 E22.38654
G1 X127.105 Y194.645 E22.40585
G1 X126.715 Y194.778 E22.41205
G1 X95.786 Y203.066 E22.89391
G1 X95.383 Y203.146 E22.90009
G1 X94.093 Y203.315 E22.91967
M204 S627
G0 F6030 X94.031 Y202.839
M204 S470
G1 F2010 X92.582 Y202.775 E22.94149
G1 X91.272 Y202.465 E22.96175
G1 X90.03 Y201.923 E22.98214
G1 X88.911 Y201.178 E23.00237
G1 X87.939 Y200.249 E23.02261
G1 X87.147 Y199.167 E23.04279
G1 X86.553 Y197.947 E23.06321
G1 X86.181 Y196.633 E23.08376
G1 X86.05 Y195.285 E23.10414
G1 X86.158 Y193.938 E23.12447
G1 X86.238 Y193.543 E23.13054
G1 X84.946 Y193.543 E23.14998
G1 X83.598 Y193.303 E23.17058
G1 X82.341 Y192.837 E23.19076
G1 X81.179 Y192.155 E23.21103
G1 X80.13 Y191.254 E23.23184
G1 X79.272 Y190.196 E23.25234
G1 X78.619 Y189.009 E23.27273
G1 X78.166 Y187.603 E23.29496
G1 X77.991 Y186.306 E23.31465
G1 X77.967 Y185.959 E23.31989
G1 X77.768 Y101.775 E24.58673
G1 X77.79 Y101.43 E24.59193
G1 X77.954 Y100.164 E24.61114
G1 X78.415 Y98.719 E24.63397
G1 X79.064 Y97.532 E24.65432
G1 X79.886 Y96.505 E24.67412
G1 X80.925 Y95.599 E24.69486
G1 X82.053 Y94.92 E24.71468
G1 X83.31 Y94.438 E24.73494
G1 X84.632 Y94.184 E24.75519
G1 X85.106 Y94.151 E24.76234
G1 X86.471 Y94.219 E24.78291
G1 X87.789 Y94.525 E24.80327
G1 X89.02 Y95.053 E24.82343
G1 X89.941 Y95.627 E24.83976
G1 X115.713 Y114.636 E25.32167
G1 X115.979 Y114.862 E25.32692
G1 X116.862 Y115.715 E25.3454
G1 X117.486 Y114.135 E25.37096
G1 X118.214 Y112.749 E25.39452
G1 X119.059 Y111.685 E25.41497
G1 X120.103 Y110.767 E25.43589
G1 X121.24 Y110.084 E25.45585
G1 X122.514 Y109.596 E25.47638
G1 X123.88 Y109.341 E25.49729
G1 X125.203 Y109.333 E25.5172
G1 X126.555 Y109.565 E25.53784
G1 X127.85 Y110.038 E25.55859
G1 X128.998 Y110.709 E25.5786
G1 X130.042 Y111.596 E25.59922
G1 X130.901 Y112.644 E25.61961
G1 X131.564 Y113.835 E25.64012
G1 X132.039 Y115.293 E25.6632
G1 X132.209 Y116.568 E25.68255
G1 X132.232 Y116.917 E25.68782
G1 X132.233 Y186.939 E26.74154
G1 X132.035 Y188.602 E26.76674
G1 X131.649 Y189.827 E26.78607
G1 X130.961 Y191.144 E26.80843
G1 X130.621 Y191.608 E26.81708
G1 X129.766 Y192.541 E26.83613
G1 X128.615 Y193.428 E26.858
G1 X128.106 Y193.708 E26.86674
G1 X126.921 Y194.201 E26.88605
G1 X126.59 Y194.314 E26.89131
G1 X95.661 Y202.602 E27.37317
G1 X95.321 Y202.67 E27.37839
G1 X94.031 Y202.839 E27.39797
M204 S627
G0 F6030 X93.969 Y202.363
M204 S470
G1 F2010 X92.623 Y202.297 E27.41825
G1 X91.397 Y202.001 E27.43722
G1 X90.235 Y201.489 E27.45633
G1 X89.189 Y200.787 E27.47529
G1 X88.281 Y199.912 E27.49427
G1 X87.543 Y198.895 E27.51318
G1 X86.991 Y197.75 E27.5323
G1 X86.647 Y196.516 E27.55158
G1 X86.529 Y195.253 E27.57067
G1 X86.635 Y193.991 E27.58973
G1 X86.903 Y192.964 E27.6057
G1 X86.286 Y193.061 E27.6151
G1 X85.015 Y193.068 E27.63423
G1 X83.752 Y192.848 E27.65352
G1 X82.57 Y192.415 E27.67246
G1 X81.48 Y191.782 E27.69143
G1 X80.493 Y190.94 E27.71095
G1 X79.685 Y189.952 E27.73016
G1 X79.069 Y188.842 E27.74926
G1 X78.641 Y187.539 E27.7699
G1 X78.466 Y186.242 E27.7896
G1 X78.447 Y185.958 E27.79388
G1 X78.248 Y101.774 E29.06072
G1 X78.266 Y101.492 E29.06497
G1 X78.43 Y100.226 E29.08418
G1 X78.865 Y98.884 E29.10541
G1 X79.478 Y97.776 E29.12447
G1 X80.252 Y96.816 E29.14303
G1 X81.23 Y95.971 E29.16248
G1 X82.288 Y95.339 E29.18102
G1 X83.468 Y94.892 E29.20001
G1 X84.709 Y94.658 E29.21902
G1 X85.096 Y94.63 E29.22485
G1 X86.377 Y94.69 E29.24415
G1 X87.613 Y94.972 E29.26323
G1 X88.77 Y95.462 E29.28214
G1 X89.656 Y96.014 E29.29785
G1 X115.428 Y115.023 E29.77976
G1 X115.646 Y115.207 E29.78405
G1 X116.567 Y116.096 E29.80331
G1 X117.004 Y116.664 E29.8141
G1 X117.933 Y114.312 E29.85215
G1 X118.599 Y113.036 E29.87381
G1 X119.386 Y112.036 E29.89296
G1 X120.363 Y111.171 E29.9126
G1 X121.426 Y110.526 E29.93131
G1 X122.617 Y110.065 E29.95053
G1 X123.897 Y109.82 E29.97014
G1 X125.137 Y109.809 E29.9888
G1 X126.404 Y110.021 E30.00813
G1 X127.621 Y110.46 E30.0276
G1 X128.699 Y111.084 E30.04635
G1 X129.68 Y111.911 E30.06566
G1 X130.489 Y112.891 E30.08478
G1 X131.114 Y114.004 E30.10399
G1 X131.563 Y115.357 E30.12544
G1 X131.733 Y116.632 E30.1448
G1 X131.752 Y116.917 E30.14909
G1 X131.753 Y186.939 E31.20282
G1 X131.577 Y188.458 E31.22583
G1 X131.191 Y189.683 E31.24516
G1 X130.546 Y190.904 E31.26594
G1 X130.267 Y191.283 E31.27302
G1 X129.412 Y192.216 E31.29206
G1 X128.338 Y193.036 E31.3124
G1 X127.922 Y193.265 E31.31954
G1 X126.737 Y193.758 E31.33886
G1 X126.466 Y193.85 E31.34316
G1 X95.537 Y202.138 E31.82502
G1 X95.259 Y202.194 E31.82929
G1 X93.969 Y202.363 E31.84886
M204 S627
G0 F6030 X93.906 Y201.887
M204 S470
G1 F2010 X92.664 Y201.819 E31.86758
G1 X91.522 Y201.538 E31.88528
G1 X90.44 Y201.056 E31.90311
G1 X89.467 Y200.395 E31.92081
G1 X88.624 Y199.575 E31.9385
G1 X87.939 Y198.624 E31.95614
G1 X87.429 Y197.553 E31.97399
G1 X87.112 Y196.399 E31.992
G1 X87.008 Y195.221 E32.0098
G1 X87.112 Y194.044 E32.02758
G1 X87.414 Y192.931 E32.04493
G1 X87.66 Y192.29 E32.05526
