;FLAVOR:Marlin
;TIME:12348
;Filament used: 3.09377m, 0m
;Layer height: 0.15
;MINX:37.206
;MINY:45.745
;MINZ:0.2
;MAXX:162.413
;MAXY:251.248
;MAXZ:41.9
;Generated with StratosEngine 1.6.0
T0
M82 ;absolute extrusion mode
;Machine Model: Sigma R19 
;Materials used: T0 ABS  
;Extruders used: T0 0.4  
M141 S0 	;Set chamber temperature 
M140 S100 	;Heat build surface
M104 T0 S235	;Heat extruder 0
M190 S100 	;Wait until bed temperature reached 
M109 T0 S235	;Heat extruder 0 and wait
G21 		;metric values 
G90 		;absolute positioning 
M204 S600 	;set default acceleration 
M205 X12.5 Y12.5 ;set default jerk 
M107 		;start with the fan off 
G28 X0 Y0 	;move X/Y to min endstops 
G28 Z0 		;move Z to min endstops 
G1 Z5 F200 	;safety Z axis movement

T0
G92 E0 		;set zero the extruded length 
G1 E15 F30
G92 E0 
G4 S2 		;stabilize hotend 
G1 E-0.5 F1000 
G92 E0

G4 P1
G4 P2
G4 P3

G92 E0
;LAYER_COUNT:279
;LAYER:0
M107
M204 S627
M205 X9.38 Y9.38
G1 F600 Z0.5
G0 F6030 X110.11 Y251.241 Z0.5
M204 S470
;TYPE:SKIRT
G1 F600 Z0.2
G1 F1050 E0
G1 F2010 X108.704 Y251.04 E0.02137
G1 X107.365 Y250.602 E0.04257
G1 X106.118 Y249.937 E0.06384
G1 X105.002 Y249.063 E0.08517
G1 X103.747 Y250.024 E0.10896
G1 X102.486 Y250.666 E0.13025
G1 X101.13 Y251.078 E0.15158
G1 X99.727 Y251.248 E0.17285
G1 X98.316 Y251.172 E0.19411
G1 X97.353 Y250.983 E0.20888
G1 X66.441 Y242.7 E0.69047
G1 X65.363 Y242.32 E0.70767
G1 X64.118 Y241.655 E0.72891
G1 X63.002 Y240.781 E0.75024
G1 X62.059 Y239.731 E0.77148
G1 X61.31 Y238.526 E0.79283
G1 X60.784 Y237.216 E0.81407
G1 X60.492 Y235.837 E0.83528
G1 X60.425 Y234.857 E0.85007
G1 X60.425 Y163.062 E1.93047
G1 X60.076 Y163.258 E1.93649
G1 X58.993 Y163.561 E1.95341
G1 X58.387 Y163.62 E1.96258
G1 X44.39 Y163.62 E2.17321
G1 X43.401 Y163.485 E2.18823
G1 X42.92 Y163.349 E2.19575
G1 X41.934 Y162.79 E2.21281
G1 X41.544 Y162.478 E2.22033
G1 X40.879 Y161.628 E2.23657
G1 X40.634 Y161.194 E2.24407
G1 X40.372 Y160.296 E2.25814
G1 X40.269 Y159.314 E2.273
G1 X40.269 Y143.282 E2.51426
G1 X37.686 Y138.81 E2.59197
G1 X37.374 Y138.058 E2.60423
G1 X37.217 Y137.317 E2.61562
G1 X37.206 Y136.818 E2.62314
G1 X37.378 Y135.931 E2.63673
G1 X37.548 Y135.461 E2.64425
G1 X37.789 Y135.025 E2.65175
G1 X38.365 Y134.362 E2.66497
G1 X38.745 Y134.038 E2.67248
G1 X39.172 Y133.779 E2.68
G1 X39.964 Y133.508 E2.69259
G1 X40.914 Y133.38 E2.70702
G1 X44.848 Y133.38 E2.76622
G1 X45.346 Y133.42 E2.77374
G1 X45.83 Y133.539 E2.78124
G1 X46.29 Y133.733 E2.78875
G1 X46.713 Y133.999 E2.79627
G1 X47.088 Y134.328 E2.80378
G1 X47.504 Y134.88 E2.81418
G1 X55.275 Y134.88 E2.93112
G1 X55.758 Y134.26 E2.94295
G1 X56.143 Y133.942 E2.95046
G1 X56.574 Y133.69 E2.95797
G1 X57.04 Y133.51 E2.96549
G1 X57.93 Y133.38 E2.97903
G1 X60.425 Y133.38 E3.01657
G1 X60.425 Y108.672 E3.38839
G1 X60.493 Y107.487 E3.40625
G1 X60.726 Y106.124 E3.42706
G1 X61.12 Y104.811 E3.44769
G1 X61.685 Y103.54 E3.46862
G1 X61.77 Y103.371 E3.47147
G1 X90.438 Y50.511 E4.37638
G1 X91.091 Y49.49 E4.39462
G1 X92.038 Y48.386 E4.41651
G1 X93.158 Y47.441 E4.43856
G1 X94.438 Y46.679 E4.46098
G1 X95.799 Y46.142 E4.483
G1 X97.22 Y45.829 E4.50489
G1 X98.678 Y45.747 E4.52687
G1 X100.099 Y45.893 E4.54836
G1 X101.504 Y46.269 E4.57025
G1 X102.836 Y46.866 E4.59222
G1 X104.054 Y47.667 E4.61415
G1 X104.996 Y48.523 E4.63331
G1 X106.13 Y47.527 E4.65602
G1 X107.368 Y46.758 E4.67795
G1 X108.709 Y46.197 E4.69983
G1 X110.17 Y45.85 E4.72242
G1 X111.621 Y45.745 E4.74432
G1 X113.077 Y45.874 E4.76631
G1 X114.489 Y46.232 E4.78823
G1 X115.804 Y46.8 E4.80979
G1 X117.026 Y47.576 E4.83157
G1 X118.124 Y48.55 E4.85366
G1 X119.044 Y49.678 E4.87557
G1 X119.562 Y50.51 E4.89031
G1 X148.23 Y103.369 E5.79522
G1 X148.735 Y104.441 E5.81305
G1 X149.18 Y105.754 E5.83391
G1 X149.459 Y107.103 E5.85464
G1 X149.569 Y108.475 E5.87535
G1 X149.575 Y108.67 E5.87829
G1 X149.575 Y140.349 E6.35501
G1 X150.239 Y140.059 E6.36591
G1 X151.645 Y139.659 E6.38791
G1 X153.117 Y139.492 E6.4102
G1 X154.581 Y139.565 E6.43226
G1 X156.023 Y139.879 E6.45447
G1 X157.379 Y140.415 E6.47641
G1 X158.633 Y141.163 E6.49839
G1 X159.769 Y142.124 E6.52078
G1 X160.707 Y143.228 E6.54258
G1 X161.47 Y144.493 E6.56481
G1 X161.853 Y145.382 E6.57937
G1 X162.044 Y145.985 E6.58889
G1 X162.334 Y147.39 E6.61048
G1 X162.398 Y148.024 E6.62007
G1 X162.355 Y149.502 E6.64232
G1 X162.072 Y150.945 E6.66445
G1 X161.562 Y152.318 E6.68649
G1 X160.83 Y153.6 E6.70871
G1 X159.905 Y154.735 E6.73074
G1 X159.731 Y154.898 E6.73433
G1 X160.611 Y155.897 E6.75436
G1 X161.395 Y157.14 E6.77648
G1 X161.965 Y158.493 E6.79857
G1 X162.306 Y159.919 E6.82064
G1 X162.413 Y161.388 E6.8428
G1 X162.279 Y162.851 E6.86491
G1 X161.91 Y164.275 E6.88705
G1 X161.315 Y165.613 E6.90908
G1 X160.507 Y166.846 E6.93126
G1 X159.511 Y167.926 E6.95337
G1 X158.352 Y168.832 E6.97551
G1 X157.065 Y169.536 E6.99759
G1 X155.684 Y170.02 E7.01961
G1 X154.232 Y170.277 E7.0418
G1 X152.763 Y170.293 E7.06391
G1 X151.31 Y170.07 E7.08603
G1 X149.911 Y169.613 E7.10817
G1 X149.575 Y169.45 E7.11379
G1 X149.575 Y234.856 E8.09805
G1 X149.487 Y235.998 E8.11529
G1 X149.168 Y237.374 E8.13654
G1 X148.611 Y238.678 E8.15788
G1 X147.841 Y239.86 E8.17911
G1 X146.876 Y240.893 E8.20038
G1 X145.745 Y241.743 E8.22168
G1 X144.488 Y242.382 E8.24289
G1 X143.556 Y242.701 E8.25772
G1 X112.648 Y250.982 E8.73924
G1 X111.526 Y251.193 E8.75642
G1 X110.11 Y251.241 E8.77774
M204 S627
G0 F6030 X109.647 Y250.72
M204 S470
G1 F2010 X108.349 Y250.449 E8.7977
G1 X107.112 Y249.957 E8.81773
G1 X105.979 Y249.257 E8.83777
G1 X104.993 Y248.378 E8.85765
G1 X104.183 Y249.133 E8.87431
G1 X103.074 Y249.861 E8.89428
G1 X101.847 Y250.389 E8.91438
G1 X100.554 Y250.694 E8.93437
G1 X99.224 Y250.77 E8.95442
G1 X98.015 Y250.641 E8.97271
G1 X97.478 Y250.519 E8.981
G1 X66.566 Y242.236 E9.46259
G1 X65.112 Y241.675 E9.48604
G1 X63.979 Y240.975 E9.50608
G1 X62.987 Y240.09 E9.52609
G1 X62.159 Y239.04 E9.54621
G1 X61.534 Y237.873 E9.56613
G1 X61.117 Y236.61 E9.58615
G1 X60.927 Y235.407 E9.60447
G1 X60.905 Y234.857 E9.61276
G1 X60.905 Y162.115 E10.70741
G1 X60.243 Y162.615 E10.71989
G1 X59.841 Y162.837 E10.72681
G1 X58.9 Y163.09 E10.74147
G1 X58.387 Y163.14 E10.74923
G1 X44.39 Y163.14 E10.95986
G1 X43.494 Y163.014 E10.97347
G1 X43.053 Y162.886 E10.98038
G1 X42.203 Y162.392 E10.99518
G1 X41.847 Y162.103 E11.00208
G1 X41.277 Y161.36 E11.01617
G1 X41.054 Y160.958 E11.02309
G1 X40.848 Y160.233 E11.03443
G1 X40.749 Y159.314 E11.04834
G1 X40.749 Y143.153 E11.29154
G1 X38.102 Y138.57 E11.37118
G1 X37.838 Y137.933 E11.38156
G1 X37.691 Y137.231 E11.39235
G1 X37.691 Y136.772 E11.39926
G1 X37.842 Y136.057 E11.41026
G1 X38 Y135.626 E11.41716
G1 X38.231 Y135.229 E11.42408
G1 X38.704 Y134.701 E11.43474
G1 X39.056 Y134.406 E11.44166
G1 X39.453 Y134.176 E11.44856
G1 X40.401 Y133.91 E11.46338
G1 X40.914 Y133.86 E11.47113
G1 X44.848 Y133.86 E11.53033
G1 X45.305 Y133.9 E11.53724
G1 X45.749 Y134.018 E11.54415
G1 X46.165 Y134.212 E11.55106
G1 X46.542 Y134.475 E11.55798
G1 X46.867 Y134.799 E11.56488
G1 X47.218 Y135.36 E11.57484
G1 X55.559 Y135.36 E11.70036
G1 X55.905 Y134.806 E11.71019
G1 X56.229 Y134.481 E11.71709
G1 X56.605 Y134.217 E11.72401
G1 X57.02 Y134.022 E11.73091
G1 X57.463 Y133.902 E11.73781
G1 X57.93 Y133.86 E11.74487
G1 X60.905 Y133.86 E11.78964
G1 X60.905 Y108.672 E12.16868
G1 X60.972 Y107.517 E12.18609
G1 X61.198 Y106.213 E12.20601
G1 X61.578 Y104.957 E12.22575
G1 X62.12 Y103.743 E12.24576
G1 X62.192 Y103.599 E12.24818
G1 X90.86 Y50.739 E13.1531
G1 X91.493 Y49.751 E13.17076
G1 X92.393 Y48.708 E13.19149
G1 X93.457 Y47.817 E13.21237
G1 X94.672 Y47.098 E13.23362
G1 X95.962 Y46.593 E13.25446
G1 X97.311 Y46.3 E13.27524
G1 X98.692 Y46.227 E13.29605
G1 X100.037 Y46.369 E13.3164
G1 X101.368 Y46.73 E13.33715
G1 X102.628 Y47.299 E13.35796
G1 X103.78 Y48.06 E13.37873
G1 X104.796 Y48.997 E13.39953
G1 X105.007 Y49.237 E13.40434
G1 X105.691 Y48.51 E13.41936
G1 X106.783 Y47.655 E13.44023
G1 X107.987 Y46.991 E13.46093
G1 X109.299 Y46.521 E13.4819
G1 X110.685 Y46.268 E13.5031
G1 X111.642 Y46.225 E13.51752
G1 X113.021 Y46.351 E13.53835
G1 X114.358 Y46.694 E13.55912
G1 X115.602 Y47.235 E13.57954
G1 X116.758 Y47.974 E13.60019
G1 X117.795 Y48.9 E13.62111
G1 X118.664 Y49.971 E13.64186
G1 X119.14 Y50.738 E13.65545
G1 X147.808 Y103.597 E14.56035
G1 X148.3 Y104.644 E14.57776
G1 X148.723 Y105.9 E14.5977
G1 X148.987 Y107.192 E14.61754
G1 X149.09 Y108.505 E14.63736
G1 X149.095 Y108.67 E14.63985
G1 X149.095 Y141.133 E15.12837
G1 X150.383 Y140.517 E15.14985
G1 X151.713 Y140.134 E15.17068
G1 X153.107 Y139.972 E15.1918
G1 X154.493 Y140.037 E15.21268
G1 X155.859 Y140.33 E15.2337
G1 X157.145 Y140.834 E15.25449
G1 X158.334 Y141.538 E15.27528
G1 X159.412 Y142.445 E15.29648
G1 X160.304 Y143.487 E15.31712
G1 X161.03 Y144.682 E15.33816
G1 X161.573 Y146.082 E15.36076
G1 X161.863 Y147.487 E15.38235
G1 X161.917 Y148.993 E15.40503
G1 X161.723 Y150.373 E15.426
G1 X161.308 Y151.7 E15.44692
G1 X160.685 Y152.941 E15.46782
G1 X159.864 Y154.068 E15.4888
G1 X159.033 Y154.895 E15.50644
G1 X159.946 Y155.828 E15.52609
G1 X160.748 Y156.962 E15.54699
G1 X161.355 Y158.212 E15.5679
G1 X161.751 Y159.546 E15.58884
G1 X161.926 Y160.925 E15.60976
G1 X161.873 Y162.321 E15.63078
G1 X161.597 Y163.678 E15.65162
G1 X161.1 Y164.982 E15.67262
G1 X160.402 Y166.181 E15.6935
G1 X159.513 Y167.256 E15.71449
G1 X158.462 Y168.172 E15.73547
G1 X157.283 Y168.901 E15.75633
G1 X155.996 Y169.43 E15.77727
G1 X154.641 Y169.745 E15.7982
G1 X153.254 Y169.835 E15.81912
G1 X151.868 Y169.698 E15.84008
G1 X150.525 Y169.338 E15.861
G1 X149.253 Y168.76 E15.88203
G1 X149.095 Y168.667 E15.88479
G1 X149.095 Y234.856 E16.88083
G1 X148.929 Y236.411 E16.90436
G1 X148.546 Y237.682 E16.92434
G1 X147.946 Y238.874 E16.94442
G1 X147.154 Y239.935 E16.96434
G1 X146.181 Y240.853 E16.98447
G1 X145.076 Y241.577 E17.00435
G1 X143.957 Y242.075 E17.02278
G1 X143.432 Y242.237 E17.03105
G1 X112.524 Y250.518 E17.51257
G1 X110.98 Y250.761 E17.5361
G1 X109.647 Y250.72 E17.55616
M204 S627
G0 F6030 X109.731 Y250.248
M204 S470
G1 F2010 X108.513 Y249.998 E17.57488
G1 X107.352 Y249.541 E17.59365
G1 X106.288 Y248.889 E17.61243
G1 X105.355 Y248.063 E17.63118
G1 X105.007 Y247.648 E17.63933
G1 X104.197 Y248.497 E17.65699
G1 X103.196 Y249.238 E17.67573
G1 X102.079 Y249.796 E17.69452
G1 X100.882 Y250.151 E17.71331
G1 X99.643 Y250.292 E17.73208
G1 X98.399 Y250.216 E17.75083
G1 X97.602 Y250.055 E17.76307
G1 X66.69 Y241.772 E18.24465
G1 X65.352 Y241.259 E18.26622
G1 X64.288 Y240.607 E18.285
G1 X63.355 Y239.781 E18.30375
G1 X62.576 Y238.801 E18.32259
G1 X61.985 Y237.709 E18.34127
G1 X61.589 Y236.526 E18.36005
G1 X61.406 Y235.386 E18.37742
G1 X61.385 Y234.857 E18.38539
G1 X61.385 Y160.46 E19.50495
G1 X61.101 Y161.096 E19.51543
G1 X60.617 Y161.739 E19.52754
G1 X59.976 Y162.217 E19.53957
G1 X59.61 Y162.414 E19.54583
G1 X58.806 Y162.619 E19.55831
G1 X58.387 Y162.66 E19.56465
G1 X44.39 Y162.66 E19.77528
G1 X43.587 Y162.543 E19.78749
G1 X43.189 Y162.424 E19.79374
G1 X42.472 Y161.995 E19.80632
G1 X42.152 Y161.73 E19.81257
G1 X41.675 Y161.091 E19.82457
G1 X41.476 Y160.726 E19.83083
G1 X41.324 Y160.169 E19.83951
G1 X41.229 Y159.314 E19.85246
G1 X41.229 Y143.024 E20.0976
G1 X38.518 Y138.33 E20.17917
G1 X38.235 Y137.559 E20.19153
G1 X38.166 Y137.15 E20.19777
G1 X38.237 Y136.433 E20.20862
G1 X38.452 Y135.795 E20.21875
G1 X38.862 Y135.223 E20.22934
G1 X39.364 Y134.777 E20.23944
G1 X39.729 Y134.579 E20.24569
G1 X40.494 Y134.381 E20.25758
G1 X40.914 Y134.34 E20.26393
G1 X44.848 Y134.34 E20.32313
G1 X45.261 Y134.38 E20.32938
G1 X45.659 Y134.498 E20.33562
G1 X46.027 Y134.69 E20.34187
G1 X46.352 Y134.949 E20.34812
G1 X46.621 Y135.266 E20.35438
G1 X46.894 Y135.84 E20.36395
G1 X55.883 Y135.84 E20.49922
G1 X56.12 Y135.321 E20.5078
G1 X56.379 Y134.996 E20.51406
G1 X56.696 Y134.727 E20.52031
G1 X57.058 Y134.524 E20.52656
G1 X57.452 Y134.394 E20.5328
G1 X57.93 Y134.34 E20.54004
G1 X61.385 Y134.34 E20.59203
G1 X61.385 Y108.672 E20.9783
G1 X61.485 Y107.281 E20.99928
G1 X61.734 Y106.047 E21.01823
G1 X62.135 Y104.846 E21.03728
G1 X62.614 Y103.828 E21.05421
G1 X91.282 Y50.968 E21.95913
G1 X92.106 Y49.74 E21.98138
G1 X93.003 Y48.793 E22.00101
G1 X94.049 Y47.996 E22.0208
G1 X95.224 Y47.371 E22.04083
G1 X96.454 Y46.954 E22.06037
G1 X97.748 Y46.734 E22.08012
G1 X99.044 Y46.724 E22.09963
G1 X100.313 Y46.917 E22.11894
G1 X101.551 Y47.313 E22.1385
G1 X102.719 Y47.906 E22.15821
G1 X103.772 Y48.674 E22.17783
G1 X104.691 Y49.602 E22.19748
G1 X104.993 Y50.006 E22.20507
G1 X105.747 Y49.123 E22.22255
G1 X106.74 Y48.268 E22.24226
G1 X107.851 Y47.587 E22.26187
G1 X109.056 Y47.092 E22.28148
G1 X110.365 Y46.79 E22.30169
G1 X111.664 Y46.704 E22.32128
G1 X112.966 Y46.827 E22.34096
G1 X114.227 Y47.156 E22.36058
G1 X115.399 Y47.671 E22.37984
G1 X116.49 Y48.373 E22.39936
G1 X117.466 Y49.25 E22.41911
G1 X118.284 Y50.265 E22.43873
G1 X118.718 Y50.967 E22.45115
G1 X147.386 Y103.826 E23.35605
G1 X147.964 Y105.1 E23.3771
G1 X148.33 Y106.302 E23.39601
G1 X148.549 Y107.547 E23.41503
G1 X148.615 Y108.67 E23.43196
G1 X148.615 Y142.038 E23.9341
G1 X149.344 Y141.541 E23.94737
G1 X150.528 Y140.974 E23.96713
G1 X151.78 Y140.609 E23.98675
G1 X153.096 Y140.452 E24.0067
G1 X154.404 Y140.509 E24.0264
G1 X155.694 Y140.781 E24.04624
G1 X156.911 Y141.253 E24.06588
G1 X158.034 Y141.914 E24.08549
G1 X159.055 Y142.766 E24.1055
G1 X159.9 Y143.747 E24.12499
G1 X160.589 Y144.872 E24.14484
G1 X161.103 Y146.179 E24.16597
G1 X161.393 Y147.584 E24.18756
G1 X161.437 Y148.992 E24.20876
G1 X161.25 Y150.294 E24.22856
G1 X160.854 Y151.546 E24.24832
G1 X160.262 Y152.715 E24.26803
G1 X159.483 Y153.775 E24.28783
G1 X158.543 Y154.696 E24.30763
G1 X158.275 Y154.909 E24.31279
G1 X158.935 Y155.452 E24.32565
G1 X159.814 Y156.431 E24.34545
G1 X160.521 Y157.538 E24.36521
G1 X161.038 Y158.743 E24.38494
G1 X161.351 Y160.015 E24.40466
G1 X161.455 Y161.328 E24.42448
G1 X161.343 Y162.636 E24.44423
G1 X161.022 Y163.91 E24.464
G1 X160.498 Y165.11 E24.48371
G1 X159.783 Y166.215 E24.50351
G1 X158.899 Y167.187 E24.52329
G1 X157.868 Y168.003 E24.54307
G1 X156.723 Y168.639 E24.56278
G1 X155.49 Y169.08 E24.58249
G1 X154.194 Y169.317 E24.60231
G1 X152.882 Y169.34 E24.62206
G1 X151.582 Y169.15 E24.64183
G1 X150.33 Y168.749 E24.66162
G1 X149.161 Y168.151 E24.68138
G1 X148.615 Y167.766 E24.69143
G1 X148.615 Y234.856 E25.70103
G1 X148.465 Y236.286 E25.72267
G1 X148.111 Y237.479 E25.74139
G1 X147.553 Y238.598 E25.76021
G1 X146.815 Y239.596 E25.77889
G1 X145.906 Y240.459 E25.79775
G1 X144.872 Y241.143 E25.81641
G1 X143.813 Y241.617 E25.83387
G1 X143.308 Y241.773 E25.84182
G1 X112.4 Y250.054 E26.32334
G1 X110.98 Y250.281 E26.34498
G1 X109.731 Y250.248 E26.36378
M204 S627
G0 F6030 X109.815 Y249.775
M204 S470
G1 F2010 X108.677 Y249.547 E26.38125
G1 X107.591 Y249.125 E26.39878
G1 X106.597 Y248.521 E26.41629
G1 X105.723 Y247.754 E26.43378
G1 X104.992 Y246.845 E26.45134
G1 X104.475 Y247.539 E26.46436
G1 X103.632 Y248.347 E26.48193
G1 X102.668 Y248.991 E26.49938
G1 X101.599 Y249.462 E26.51696
G1 X100.47 Y249.738 E26.53445
G1 X99.308 Y249.814 E26.55197
G1 X98.223 Y249.704 E26.56838
G1 X97.726 Y249.592 E26.57605
G1 X66.814 Y241.309 E27.05764
G1 X65.591 Y240.843 E27.07733
G1 X64.597 Y240.239 E27.09484
G1 X63.723 Y239.472 E27.11233
G1 X62.992 Y238.561 E27.12991
G1 X62.436 Y237.545 E27.14734
G1 X62.062 Y236.442 E27.16487
G1 X61.886 Y235.365 E27.18129
G1 X61.865 Y234.857 E27.18894
G1 X61.865 Y141.518 E28.59355
G1 X61.069 Y142.896 E28.6175
G1 X61.069 Y159.5 E28.86736
G1 X60.961 Y160.21 E28.87817
G1 X60.704 Y160.827 E28.88823
G1 X60.247 Y161.429 E28.8996
G1 X59.708 Y161.819 E28.90961
G1 X59.097 Y162.072 E28.91956
G1 X58.387 Y162.18 E28.93037
G1 X44.39 Y162.18 E29.141
G1 X43.68 Y162.072 E29.15181
G1 X43.063 Y161.815 E29.16187
G1 X42.462 Y161.36 E29.17321
G1 X42.072 Y160.823 E29.1832
G1 X41.902 Y160.499 E29.18871
G1 X41.724 Y159.536 E29.20344
G1 X41.709 Y159.314 E29.20679
G1 X41.709 Y142.896 E29.45386
G1 X38.933 Y138.09 E29.53738
G1 X38.698 Y137.435 E29.54785
G1 X38.643 Y137.073 E29.55336
G1 X38.768 Y136.309 E29.56501
G1 X38.902 Y135.968 E29.57052
G1 X39.383 Y135.38 E29.58195
G1 X39.669 Y135.151 E29.58747
G1 X40.244 Y134.92 E29.59679
