;FLAVOR:Marlin
;TIME:2585
;Filament used: 0.89461m, 0m
;Layer height: 0.2
;MINX:82.01
;MINY:108.76
;MINZ:0.2
;MAXX:127.99
;MAXY:188.24
;MAXZ:24.8
;Generated with StratosEngine 1.6.0
T0
M82 ;absolute extrusion mode
;Machine Model: Sigma R19 
;Materials used: T0 ABS  
;Extruders used: T0 0.4  
M141 S0 	;Set chamber temperature 
M140 S100 	;Heat build surface
M104 T0 S235	;Heat extruder 0
M190 S100 	;Wait until bed temperature reached 
M109 T0 S235	;Heat extruder 0 and wait
G21 		;metric values 
G90 		;absolute positioning 
M204 S600 	;set default acceleration 
M205 X12.5 Y12.5 ;set default jerk 
M107 		;start with the fan off 
G28 X0 Y0 	;move X/Y to min endstops 
G28 Z0 		;move Z to min endstops 
G1 Z5 F200 	;safety Z axis movement

T0
G92 E0 		;set zero the extruded length 
G1 E15 F30
G92 E0 
G4 S2 		;stabilize hotend 
G1 E-0.5 F1000 
G92 E0

G4 P1
G4 P2
G4 P3

G92 E0
;LAYER_COUNT:124
;LAYER:0
M107
M204 S627
M205 X9.38 Y9.38
G1 F600 Z0.6
G0 F6030 X120.948 Y188.24 Z0.6
M204 S470
;TYPE:SKIRT
G1 F600 Z0.2
G1 F1050 E0
G1 F2010 X89.052 Y188.24 E0.47999
G1 X88.073 Y188.144 E0.49479
G1 X86.692 Y187.83 E0.5161
G1 X85.472 Y187.231 E0.53655
G1 X84.322 Y186.409 E0.55783
G1 X83.45 Y185.419 E0.57768
G1 X82.696 Y184.222 E0.59897
G1 X82.258 Y182.945 E0.61928
G1 X82.022 Y181.55 E0.64057
G1 X82.01 Y181.198 E0.64587
G1 X82.01 Y115.801 E1.63
G1 X82.107 Y114.818 E1.64486
G1 X82.423 Y113.435 E1.66621
G1 X83.024 Y112.214 E1.68669
G1 X83.847 Y111.066 E1.70795
G1 X84.829 Y110.202 E1.72763
G1 X86.025 Y109.448 E1.7489
G1 X87.305 Y109.008 E1.76927
G1 X88.7 Y108.772 E1.79056
G1 X89.052 Y108.76 E1.79586
G1 X120.949 Y108.76 E2.27586
G1 X121.929 Y108.856 E2.29068
G1 X123.309 Y109.17 E2.31198
G1 X124.533 Y109.772 E2.33251
G1 X125.682 Y110.596 E2.35378
G1 X126.548 Y111.579 E2.3735
G1 X127.302 Y112.775 E2.39477
G1 X127.742 Y114.055 E2.41514
G1 X127.978 Y115.45 E2.43643
G1 X127.99 Y115.802 E2.44173
G1 X127.99 Y181.199 E3.42586
G1 X127.894 Y182.179 E3.44067
G1 X127.58 Y183.559 E3.46197
G1 X126.978 Y184.783 E3.4825
G1 X126.154 Y185.932 E3.50378
G1 X125.171 Y186.798 E3.52349
G1 X123.975 Y187.552 E3.54477
G1 X122.695 Y187.992 E3.56513
G1 X121.3 Y188.228 E3.58643
G1 X120.948 Y188.24 E3.59173
M204 S627
G0 F6030 X120.948 Y187.76
M204 S470
G1 F2010 X89.052 Y187.76 E4.07171
G1 X87.399 Y187.521 E4.09684
G1 X86.258 Y187.133 E4.11498
G1 X85.093 Y186.397 E4.13572
G1 X84.191 Y185.599 E4.15384
G1 X83.414 Y184.503 E4.17406
G1 X82.881 Y183.422 E4.1922
G1 X82.577 Y182.086 E4.21281
G1 X82.49 Y181.198 E4.22624
G1 X82.49 Y115.801 E5.21036
G1 X82.731 Y114.142 E5.23559
G1 X83.12 Y113.002 E5.25372
G1 X83.857 Y111.837 E5.27446
G1 X84.657 Y110.936 E5.2926
G1 X85.744 Y110.166 E5.31264
G1 X86.825 Y109.633 E5.33078
G1 X88.164 Y109.327 E5.35145
G1 X89.052 Y109.24 E5.36487
G1 X120.949 Y109.24 E5.84487
G1 X122.602 Y109.479 E5.87001
G1 X123.743 Y109.867 E5.88814
G1 X124.911 Y110.606 E5.90894
G1 X125.813 Y111.406 E5.92709
G1 X126.584 Y112.494 E5.94715
G1 X127.117 Y113.575 E5.96529
G1 X127.423 Y114.914 E5.98596
G1 X127.51 Y115.802 E5.99939
G1 X127.51 Y181.199 E6.98351
G1 X127.271 Y182.852 E7.00864
G1 X126.883 Y183.993 E7.02678
G1 X126.144 Y185.161 E7.04758
G1 X125.344 Y186.063 E7.06572
G1 X124.256 Y186.834 E7.08579
G1 X123.175 Y187.367 E7.10393
G1 X121.836 Y187.673 E7.1246
G1 X120.948 Y187.76 E7.13802
M204 S627
G0 F6030 X120.948 Y187.28
M204 S470
G1 F2010 X89.052 Y187.28 E7.61801
G1 X87.492 Y187.05 E7.64174
G1 X86.416 Y186.675 E7.65889
G1 X85.361 Y185.999 E7.67774
G1 X84.513 Y185.238 E7.69489
G1 X83.813 Y184.236 E7.71328
G1 X83.317 Y183.21 E7.73043
G1 X83.048 Y181.992 E7.7492
G1 X82.97 Y181.198 E7.76121
G1 X82.97 Y115.801 E8.74533
G1 X83.201 Y114.236 E8.76914
G1 X83.578 Y113.161 E8.78628
G1 X84.255 Y112.106 E8.80514
G1 X85.018 Y111.259 E8.8223
G1 X86.012 Y110.564 E8.84055
G1 X87.037 Y110.068 E8.85769
G1 X88.258 Y109.798 E8.8765
G1 X89.052 Y109.72 E8.88851
G1 X120.949 Y109.72 E9.36851
G1 X122.509 Y109.95 E9.39224
G1 X123.585 Y110.325 E9.40939
G1 X124.643 Y111.005 E9.42831
G1 X125.49 Y111.767 E9.44546
G1 X126.186 Y112.762 E9.46373
G1 X126.682 Y113.787 E9.48087
G1 X126.952 Y115.008 E9.49968
G1 X127.03 Y115.802 E9.51169
G1 X127.03 Y181.199 E10.49581
G1 X126.8 Y182.759 E10.51954
G1 X126.425 Y183.835 E10.53669
G1 X125.745 Y184.893 E10.55562
G1 X124.983 Y185.74 E10.57276
G1 X123.988 Y186.436 E10.59103
G1 X122.963 Y186.932 E10.60817
G1 X121.742 Y187.202 E10.62699
G1 X120.948 Y187.28 E10.63899
M204 S627
G0 F6030 X120.948 Y186.8
M204 S470
G1 F2010 X89.052 Y186.8 E11.11898
G1 X87.585 Y186.579 E11.1413
G1 X86.578 Y186.218 E11.1574
G1 X85.207 Y185.269 E11.18249
G1 X84.647 Y184.617 E11.19543
G1 X83.947 Y183.502 E11.21524
G1 X83.671 Y182.665 E11.2285
G1 X83.45 Y181.198 E11.25083
G1 X83.45 Y115.801 E12.23495
G1 X83.672 Y114.33 E12.25734
G1 X84.034 Y113.323 E12.27344
G1 X84.985 Y111.953 E12.29854
G1 X85.632 Y111.398 E12.31136
G1 X86.746 Y110.698 E12.33116
G1 X87.585 Y110.421 E12.34446
G1 X89.052 Y110.2 E12.36678
G1 X120.949 Y110.2 E12.84678
G1 X122.416 Y110.421 E12.86911
G1 X123.422 Y110.782 E12.88519
G1 X124.796 Y111.735 E12.91036
G1 X125.352 Y112.382 E12.92319
G1 X126.052 Y113.496 E12.94299
G1 X126.329 Y114.335 E12.95629
G1 X126.55 Y115.802 E12.97861
G1 X126.55 Y181.199 E13.96274
G1 X126.329 Y182.666 E13.98506
G1 X125.968 Y183.672 E14.00115
G1 X125.015 Y185.046 E14.02631
G1 X124.368 Y185.602 E14.03915
G1 X123.254 Y186.302 E14.05895
G1 X122.415 Y186.579 E14.07224
G1 X120.948 Y186.8 E14.09457
M204 S627
G0 F6030 X120.948 Y186.32
M204 S470
G1 F2010 X89.052 Y186.32 E14.57455
G1 X87.678 Y186.109 E14.59547
G1 X87.198 Y185.973 E14.60298
G1 X85.896 Y185.202 E14.62575
G1 X85.506 Y184.891 E14.63326
G1 X84.61 Y183.701 E14.65567
G1 X84.366 Y183.266 E14.66318
G1 X83.99 Y181.805 E14.68588
G1 X83.93 Y181.198 E14.69506
G1 X83.93 Y115.801 E15.67918
G1 X84.143 Y114.423 E15.70017
G1 X84.279 Y113.943 E15.70767
G1 X85.051 Y112.642 E15.73044
G1 X85.363 Y112.252 E15.73795
G1 X86.547 Y111.362 E15.76024
G1 X86.982 Y111.117 E15.76776
G1 X88.445 Y110.74 E15.79049
G1 X89.052 Y110.68 E15.79967
G1 X120.949 Y110.68 E16.27967
G1 X122.323 Y110.892 E16.30059
G1 X122.803 Y111.027 E16.3081
G1 X124.107 Y111.801 E16.33092
G1 X124.497 Y112.112 E16.33842
G1 X125.388 Y113.297 E16.36073
G1 X125.633 Y113.732 E16.36825
G1 X126.01 Y115.195 E16.39098
G1 X126.07 Y115.802 E16.40016
G1 X126.07 Y181.199 E17.38428
G1 X125.858 Y182.573 E17.4052
G1 X125.723 Y183.053 E17.41271
G1 X124.949 Y184.357 E17.43553
G1 X124.638 Y184.747 E17.44303
G1 X123.453 Y185.638 E17.46534
G1 X123.018 Y185.883 E17.47286
G1 X121.555 Y186.26 E17.49559
G1 X120.948 Y186.32 E17.50477
M204 S627
G0 F6030 X120.948 Y185.84
M204 S470
G1 F2010 X89.052 Y185.84 E17.98476
G1 X87.771 Y185.638 E18.00427
G1 X87.331 Y185.51 E18.01117
G1 X86.164 Y184.804 E18.03169
G1 X85.444 Y184.083 E18.04703
G1 X84.788 Y183.032 E18.06567
G1 X84.46 Y181.712 E18.08614
G1 X84.41 Y181.198 E18.09391
G1 X84.41 Y115.801 E19.07803
G1 X84.614 Y114.517 E19.0976
G1 X84.742 Y114.076 E19.10451
G1 X85.449 Y112.911 E19.12502
G1 X86.167 Y112.195 E19.14027
G1 X87.217 Y111.538 E19.15891
G1 X88.538 Y111.21 E19.1794
G1 X89.052 Y111.16 E19.18717
G1 X120.949 Y111.16 E19.66717
G1 X122.229 Y111.362 E19.68667
G1 X122.67 Y111.49 E19.69358
G1 X123.838 Y112.199 E19.71414
G1 X124.555 Y112.917 E19.72941
G1 X125.212 Y113.967 E19.74805
G1 X125.54 Y115.288 E19.76853
G1 X125.59 Y115.802 E19.7763
G1 X125.59 Y181.199 E20.76043
G1 X125.388 Y182.479 E20.77993
G1 X125.26 Y182.92 E20.78684
G1 X124.551 Y184.088 E20.8074
G1 X123.833 Y184.805 E20.82267
G1 X122.783 Y185.462 E20.84131
G1 X121.462 Y185.79 E20.86179
G1 X120.948 Y185.84 E20.86956
M204 S627
G0 F6030 X120.948 Y185.36
M204 S470
G1 F2010 X89.052 Y185.36 E21.34955
G1 X87.865 Y185.167 E21.36764
G1 X87.079 Y184.841 E21.38045
G1 X86.111 Y184.142 E21.39842
G1 X85.408 Y183.167 E21.4165
G1 X85.083 Y182.384 E21.42926
G1 X84.89 Y181.198 E21.44734
G1 X84.89 Y115.801 E22.43147
G1 X85.085 Y114.611 E22.44961
G1 X85.412 Y113.824 E22.46244
G1 X86.111 Y112.859 E22.48037
G1 X87.082 Y112.159 E22.49838
G1 X87.866 Y111.833 E22.51116
G1 X89.052 Y111.64 E22.52924
G1 X120.949 Y111.64 E23.00924
G1 X122.136 Y111.833 E23.02734
G1 X122.923 Y112.161 E23.04017
G1 X123.891 Y112.861 E23.05815
G1 X124.591 Y113.832 E23.07616
G1 X124.917 Y114.616 E23.08894
G1 X125.11 Y115.802 E23.10702
G1 X125.11 Y181.199 E24.09114
G1 X124.917 Y182.386 E24.10924
G1 X124.589 Y183.173 E24.12207
G1 X123.889 Y184.141 E24.14005
G1 X122.918 Y184.841 E24.15806
G1 X122.134 Y185.167 E24.17084
G1 X120.948 Y185.36 E24.18892
M204 S627
G0 F6030 X120.948 Y184.88
M204 S470
G1 F2010 X89.052 Y184.88 E24.6689
G1 X87.958 Y184.696 E24.6856
G1 X87.347 Y184.442 E24.69556
G1 X86.42 Y183.771 E24.71278
G1 X85.637 Y182.575 E24.73429
G1 X85.37 Y181.198 E24.7554
G1 X85.37 Y115.801 E25.73952
G1 X85.555 Y114.704 E25.75626
G1 X85.81 Y114.093 E25.76622
G1 X86.482 Y113.168 E25.78343
G1 X87.674 Y112.387 E25.80487
G1 X89.052 Y112.12 E25.826
G1 X120.949 Y112.12 E26.306
G1 X122.043 Y112.304 E26.32269
G1 X122.655 Y112.559 E26.33267
G1 X123.581 Y113.231 E26.34989
G1 X124.363 Y114.424 E26.37135
G1 X124.63 Y115.802 E26.39247
G1 X124.63 Y181.199 E27.3766
G1 X124.446 Y182.293 E27.39329
G1 X124.191 Y182.905 E27.40327
G1 X123.519 Y183.831 E27.42049
G1 X122.326 Y184.613 E27.44195
G1 X120.948 Y184.88 E27.46308
M204 S627
G0 F6030 X120.948 Y184.4
M204 S470
G1 F2010 X89.052 Y184.4 E27.94306
G1 X87.758 Y184.127 E27.96296
G1 X86.735 Y183.405 E27.9818
G1 X86.068 Y182.355 E28.00052
G1 X85.85 Y181.198 E28.01824
G1 X85.85 Y115.801 E29.00236
G1 X86.125 Y114.505 E29.0223
G1 X86.643 Y113.716 E29.0365
G1 X86.969 Y113.391 E29.04343
G1 X87.894 Y112.818 E29.05981
G1 X89.052 Y112.6 E29.07754
G1 X120.949 Y112.6 E29.55754
G1 X122.242 Y112.874 E29.57743
G1 X123.034 Y113.393 E29.59168
G1 X123.359 Y113.719 E29.5986
G1 X123.932 Y114.644 E29.61498
G1 X124.15 Y115.802 E29.63271
G1 X124.15 Y181.199 E30.61683
G1 X123.876 Y182.492 E30.63672
G1 X123.357 Y183.284 E30.65097
G1 X123.031 Y183.609 E30.6579
G1 X122.106 Y184.182 E30.67427
G1 X120.948 Y184.4 E30.69201
M204 S627
G0 F6030 X120.948 Y183.92
M204 S470
G1 F2010 X89.052 Y183.92 E31.17199
G1 X88.144 Y183.754 E31.18588
G1 X87.235 Y183.211 E31.20182
G1 X86.604 Y182.365 E31.2177
G1 X86.344 Y181.338 E31.23364
G1 X86.33 Y181.198 E31.23576
G1 X86.33 Y115.801 E32.21988
G1 X86.497 Y114.892 E32.23379
G1 X87.041 Y113.984 E32.24972
G1 X87.885 Y113.354 E32.26557
G1 X88.912 Y113.094 E32.28151
G1 X89.052 Y113.08 E32.28363
G1 X120.949 Y113.08 E32.76363
G1 X121.856 Y113.246 E32.7775
G1 X122.765 Y113.791 E32.79345
G1 X123.396 Y114.635 E32.80931
G1 X123.656 Y115.662 E32.82525
G1 X123.67 Y115.802 E32.82737
G1 X123.67 Y181.199 E33.81149
G1 X123.504 Y182.106 E33.82537
G1 X122.959 Y183.015 E33.84132
G1 X122.115 Y183.646 E33.85718
G1 X121.088 Y183.906 E33.87312
G1 X120.948 Y183.92 E33.87524
M204 S627
G0 F6030 X120.948 Y183.44
M204 S470
G1 F2010 X89.052 Y183.44 E34.35522
G1 X88.15 Y183.247 E34.3691
G1 X87.438 Y182.747 E34.38219
G1 X86.967 Y182.011 E34.39534
G1 X86.81 Y181.198 E34.4078
G1 X86.81 Y115.801 E35.39193
G1 X87.004 Y114.898 E35.40583
G1 X87.504 Y114.188 E35.41889
G1 X88.239 Y113.717 E35.43203
G1 X89.052 Y113.56 E35.44449
G1 X120.949 Y113.56 E35.92449
G1 X121.85 Y113.753 E35.93836
G1 X122.562 Y114.254 E35.95146
G1 X123.033 Y114.989 E35.9646
G1 X123.19 Y115.802 E35.97706
G1 X123.19 Y181.199 E36.96118
G1 X122.997 Y182.1 E36.97505
G1 X122.496 Y182.812 E36.98815
G1 X121.761 Y183.283 E37.00128
G1 X120.948 Y183.44 E37.01374
M204 S627
G1 F2100 E31.01374
;MESH:OutletCover.stl
G0 F6030 X121.851 Y182.101
G0 X121.406 Y114.693
G0 X121.622 Y114.178
M204 S470
;TYPE:WALL-OUTER
G1 F1050 E37.01374
G1 F2010 X122.19 Y114.559 E37.02404
G1 X122.573 Y115.131 E37.0344
G1 X122.71 Y115.822 E37.045
G1 X122.71 Y181.179 E38.02852
G1 X122.572 Y181.872 E38.03915
G1 X122.191 Y182.44 E38.04944
G1 X121.619 Y182.823 E38.0598
G1 X120.928 Y182.96 E38.0704
G1 X89.072 Y182.96 E38.54979
G1 X88.378 Y182.822 E38.56043
G1 X87.81 Y182.442 E38.57072
G1 X87.427 Y181.869 E38.58109
G1 X87.29 Y181.178 E38.59169
G1 X87.29 Y115.821 E39.57521
G1 X87.428 Y115.128 E39.58585
G1 X87.809 Y114.56 E39.59614
G1 X88.381 Y114.177 E39.6065
G1 X89.072 Y114.04 E39.6171
G1 X120.929 Y114.04 E40.0965
G1 X121.622 Y114.178 E40.10713
M204 S627
G0 F6030 X121.788 Y114.289
G0 X121.493 Y114.728
G0 X121.481 Y114.746
G0 X119.134 Y134.069
G0 X110.589 Y175.99
G0 X110.045 Y175.915
M204 S470
G1 F2010 X110.24 Y174.505 E40.12855
G1 X110.24 Y156.489 E40.39966
G1 X110.148 Y155.531 E40.41415
G1 X109.753 Y154.289 E40.43376
G1 X109.257 Y153.445 E40.44849
G1 X108.372 Y152.488 E40.4681
G1 X107.567 Y151.933 E40.48282
G1 X106.415 Y151.455 E40.50159
G1 X105.398 Y151.276 E40.51713
G1 X104.15 Y151.329 E40.53592
G1 X103.152 Y151.598 E40.55148
G1 X102.046 Y152.173 E40.57024
G1 X101.294 Y152.794 E40.58491
G1 X100.673 Y153.545 E40.59958
G1 X100.076 Y154.704 E40.6192
G1 X99.832 Y155.645 E40.63383
G1 X99.76 Y156.49 E40.64659
G1 X99.76 Y174.511 E40.91778
G1 X99.852 Y175.469 E40.93226
G1 X100.247 Y176.711 E40.95187
G1 X100.743 Y177.555 E40.9666
G1 X101.63 Y178.515 E40.98627
G1 X102.731 Y179.222 E41.00596
G1 X103.702 Y179.577 E41.02152
G1 X104.996 Y179.741 E41.04115
G1 X105.969 Y179.648 E41.05586
G1 X107.211 Y179.253 E41.07547
G1 X108.054 Y178.757 E41.09019
G1 X108.975 Y177.914 E41.10898
G1 X109.567 Y177.068 E41.12452
G1 X110.045 Y175.915 E41.1433
M204 S627
G0 F6030 X110.072 Y175.717
G0 X110.483 Y176.034
M204 S470
;TYPE:WALL-INNER
G1 F2010 X110.69 Y174.536 E41.16321
G1 X110.69 Y156.467 E41.40113
G1 X110.591 Y155.44 E41.41472
G1 X110.167 Y154.105 E41.43316
G1 X109.62 Y153.175 E41.44737
G1 X108.669 Y152.146 E41.46582
G1 X107.783 Y151.536 E41.47998
G1 X106.542 Y151.02 E41.49768
G1 X105.428 Y150.824 E41.51257
G1 X104.081 Y150.882 E41.53033
G1 X102.988 Y151.176 E41.54523
G1 X101.796 Y151.796 E41.56292
G1 X100.974 Y152.474 E41.57695
G1 X100.295 Y153.296 E41.59099
G1 X99.653 Y154.543 E41.60946
G1 X99.387 Y155.569 E41.62342
G1 X99.31 Y156.471 E41.63534
G1 X99.31 Y174.533 E41.87316
G1 X99.409 Y175.56 E41.88675
G1 X99.833 Y176.895 E41.90519
G1 X100.38 Y177.825 E41.9194
G1 X101.338 Y178.863 E41.938
G1 X102.53 Y179.628 E41.95665
G1 X103.595 Y180.017 E41.97158
G1 X104.989 Y180.194 E41.99008
G1 X106.06 Y180.091 E42.00425
G1 X107.396 Y179.667 E42.02271
G1 X108.323 Y179.121 E42.03687
G1 X109.315 Y178.213 E42.05458
G1 X109.964 Y177.286 E42.06948
G1 X110.483 Y176.034 E42.08733
M204 S627
G0 F6030 X110.579 Y176.06
G0 X110.729 Y174.538
G0 X110.729 Y156.466
G0 X110.63 Y155.432
G0 X110.203 Y154.089
G0 X109.652 Y153.152
G0 X108.878 Y152.314
G0 X92.088 Y136.597
G0 X92.355 Y136.117
M204 S470
;TYPE:WALL-OUTER
G1 F2010 X93.206 Y136.591 E42.10198
G1 X93.933 Y136.738 E42.11315
G1 X94.9 Y136.622 E42.1278
G1 X95.575 Y136.313 E42.13897
G1 X96.288 Y135.65 E42.15363
G1 X96.652 Y135.004 E42.16478
G1 X96.84 Y134.05 E42.17942
G1 X96.755 Y133.312 E42.19059
G1 X96.347 Y132.43 E42.20522
G1 X95.845 Y131.883 E42.21639
G1 X94.994 Y131.409 E42.23105
G1 X94.267 Y131.262 E42.24221
G1 X93.3 Y131.378 E42.25687
G1 X92.625 Y131.687 E42.26804
G1 X91.912 Y132.35 E42.28269
G1 X91.548 Y132.996 E42.29385
G1 X91.36 Y133.95 E42.30848
G1 X91.445 Y134.688 E42.31966
G1 X91.853 Y135.57 E42.33428
G1 X92.355 Y136.117 E42.34546
M204 S627
G0 F6030 X92.529 Y136.214
G0 X92.073 Y136.475
M204 S470
;TYPE:WALL-INNER
G1 F2010 X93.048 Y137.018 E42.36015
G1 X93.915 Y137.193 E42.3718
G1 X95.023 Y137.06 E42.38649
G1 X95.828 Y136.692 E42.39815
G1 X96.646 Y135.932 E42.41285
G1 X97.08 Y135.162 E42.42449
G1 X97.295 Y134.068 E42.43917
G1 X97.194 Y133.189 E42.45082
G1 X96.726 Y132.177 E42.4655
G1 X96.127 Y131.525 E42.47716
G1 X95.152 Y130.982 E42.49185
G1 X94.285 Y130.807 E42.5035
G1 X93.177 Y130.94 E42.51819
G1 X92.372 Y131.308 E42.52985
G1 X91.554 Y132.068 E42.54455
G1 X91.12 Y132.838 E42.55619
G1 X90.905 Y133.932 E42.57087
G1 X91.006 Y134.811 E42.58252
G1 X91.474 Y135.823 E42.5972
G1 X92.073 Y136.475 E42.60886
M204 S627
G0 F6030 X92.012 Y136.553
G0 X101.259 Y144.842
G0 X102.144 Y145.471
G0 X103.444 Y146.016
G0 X104.309 Y146.175
G0 X105.869 Y146.22
G0 X105.849 Y145.671
M204 S470
;TYPE:WALL-OUTER
G1 F2010 X106.848 Y145.402 E42.62443
