;FLAVOR:Marlin
;TIME:2056
;Filament used: 0.716982m, 0m
;Layer height: 0.2
;MINX:80.929
;MINY:124.416
;MINZ:0.2
;MAXX:129.084
;MAXY:172.583
;MAXZ:20
;Generated with StratosEngine 1.6.0
T0
M82 ;absolute extrusion mode
;Machine Model: Sigma R19 
;Materials used: T0 ABS  
;Extruders used: T0 0.4  
M141 S0 	;Set chamber temperature 
M140 S100 	;Heat build surface
M104 T0 S235	;Heat extruder 0
M190 S100 	;Wait until bed temperature reached 
M109 T0 S235	;Heat extruder 0 and wait
G21 		;metric values 
G90 		;absolute positioning 
M204 S600 	;set default acceleration 
M205 X12.5 Y12.5 ;set default jerk 
M107 		;start with the fan off 
G28 X0 Y0 	;move X/Y to min endstops 
G28 Z0 		;move Z to min endstops 
G1 Z5 F200 	;safety Z axis movement

T0
G92 E0 		;set zero the extruded length 
G1 E15 F30
G92 E0 
G4 S2 		;stabilize hotend 
G1 E-0.5 F1000 
G92 E0

G4 P1
G4 P2
G4 P3

G92 E0
;LAYER_COUNT:100
;LAYER:0
M107
M204 S627
M205 X9.38 Y9.38
G1 F600 Z0.6
G0 F6030 X105.328 Y172.583 Z0.6
M204 S470
;TYPE:SKIRT
G1 F600 Z0.2
G1 F1050 E0
G1 F2010 X103.585 Y172.545 E0.02624
G1 X103.121 Y172.513 E0.03323
G1 X101.41 Y172.317 E0.05915
G1 X100.958 Y172.245 E0.06604
G1 X99.255 Y171.891 E0.09221
G1 X98.81 Y171.777 E0.09913
G1 X97.145 Y171.269 E0.12532
G1 X96.711 Y171.114 E0.13226
G1 X95.109 Y170.46 E0.1583
G1 X94.699 Y170.271 E0.16509
G1 X93.158 Y169.474 E0.1912
G1 X92.756 Y169.242 E0.19818
G1 X91.3 Y168.31 E0.2242
G1 X90.924 Y168.044 E0.23113
G1 X89.549 Y166.975 E0.25734
G1 X89.201 Y166.679 E0.26421
G1 X87.939 Y165.5 E0.2902
G1 X87.622 Y165.175 E0.29703
G1 X86.465 Y163.88 E0.32317
G1 X86.172 Y163.52 E0.33015
G1 X85.139 Y162.124 E0.35629
G1 X84.884 Y161.745 E0.36316
G1 X83.988 Y160.272 E0.38911
G1 X83.767 Y159.868 E0.39603
G1 X82.997 Y158.294 E0.4224
G1 X82.816 Y157.879 E0.42922
G1 X82.2 Y156.268 E0.45517
G1 X82.053 Y155.822 E0.46224
G1 X81.588 Y154.155 E0.48828
G1 X81.487 Y153.717 E0.49505
G1 X81.171 Y152.008 E0.5212
G1 X81.108 Y151.546 E0.52822
G1 X80.952 Y149.822 E0.55427
G1 X80.931 Y149.374 E0.56101
G1 X80.929 Y147.64 E0.58711
G1 X80.95 Y147.175 E0.59411
G1 X81.108 Y145.448 E0.62021
G1 X81.17 Y144.995 E0.62709
G1 X81.485 Y143.282 E0.6533
G1 X81.59 Y142.831 E0.66027
G1 X82.058 Y141.165 E0.68631
G1 X82.201 Y140.733 E0.69316
G1 X82.814 Y139.125 E0.71906
G1 X82.996 Y138.705 E0.72594
G1 X83.763 Y137.137 E0.75221
G1 X83.985 Y136.732 E0.75916
G1 X84.885 Y135.253 E0.78522
G1 X85.139 Y134.875 E0.79207
G1 X86.172 Y133.479 E0.8182
G1 X86.464 Y133.119 E0.82518
G1 X87.62 Y131.825 E0.85129
G1 X87.941 Y131.498 E0.85818
G1 X89.211 Y130.313 E0.88432
G1 X89.555 Y130.019 E0.89113
G1 X90.917 Y128.96 E0.9171
G1 X91.296 Y128.693 E0.92407
G1 X92.76 Y127.757 E0.95022
G1 X93.158 Y127.527 E0.95714
G1 X94.696 Y126.731 E0.9832
G1 X95.106 Y126.542 E0.98999
G1 X96.711 Y125.886 E1.01609
G1 X97.152 Y125.729 E1.02313
G1 X98.816 Y125.223 E1.0493
G1 X99.256 Y125.111 E1.05613
G1 X100.958 Y124.757 E1.0823
G1 X101.41 Y124.684 E1.08919
G1 X103.121 Y124.488 E1.1151
G1 X103.58 Y124.456 E1.12203
G1 X105.325 Y124.416 E1.14829
G1 X105.782 Y124.427 E1.15517
G1 X107.501 Y124.544 E1.1811
G1 X107.955 Y124.595 E1.18797
G1 X109.667 Y124.869 E1.21407
G1 X110.125 Y124.964 E1.2211
G1 X111.819 Y125.399 E1.24742
G1 X112.253 Y125.532 E1.25425
G1 X113.874 Y126.108 E1.28014
G1 X114.299 Y126.281 E1.28705
G1 X115.882 Y127.012 E1.31329
G1 X116.29 Y127.224 E1.3202
G1 X117.791 Y128.091 E1.34629
G1 X118.178 Y128.338 E1.3532
G1 X119.581 Y129.329 E1.37905
G1 X119.938 Y129.607 E1.38586
G1 X121.268 Y130.738 E1.41213
G1 X121.612 Y131.058 E1.4192
G1 X122.824 Y132.301 E1.44532
G1 X123.126 Y132.641 E1.45217
G1 X124.222 Y133.989 E1.47831
G1 X124.494 Y134.356 E1.48519
G1 X125.456 Y135.787 E1.51113
G1 X125.693 Y136.176 E1.51799
G1 X126.53 Y137.703 E1.54419
G1 X126.732 Y138.117 E1.55113
G1 X127.422 Y139.705 E1.57718
G1 X127.586 Y140.134 E1.58409
G1 X128.129 Y141.779 E1.61016
G1 X128.254 Y142.225 E1.61713
G1 X128.644 Y143.914 E1.64322
G1 X128.726 Y144.36 E1.65004
G1 X128.963 Y146.08 E1.67617
G1 X129.005 Y146.538 E1.68309
G1 X129.084 Y148.269 E1.70917
G1 X129.084 Y148.726 E1.71604
G1 X129.006 Y150.458 E1.74213
G1 X128.964 Y150.916 E1.74905
G1 X128.727 Y152.643 E1.77529
G1 X128.643 Y153.098 E1.78225
G1 X128.251 Y154.786 E1.80833
G1 X128.127 Y155.228 E1.81524
G1 X127.584 Y156.87 E1.84126
G1 X127.422 Y157.295 E1.84811
G1 X126.737 Y158.873 E1.87399
G1 X126.535 Y159.287 E1.88092
G1 X125.695 Y160.821 E1.90724
G1 X125.457 Y161.211 E1.91412
G1 X124.49 Y162.65 E1.94021
G1 X124.218 Y163.018 E1.9471
G1 X123.133 Y164.353 E1.97298
G1 X122.827 Y164.696 E1.9799
G1 X121.605 Y165.947 E2.00622
G1 X121.267 Y166.263 E2.01318
G1 X119.943 Y167.39 E2.03934
G1 X119.582 Y167.67 E2.04622
G1 X118.175 Y168.663 E2.07214
G1 X117.791 Y168.909 E2.079
G1 X116.284 Y169.78 E2.10519
G1 X115.873 Y169.993 E2.11216
G1 X114.297 Y170.72 E2.13828
G1 X113.87 Y170.893 E2.14521
G1 X112.24 Y171.471 E2.17123
G1 X111.804 Y171.604 E2.17809
G1 X110.122 Y172.034 E2.20422
G1 X109.674 Y172.127 E2.2111
G1 X107.957 Y172.403 E2.23727
G1 X107.499 Y172.455 E2.24421
G1 X105.78 Y172.572 E2.27014
G1 X105.328 Y172.583 E2.27694
M204 S627
G0 F6030 X105.339 Y172.103
M204 S470
G1 F2010 X103.596 Y172.065 E2.30318
G1 X103.176 Y172.036 E2.30951
G1 X101.465 Y171.84 E2.33543
G1 X101.056 Y171.775 E2.34166
G1 X99.353 Y171.421 E2.36784
G1 X98.95 Y171.318 E2.3741
G1 X97.285 Y170.81 E2.40029
G1 X96.893 Y170.67 E2.40656
G1 X95.291 Y170.016 E2.4326
G1 X94.919 Y169.844 E2.43876
G1 X93.378 Y169.047 E2.46487
G1 X93.015 Y168.838 E2.47117
G1 X91.559 Y167.906 E2.49719
G1 X91.218 Y167.665 E2.50347
G1 X89.843 Y166.596 E2.52968
G1 X89.529 Y166.328 E2.53589
G1 X88.267 Y165.149 E2.56188
G1 X87.98 Y164.855 E2.56807
G1 X86.823 Y163.56 E2.5942
G1 X86.557 Y163.234 E2.60053
G1 X85.524 Y161.838 E2.62666
G1 X85.294 Y161.496 E2.63287
G1 X84.398 Y160.023 E2.65881
G1 X84.198 Y159.657 E2.66509
G1 X83.428 Y158.083 E2.69146
G1 X83.265 Y157.708 E2.69761
G1 X82.649 Y156.097 E2.72357
G1 X82.516 Y155.693 E2.72997
G1 X82.051 Y154.026 E2.75601
G1 X81.959 Y153.63 E2.76213
G1 X81.643 Y151.921 E2.78828
G1 X81.586 Y151.503 E2.79463
G1 X81.43 Y149.779 E2.82068
G1 X81.411 Y149.373 E2.8268
G1 X81.409 Y147.639 E2.85289
G1 X81.428 Y147.219 E2.85922
G1 X81.586 Y145.492 E2.88531
G1 X81.642 Y145.082 E2.89154
G1 X81.957 Y143.369 E2.91775
G1 X82.052 Y142.961 E2.92405
G1 X82.52 Y141.295 E2.9501
G1 X82.649 Y140.904 E2.95629
G1 X83.262 Y139.296 E2.98219
G1 X83.427 Y138.916 E2.98842
G1 X84.194 Y137.348 E3.01469
G1 X84.395 Y136.982 E3.02097
G1 X85.295 Y135.503 E3.04703
G1 X85.524 Y135.161 E3.05322
G1 X86.557 Y133.765 E3.07935
G1 X86.822 Y133.439 E3.08568
G1 X87.978 Y132.145 E3.11179
G1 X88.268 Y131.849 E3.11802
G1 X89.538 Y130.664 E3.14416
G1 X89.85 Y130.398 E3.15033
G1 X91.212 Y129.339 E3.1763
G1 X91.555 Y129.097 E3.18261
G1 X93.019 Y128.161 E3.20876
G1 X93.379 Y127.953 E3.21502
G1 X94.917 Y127.157 E3.24108
G1 X95.288 Y126.986 E3.24723
G1 X96.893 Y126.33 E3.27332
G1 X97.291 Y126.188 E3.27968
G1 X98.955 Y125.682 E3.30585
G1 X99.353 Y125.581 E3.31203
G1 X101.055 Y125.227 E3.33819
G1 X101.465 Y125.161 E3.34444
G1 X103.176 Y124.965 E3.37036
G1 X103.591 Y124.936 E3.37662
G1 X105.336 Y124.896 E3.40288
G1 X105.75 Y124.906 E3.40911
G1 X107.469 Y125.023 E3.43504
G1 X107.88 Y125.069 E3.44127
G1 X109.592 Y125.343 E3.46736
G1 X110.005 Y125.429 E3.4737
G1 X111.699 Y125.864 E3.50002
G1 X112.092 Y125.984 E3.50621
G1 X113.713 Y126.56 E3.5321
G1 X114.098 Y126.717 E3.53835
G1 X115.681 Y127.448 E3.56459
G1 X116.05 Y127.639 E3.57084
G1 X117.551 Y128.506 E3.59693
G1 X117.901 Y128.73 E3.60318
G1 X119.304 Y129.721 E3.62903
G1 X119.627 Y129.972 E3.63519
G1 X120.957 Y131.103 E3.66146
G1 X121.268 Y131.394 E3.66787
G1 X122.48 Y132.637 E3.69399
G1 X122.753 Y132.943 E3.70016
G1 X123.849 Y134.291 E3.72631
G1 X124.095 Y134.624 E3.73254
G1 X125.057 Y136.055 E3.75849
G1 X125.272 Y136.407 E3.76469
G1 X126.109 Y137.934 E3.7909
G1 X126.292 Y138.309 E3.79718
G1 X126.982 Y139.897 E3.82323
G1 X127.13 Y140.285 E3.82948
G1 X127.673 Y141.93 E3.85555
G1 X127.786 Y142.333 E3.86185
G1 X128.176 Y144.022 E3.88793
G1 X128.25 Y144.426 E3.89412
G1 X128.487 Y146.146 E3.92024
G1 X128.525 Y146.56 E3.9265
G1 X128.604 Y148.291 E3.95258
G1 X128.604 Y148.704 E3.95879
G1 X128.526 Y150.436 E3.98488
G1 X128.489 Y150.851 E3.99115
G1 X128.252 Y152.578 E4.01738
G1 X128.176 Y152.99 E4.02369
G1 X127.784 Y154.678 E4.04977
G1 X127.671 Y155.078 E4.05602
G1 X127.128 Y156.72 E4.08205
G1 X126.982 Y157.104 E4.08823
G1 X126.297 Y158.682 E4.11412
G1 X126.114 Y159.056 E4.12038
G1 X125.274 Y160.59 E4.1467
G1 X125.059 Y160.943 E4.15292
G1 X124.092 Y162.382 E4.17901
G1 X123.846 Y162.715 E4.18524
G1 X122.761 Y164.05 E4.21113
G1 X122.484 Y164.36 E4.21738
G1 X121.262 Y165.611 E4.2437
G1 X120.956 Y165.897 E4.25
G1 X119.632 Y167.024 E4.27617
G1 X119.305 Y167.278 E4.2824
G1 X117.898 Y168.271 E4.30831
G1 X117.551 Y168.493 E4.31451
G1 X116.044 Y169.364 E4.34071
G1 X115.672 Y169.557 E4.34701
G1 X114.096 Y170.284 E4.37313
G1 X113.71 Y170.441 E4.3794
G1 X112.08 Y171.019 E4.40543
G1 X111.685 Y171.139 E4.41164
G1 X110.003 Y171.569 E4.43777
G1 X109.598 Y171.653 E4.44399
G1 X107.881 Y171.929 E4.47016
G1 X107.467 Y171.976 E4.47643
G1 X105.748 Y172.093 E4.50236
G1 X105.339 Y172.103 E4.50851
M204 S627
G0 F6030 X105.349 Y171.623
M204 S470
G1 F2010 X103.606 Y171.585 E4.53475
G1 X103.231 Y171.559 E4.54041
G1 X101.52 Y171.363 E4.56632
G1 X101.154 Y171.305 E4.5719
G1 X99.451 Y170.951 E4.59808
G1 X99.09 Y170.858 E4.60369
G1 X97.425 Y170.35 E4.62988
G1 X97.074 Y170.225 E4.63549
G1 X95.472 Y169.571 E4.66153
G1 X95.14 Y169.418 E4.66703
G1 X93.599 Y168.621 E4.69314
G1 X93.273 Y168.433 E4.6988
G1 X91.817 Y167.501 E4.72481
G1 X91.513 Y167.286 E4.73042
G1 X90.138 Y166.217 E4.75663
G1 X89.857 Y165.977 E4.76219
G1 X88.595 Y164.798 E4.78818
G1 X88.337 Y164.535 E4.79372
G1 X87.18 Y163.24 E4.81985
G1 X86.943 Y162.949 E4.8255
G1 X85.91 Y161.553 E4.85163
G1 X85.704 Y161.246 E4.8572
G1 X84.808 Y159.773 E4.88314
G1 X84.629 Y159.446 E4.88875
G1 X83.859 Y157.872 E4.91512
G1 X83.713 Y157.536 E4.92063
G1 X83.097 Y155.925 E4.94659
G1 X82.978 Y155.564 E4.95231
G1 X82.513 Y153.897 E4.97835
G1 X82.431 Y153.543 E4.98382
G1 X82.115 Y151.834 E5.00998
G1 X82.064 Y151.46 E5.01566
G1 X81.908 Y149.736 E5.0417
G1 X81.891 Y149.373 E5.04717
G1 X81.889 Y147.639 E5.07327
G1 X81.906 Y147.262 E5.07895
G1 X82.064 Y145.535 E5.10504
G1 X82.114 Y145.169 E5.1106
G1 X82.429 Y143.456 E5.13681
G1 X82.514 Y143.091 E5.14245
G1 X82.982 Y141.425 E5.16849
G1 X83.098 Y141.075 E5.17404
G1 X83.711 Y139.467 E5.19994
G1 X83.858 Y139.127 E5.20551
G1 X84.625 Y137.559 E5.23178
G1 X84.805 Y137.231 E5.23741
G1 X85.705 Y135.752 E5.26346
G1 X85.91 Y135.446 E5.26901
G1 X86.943 Y134.05 E5.29514
G1 X87.18 Y133.759 E5.30079
G1 X88.336 Y132.465 E5.3269
G1 X88.596 Y132.2 E5.33249
G1 X89.866 Y131.015 E5.35863
G1 X90.145 Y130.777 E5.36414
G1 X91.507 Y129.718 E5.39011
G1 X91.813 Y129.502 E5.39574
G1 X93.277 Y128.566 E5.42189
G1 X93.6 Y128.38 E5.4275
G1 X95.138 Y127.584 E5.45356
G1 X95.469 Y127.43 E5.45906
G1 X97.074 Y126.774 E5.48515
G1 X97.431 Y126.647 E5.49085
G1 X99.095 Y126.141 E5.51702
G1 X99.451 Y126.05 E5.52255
G1 X101.153 Y125.696 E5.54871
G1 X101.52 Y125.638 E5.5543
G1 X103.231 Y125.442 E5.58022
G1 X103.602 Y125.416 E5.58582
G1 X105.347 Y125.376 E5.61208
G1 X105.717 Y125.384 E5.61765
G1 X107.436 Y125.501 E5.64358
G1 X107.804 Y125.543 E5.64915
G1 X109.516 Y125.817 E5.67525
G1 X109.886 Y125.894 E5.68093
G1 X111.58 Y126.329 E5.70725
G1 X111.931 Y126.436 E5.71277
G1 X113.552 Y127.012 E5.73866
G1 X113.896 Y127.153 E5.74426
G1 X115.479 Y127.884 E5.77049
G1 X115.81 Y128.055 E5.7761
G1 X117.311 Y128.922 E5.80219
G1 X117.624 Y129.122 E5.80778
G1 X119.027 Y130.113 E5.83362
G1 X119.316 Y130.338 E5.83914
G1 X120.646 Y131.469 E5.86541
G1 X120.924 Y131.729 E5.87114
G1 X122.136 Y132.972 E5.89726
G1 X122.381 Y133.246 E5.90279
G1 X123.477 Y134.594 E5.92894
G1 X123.697 Y134.892 E5.93451
G1 X124.659 Y136.323 E5.96046
G1 X124.851 Y136.638 E5.96601
G1 X125.688 Y138.165 E5.99222
G1 X125.852 Y138.5 E5.99783
G1 X126.542 Y140.088 E6.02388
G1 X126.674 Y140.435 E6.02947
G1 X127.217 Y142.08 E6.05554
G1 X127.318 Y142.441 E6.06118
G1 X127.708 Y144.13 E6.08727
G1 X127.775 Y144.491 E6.09279
G1 X128.012 Y146.211 E6.11892
G1 X128.046 Y146.582 E6.12453
G1 X128.125 Y148.313 E6.1506
G1 X128.125 Y148.683 E6.15617
G1 X128.047 Y150.415 E6.18226
G1 X128.013 Y150.786 E6.18787
G1 X127.776 Y152.513 E6.2141
G1 X127.708 Y152.881 E6.21973
G1 X127.316 Y154.569 E6.24581
G1 X127.216 Y154.927 E6.2514
G1 X126.673 Y156.569 E6.27743
G1 X126.542 Y156.913 E6.28297
G1 X125.857 Y158.491 E6.30885
G1 X125.693 Y158.826 E6.31447
G1 X124.853 Y160.36 E6.34079
G1 X124.66 Y160.676 E6.34636
G1 X123.693 Y162.115 E6.37245
G1 X123.473 Y162.412 E6.37801
G1 X122.388 Y163.747 E6.4039
G1 X122.141 Y164.025 E6.40949
G1 X120.919 Y165.276 E6.43581
G1 X120.645 Y165.532 E6.44145
G1 X119.321 Y166.659 E6.46762
G1 X119.029 Y166.885 E6.47317
G1 X117.622 Y167.878 E6.49909
G1 X117.311 Y168.077 E6.50465
G1 X115.804 Y168.948 E6.53084
G1 X115.471 Y169.121 E6.53649
G1 X113.895 Y169.848 E6.5626
G1 X113.55 Y169.988 E6.56821
G1 X111.92 Y170.566 E6.59423
G1 X111.567 Y170.674 E6.59979
G1 X109.885 Y171.104 E6.62591
G1 X109.522 Y171.179 E6.63149
G1 X107.805 Y171.455 E6.65766
G1 X107.434 Y171.498 E6.66328
G1 X105.715 Y171.615 E6.68921
G1 X105.349 Y171.623 E6.69472
M204 S627
G0 F6030 X105.36 Y171.143
M204 S470
G1 F2010 X103.617 Y171.105 E6.72095
G1 X103.285 Y171.083 E6.72596
G1 X101.574 Y170.887 E6.75188
G1 X101.251 Y170.835 E6.7568
G1 X99.548 Y170.481 E6.78298
G1 X99.23 Y170.399 E6.78792
G1 X97.565 Y169.891 E6.81411
G1 X97.255 Y169.781 E6.81906
G1 X95.653 Y169.127 E6.8451
G1 X95.36 Y168.992 E6.84996
G1 X93.819 Y168.195 E6.87607
G1 X93.532 Y168.029 E6.88105
G1 X92.076 Y167.097 E6.90707
G1 X91.807 Y166.907 E6.91203
G1 X90.432 Y165.838 E6.93823
G1 X90.184 Y165.627 E6.94313
G1 X88.922 Y164.448 E6.96912
G1 X88.695 Y164.216 E6.97401
G1 X87.538 Y162.921 E7.00014
G1 X87.329 Y162.663 E7.00514
G1 X86.296 Y161.267 E7.03127
G1 X86.114 Y160.997 E7.03617
G1 X85.218 Y159.524 E7.06212
G1 X85.06 Y159.235 E7.06707
G1 X84.29 Y157.661 E7.09344
G1 X84.161 Y157.365 E7.0983
G1 X83.545 Y155.754 E7.12426
G1 X83.44 Y155.435 E7.12931
G1 X82.975 Y153.768 E7.15535
G1 X82.903 Y153.456 E7.16017
G1 X82.587 Y151.747 E7.18633
G1 X82.542 Y151.416 E7.19135
G1 X82.386 Y149.692 E7.2174
G1 X82.371 Y149.372 E7.22222
G1 X82.369 Y147.638 E7.24832
G1 X82.384 Y147.306 E7.25332
G1 X82.542 Y145.579 E7.27941
G1 X82.586 Y145.256 E7.28432
G1 X82.901 Y143.543 E7.31053
G1 X82.976 Y143.22 E7.31552
G1 X83.444 Y141.554 E7.34156
G1 X83.546 Y141.246 E7.34644
G1 X84.159 Y139.638 E7.37234
G1 X84.289 Y139.338 E7.37726
G1 X85.056 Y137.77 E7.40353
G1 X85.215 Y137.481 E7.40849
G1 X86.115 Y136.002 E7.43455
G1 X86.296 Y135.732 E7.43944
G1 X87.329 Y134.336 E7.46557
G1 X87.538 Y134.079 E7.47056
G1 X88.694 Y132.785 E7.49667
G1 X88.923 Y132.551 E7.50159
G1 X90.193 Y131.366 E7.52773
G1 X90.439 Y131.156 E7.5326
G1 X91.801 Y130.097 E7.55856
G1 X92.072 Y129.906 E7.56355
G1 X93.536 Y128.97 E7.5897
G1 X93.82 Y128.806 E7.59464
G1 X95.358 Y128.01 E7.6207
G1 X95.651 Y127.875 E7.62555
G1 X97.256 Y127.219 E7.65164
G1 X97.571 Y127.107 E7.65667
G1 X99.235 Y126.601 E7.68285
G1 X99.549 Y126.52 E7.68773
G1 X101.251 Y126.166 E7.71389
G1 X101.574 Y126.114 E7.71881
G1 X103.285 Y125.918 E7.74473
G1 X103.613 Y125.896 E7.74967
G1 X105.358 Y125.856 E7.77594
G1 X105.684 Y125.863 E7.78085
G1 X107.403 Y125.98 E7.80678
G1 X107.728 Y126.017 E7.8117
G1 X109.44 Y126.291 E7.83779
G1 X109.766 Y126.359 E7.8428
G1 X111.46 Y126.794 E7.86912
G1 X111.77 Y126.889 E7.874
G1 X113.391 Y127.465 E7.89989
G1 X113.695 Y127.589 E7.90483
G1 X115.278 Y128.32 E7.93107
G1 X115.57 Y128.471 E7.93601
G1 X117.071 Y129.338 E7.9621
G1 X117.347 Y129.515 E7.96703
G1 X118.75 Y130.506 E7.99288
G1 X119.005 Y130.704 E7.99774
G1 X120.335 Y131.835 E8.02401
G1 X120.581 Y132.064 E8.02907
G1 X121.793 Y133.307 E8.05519
G1 X122.008 Y133.549 E8.06007
G1 X123.104 Y134.897 E8.08621
G1 X123.299 Y135.16 E8.09114
G1 X124.261 Y136.591 E8.11709
G1 X124.43 Y136.869 E8.12198
G1 X125.267 Y138.396 E8.14819
