;FLAVOR:Marlin
;TIME:2769
;Filament used: 0.797359m, 0m
;Layer height: 0.2
;MINX:77.508
;MINY:121.006
;MINZ:0.2
;MAXX:126.844
;MAXY:175.991
;MAXZ:12.8
;Generated with StratosEngine 1.6.0
T0
M82 ;absolute extrusion mode
;Machine Model: Sigma R19 
;Materials used: T0 ABS  
;Extruders used: T0 0.4  
M141 S0 	;Set chamber temperature 
M140 S100 	;Heat build surface
M104 T0 S235	;Heat extruder 0
M190 S100 	;Wait until bed temperature reached 
M109 T0 S235	;Heat extruder 0 and wait
G21 		;metric values 
G90 		;absolute positioning 
M204 S600 	;set default acceleration 
M205 X12.5 Y12.5 ;set default jerk 
M107 		;start with the fan off 
G28 X0 Y0 	;move X/Y to min endstops 
G28 Z0 		;move Z to min endstops 
G1 Z5 F200 	;safety Z axis movement

T0
G92 E0 		;set zero the extruded length 
G1 E15 F30
G92 E0 
G4 S2 		;stabilize hotend 
G1 E-0.5 F1000 
G92 E0

G4 P1
G4 P2
G4 P3

G92 E0
;LAYER_COUNT:63
;LAYER:0
M107
M204 S627
M205 X9.38 Y9.38
G1 F600 Z0.6
G0 F6030 X112.55 Y175.957 Z0.6
M204 S470
;TYPE:SKIRT
G1 F600 Z0.2
G1 F1050 E0
G1 F2010 X111.274 Y175.814 E0.01932
G1 X110.017 Y175.542 E0.03868
G1 X109.407 Y175.363 E0.04824
G1 X108.209 Y174.936 E0.06738
G1 X108.018 Y174.877 E0.07039
G1 X106.721 Y174.414 E0.09111
G1 X104.16 Y173.581 E0.13164
G1 X101.607 Y172.829 E0.17169
G1 X99.057 Y172.156 E0.21138
G1 X96.409 Y171.537 E0.2523
G1 X93.799 Y171.002 E0.29239
G1 X91.193 Y170.549 E0.3322
G1 X89.616 Y170.31 E0.3562
G1 X88.09 Y170.049 E0.3795
G1 X86.819 Y169.716 E0.39927
G1 X85.605 Y169.263 E0.41877
G1 X84.563 Y168.756 E0.43621
G1 X83.378 Y168.047 E0.45699
G1 X82.362 Y167.287 E0.47608
G1 X81.473 Y166.473 E0.49422
G1 X80.569 Y165.494 E0.51427
G1 X79.806 Y164.476 E0.53342
G1 X79.154 Y163.395 E0.55241
G1 X78.59 Y162.254 E0.57157
G1 X78.134 Y161.032 E0.5912
G1 X77.834 Y159.9 E0.60882
G1 X77.601 Y158.579 E0.629
G1 X77.508 Y157.312 E0.64812
G1 X77.543 Y156.054 E0.66706
G1 X77.688 Y154.767 E0.68655
G1 X77.955 Y153.529 E0.70561
G1 X78.133 Y152.923 E0.71511
G1 X78.57 Y151.692 E0.73477
G1 X78.631 Y151.495 E0.73787
G1 X79.117 Y150.131 E0.75966
G1 X79.937 Y147.605 E0.79963
G1 X80.686 Y145.057 E0.8396
G1 X81.371 Y142.449 E0.88017
G1 X81.974 Y139.867 E0.92007
G1 X82.512 Y137.231 E0.96056
G1 X82.965 Y134.619 E1.00045
G1 X83.189 Y133.145 E1.02289
G1 X83.454 Y131.593 E1.04658
G1 X83.785 Y130.322 E1.06635
G1 X84.222 Y129.142 E1.08528
G1 X84.775 Y128.011 E1.10423
G1 X85.456 Y126.875 E1.12416
G1 X86.202 Y125.878 E1.1429
G1 X87.046 Y124.956 E1.16171
G1 X88.008 Y124.069 E1.1814
G1 X89.027 Y123.305 E1.20056
G1 X90.076 Y122.67 E1.21902
G1 X91.247 Y122.091 E1.23867
G1 X92.451 Y121.639 E1.25803
G1 X93.621 Y121.329 E1.27624
G1 X94.924 Y121.1 E1.29615
G1 X96.23 Y121.006 E1.31585
G1 X96.862 Y121.006 E1.32537
G1 X98.083 Y121.093 E1.34379
G1 X99.337 Y121.309 E1.36293
G1 X100.605 Y121.639 E1.38265
G1 X101.783 Y122.078 E1.40157
G1 X102.906 Y122.628 E1.42039
G1 X104.012 Y123.292 E1.4398
G1 X105.065 Y124.08 E1.45959
G1 X105.911 Y124.855 E1.47686
G1 X106.834 Y125.852 E1.4973
G1 X107.61 Y126.886 E1.51676
G1 X108.235 Y127.92 E1.53494
G1 X108.31 Y128.057 E1.53729
G1 X108.977 Y129.323 E1.55882
G1 X109.472 Y130.291 E1.57518
G1 X110.77 Y132.665 E1.6159
G1 X112.104 Y134.948 E1.65569
G1 X113.516 Y137.215 E1.69588
G1 X114.994 Y139.445 E1.73614
G1 X115.656 Y140.385 E1.75344
G1 X116.409 Y141.522 E1.77396
G1 X116.797 Y142.214 E1.7859
G1 X117.548 Y143.643 E1.8102
G1 X117.878 Y144.292 E1.82115
G1 X119.148 Y146.621 E1.86107
G1 X120.499 Y148.942 E1.90149
G1 X121.89 Y151.183 E1.94118
G1 X123.374 Y153.43 E1.9817
G1 X124.098 Y154.462 E2.00067
G1 X124.887 Y155.653 E2.02217
G1 X125.499 Y156.77 E2.04134
G1 X125.965 Y157.863 E2.05922
G1 X126.39 Y159.153 E2.07966
G1 X126.659 Y160.379 E2.09854
G1 X126.803 Y161.621 E2.11736
G1 X126.844 Y162.925 E2.13699
G1 X126.757 Y164.187 E2.15603
G1 X126.545 Y165.425 E2.17493
G1 X126.218 Y166.672 E2.19433
G1 X125.769 Y167.881 E2.21374
G1 X125.225 Y168.993 E2.23237
G1 X124.55 Y170.119 E2.25212
G1 X123.809 Y171.111 E2.27076
G1 X122.942 Y172.058 E2.29008
G1 X121.992 Y172.932 E2.3095
G1 X121 Y173.678 E2.32818
G1 X119.925 Y174.328 E2.34709
G1 X118.736 Y174.917 E2.36705
G1 X117.553 Y175.359 E2.38606
G1 X116.362 Y175.673 E2.40459
G1 X115.073 Y175.9 E2.42429
G1 X113.814 Y175.991 E2.44328
G1 X112.55 Y175.957 E2.46231
M204 S627
G0 F6030 X113.195 Y175.513
M204 S470
G1 F2010 X111.939 Y175.425 E2.48126
G1 X110.781 Y175.225 E2.49894
G1 X109.568 Y174.911 E2.5178
G1 X108.29 Y174.456 E2.53821
G1 X108.179 Y174.425 E2.53995
G1 X106.858 Y173.953 E2.56106
G1 X104.326 Y173.13 E2.60112
G1 X101.733 Y172.366 E2.6418
G1 X99.139 Y171.682 E2.68217
G1 X96.549 Y171.076 E2.7222
G1 X93.909 Y170.535 E2.76275
G1 X91.254 Y170.073 E2.80331
G1 X89.645 Y169.828 E2.8278
G1 X88.183 Y169.578 E2.85012
G1 X86.981 Y169.264 E2.86881
G1 X85.78 Y168.816 E2.8881
G1 X84.652 Y168.258 E2.90704
G1 X83.66 Y167.659 E2.92448
G1 X82.656 Y166.907 E2.94336
G1 X81.807 Y166.128 E2.9607
G1 X80.949 Y165.201 E2.9797
G1 X80.194 Y164.194 E2.99864
G1 X79.572 Y163.16 E3.0168
G1 X79.037 Y162.079 E3.03495
G1 X78.586 Y160.872 E3.05434
G1 X78.269 Y159.644 E3.07343
G1 X78.027 Y157.938 E3.09936
G1 X77.987 Y156.693 E3.1181
G1 X78.076 Y155.434 E3.1371
G1 X78.277 Y154.275 E3.1548
G1 X78.585 Y153.084 E3.17331
G1 X79.051 Y151.77 E3.19429
G1 X79.083 Y151.656 E3.19607
G1 X79.566 Y150.299 E3.21775
G1 X80.398 Y147.737 E3.25828
G1 X81.149 Y145.182 E3.29836
G1 X81.835 Y142.572 E3.33897
G1 X82.444 Y139.964 E3.37927
G1 X82.986 Y137.308 E3.42007
G1 X83.442 Y134.678 E3.46023
G1 X83.658 Y133.254 E3.48191
G1 X83.925 Y131.687 E3.50583
G1 X84.237 Y130.483 E3.52454
G1 X84.669 Y129.315 E3.54328
G1 X85.2 Y128.235 E3.5614
G1 X85.845 Y127.158 E3.58029
G1 X86.582 Y126.172 E3.59881
G1 X87.391 Y125.291 E3.61681
G1 X88.301 Y124.449 E3.63547
G1 X89.309 Y123.694 E3.65442
G1 X90.313 Y123.088 E3.67207
G1 X91.422 Y122.537 E3.6907
G1 X92.613 Y122.091 E3.70984
G1 X93.73 Y121.797 E3.72722
G1 X94.965 Y121.578 E3.7461
G1 X96.257 Y121.485 E3.76559
G1 X96.835 Y121.485 E3.77429
G1 X98.042 Y121.571 E3.7925
G1 X99.242 Y121.779 E3.81082
G1 X100.444 Y122.091 E3.82951
G1 X101.609 Y122.526 E3.84823
G1 X102.683 Y123.053 E3.86623
G1 X103.73 Y123.68 E3.88459
G1 X104.77 Y124.459 E3.90415
G1 X105.672 Y125.294 E3.92264
G1 X106.454 Y126.145 E3.94004
G1 X107.221 Y127.168 E3.95928
G1 X107.817 Y128.155 E3.97663
G1 X108.55 Y129.541 E4.00022
G1 X109.053 Y130.525 E4.01685
G1 X110.349 Y132.895 E4.0575
G1 X111.697 Y135.202 E4.09771
G1 X113.114 Y137.477 E4.13804
G1 X114.59 Y139.704 E4.17825
G1 X115.26 Y140.656 E4.19577
G1 X115.991 Y141.759 E4.21568
G1 X116.372 Y142.437 E4.22738
G1 X117.12 Y143.861 E4.25159
G1 X117.436 Y144.482 E4.26207
G1 X118.75 Y146.892 E4.30338
G1 X120.082 Y149.18 E4.34322
G1 X121.497 Y151.459 E4.38359
G1 X122.969 Y153.689 E4.4238
G1 X123.702 Y154.733 E4.443
G1 X124.469 Y155.889 E4.46387
G1 X125.074 Y156.993 E4.48282
G1 X125.572 Y158.182 E4.50222
G1 X126.056 Y159.837 E4.52816
G1 X126.273 Y161.06 E4.54686
G1 X126.364 Y162.309 E4.5657
G1 X126.33 Y163.518 E4.5839
G1 X126.195 Y164.73 E4.60225
G1 X125.925 Y165.972 E4.62138
G1 X125.563 Y167.082 E4.63895
G1 X125.08 Y168.237 E4.65779
G1 X124.482 Y169.338 E4.67664
G1 X123.82 Y170.305 E4.69428
G1 X123.034 Y171.275 E4.71307
G1 X122.144 Y172.167 E4.73203
G1 X121.236 Y172.909 E4.74967
G1 X120.205 Y173.62 E4.76852
G1 X119.104 Y174.222 E4.7874
G1 X118.035 Y174.675 E4.80488
G1 X116.826 Y175.073 E4.82403
G1 X115.616 Y175.338 E4.84267
G1 X114.463 Y175.471 E4.86014
G1 X113.195 Y175.513 E4.87923
M204 S627
G0 F6030 X113.222 Y175.034
M204 S470
G1 F2010 X111.98 Y174.947 E4.89796
G1 X110.732 Y174.724 E4.91704
G1 X109.729 Y174.459 E4.93265
G1 X108.54 Y174.036 E4.95164
G1 X108.34 Y173.972 E4.9548
G1 X107.047 Y173.51 E4.97547
G1 X104.446 Y172.665 E5.01662
G1 X101.874 Y171.907 E5.05697
G1 X99.272 Y171.22 E5.09747
G1 X96.646 Y170.606 E5.13805
G1 X93.987 Y170.062 E5.1789
G1 X91.314 Y169.596 E5.21973
G1 X89.717 Y169.354 E5.24403
G1 X88.277 Y169.107 E5.26602
G1 X87.142 Y168.812 E5.28367
G1 X85.954 Y168.369 E5.30275
G1 X84.888 Y167.84 E5.32066
G1 X83.477 Y166.933 E5.3459
G1 X82.551 Y166.182 E5.36384
G1 X81.676 Y165.308 E5.38245
G1 X80.896 Y164.344 E5.40111
G1 X79.99 Y162.924 E5.42646
G1 X79.262 Y161.332 E5.4528
G1 X78.891 Y160.206 E5.47064
G1 X78.633 Y159.02 E5.48891
G1 X78.496 Y157.761 E5.50796
G1 X78.502 Y156.109 E5.53283
G1 X78.629 Y154.956 E5.55028
G1 X78.89 Y153.747 E5.56889
G1 X79.037 Y153.244 E5.57678
G1 X79.47 Y152.024 E5.59626
G1 X79.535 Y151.817 E5.59953
G1 X80.027 Y150.436 E5.62159
G1 X80.857 Y147.88 E5.66203
G1 X81.616 Y145.298 E5.70253
G1 X82.3 Y142.695 E5.74303
G1 X82.907 Y140.095 E5.78321
G1 X83.46 Y137.385 E5.82483
G1 X83.91 Y134.785 E5.86454
G1 X84.138 Y133.289 E5.88731
G1 X84.395 Y131.781 E5.91033
G1 X84.689 Y130.643 E5.92802
G1 X85.117 Y129.489 E5.94654
G1 X85.625 Y128.458 E5.96383
G1 X86.233 Y127.44 E5.98168
G1 X86.962 Y126.465 E6
G1 X87.831 Y125.529 E6.01922
G1 X89.048 Y124.479 E6.04341
G1 X90.036 Y123.796 E6.06148
G1 X91.133 Y123.197 E6.08029
G1 X92.237 Y122.735 E6.0983
G1 X93.838 Y122.265 E6.12341
G1 X95.006 Y122.056 E6.14126
G1 X96.283 Y121.964 E6.16053
G1 X96.807 Y121.964 E6.16842
G1 X98.001 Y122.049 E6.18643
G1 X99.147 Y122.25 E6.20394
G1 X100.283 Y122.544 E6.2216
G1 X101.434 Y122.973 E6.24008
G1 X102.459 Y123.478 E6.25728
G1 X103.448 Y124.069 E6.27461
G1 X104.476 Y124.838 E6.29393
G1 X105.329 Y125.63 E6.31145
G1 X106.441 Y126.914 E6.33701
G1 X107.121 Y127.898 E6.35501
G1 X107.461 Y128.505 E6.36548
G1 X108.123 Y129.76 E6.38683
G1 X108.634 Y130.759 E6.40372
G1 X109.935 Y133.137 E6.44451
G1 X111.289 Y135.456 E6.48492
G1 X112.694 Y137.713 E6.52493
G1 X114.213 Y140.003 E6.56628
G1 X115.365 Y141.66 E6.59665
G1 X115.948 Y142.66 E6.61407
G1 X116.693 Y144.079 E6.63818
G1 X117.031 Y144.743 E6.6494
G1 X118.319 Y147.106 E6.6899
G1 X119.674 Y149.432 E6.7304
G1 X121.093 Y151.719 E6.77091
G1 X122.575 Y153.963 E6.81138
G1 X123.305 Y155.003 E6.8305
G1 X124.052 Y156.126 E6.85079
G1 X124.649 Y157.216 E6.8695
G1 X125.12 Y158.344 E6.88789
G1 X125.589 Y159.946 E6.91301
G1 X125.795 Y161.101 E6.93066
G1 X125.885 Y162.337 E6.94931
G1 X125.851 Y163.491 E6.96669
G1 X125.725 Y164.635 E6.98401
G1 X125.458 Y165.861 E7.00289
G1 X125.062 Y167.053 E7.02179
G1 X124.375 Y168.546 E7.04652
G1 X123.773 Y169.554 E7.06419
G1 X123.048 Y170.526 E7.08244
G1 X122.254 Y171.388 E7.10007
G1 X121.406 Y172.172 E7.11745
G1 X120.434 Y172.903 E7.13576
G1 X119.454 Y173.492 E7.15296
G1 X118.388 Y174.023 E7.17088
G1 X117.231 Y174.455 E7.18947
G1 X116.017 Y174.766 E7.20833
G1 X114.422 Y174.993 E7.23257
G1 X113.222 Y175.034 E7.25064
M204 S627
G0 F6030 X112.632 Y174.519
M204 S470
G1 F2010 X110.97 Y174.284 E7.2759
G1 X109.89 Y174.007 E7.29268
G1 X108.606 Y173.55 E7.31319
G1 X108.502 Y173.52 E7.31482
G1 X107.195 Y173.053 E7.3357
G1 X104.612 Y172.213 E7.37658
G1 X102 Y171.444 E7.41755
G1 X99.395 Y170.756 E7.4581
G1 X96.737 Y170.135 E7.49917
G1 X94.065 Y169.588 E7.54022
G1 X91.427 Y169.128 E7.58051
G1 X89.789 Y168.879 E7.60544
G1 X88.371 Y168.636 E7.62709
G1 X86.733 Y168.156 E7.65278
G1 X85.233 Y167.481 E7.67753
G1 X84.225 Y166.882 E7.69518
G1 X83.243 Y166.147 E7.71364
G1 X82.388 Y165.352 E7.73121
G1 X81.357 Y164.158 E7.75494
G1 X80.408 Y162.688 E7.78128
G1 X79.709 Y161.158 E7.80659
G1 X79.236 Y159.573 E7.83148
G1 X78.984 Y157.855 E7.85761
G1 X78.981 Y156.136 E7.88348
G1 X79.218 Y154.465 E7.90888
G1 X79.49 Y153.405 E7.92534
G1 X79.955 Y152.095 E7.94626
G1 X79.988 Y151.979 E7.94808
G1 X80.466 Y150.636 E7.96953
G1 X81.312 Y148.032 E8.01073
G1 X82.081 Y145.414 E8.05179
G1 X82.763 Y142.818 E8.09218
G1 X83.383 Y140.165 E8.13318
G1 X83.929 Y137.489 E8.17428
G1 X84.387 Y134.844 E8.21468
G1 X84.608 Y133.392 E8.23678
G1 X84.866 Y131.875 E8.25994
G1 X85.34 Y130.247 E8.28545
G1 X86.049 Y128.682 E8.31131
G1 X86.954 Y127.264 E8.33662
G1 X88.08 Y125.959 E8.36256
G1 X89.341 Y124.858 E8.38775
G1 X90.785 Y123.924 E8.41363
G1 X92.277 Y123.233 E8.43837
G1 X93.402 Y122.858 E8.45622
G1 X94.562 Y122.605 E8.47409
G1 X95.79 Y122.473 E8.49267
G1 X96.78 Y122.444 E8.50758
G1 X97.96 Y122.527 E8.52538
G1 X99.179 Y122.748 E8.54402
G1 X100.644 Y123.182 E8.56701
G1 X102.236 Y123.903 E8.59331
G1 X103.665 Y124.819 E8.61886
G1 X104.907 Y125.887 E8.64351
G1 X105.695 Y126.732 E8.66089
G1 X106.444 Y127.731 E8.67968
G1 X107.036 Y128.729 E8.69714
G1 X107.695 Y129.978 E8.7184
G1 X108.199 Y130.965 E8.73507
G1 X109.51 Y133.361 E8.77617
G1 X110.873 Y135.695 E8.81685
G1 X112.313 Y138.006 E8.85782
G1 X113.785 Y140.228 E8.89793
G1 X114.467 Y141.198 E8.91578
G1 X115.156 Y142.232 E8.93447
G1 X115.523 Y142.884 E8.94573
G1 X116.265 Y144.296 E8.96974
G1 X116.604 Y144.962 E8.98098
G1 X117.898 Y147.336 E9.02167
G1 X119.272 Y149.696 E9.06276
G1 X120.684 Y151.97 E9.10304
G1 X122.186 Y154.245 E9.14407
G1 X122.909 Y155.274 E9.16299
G1 X123.634 Y156.363 E9.18268
G1 X124.225 Y157.44 E9.20117
G1 X124.668 Y158.506 E9.21854
G1 X125.121 Y160.055 E9.24283
G1 X125.368 Y161.745 E9.26853
G1 X125.371 Y163.464 E9.2944
G1 X125.133 Y165.14 E9.31987
G1 X124.658 Y166.761 E9.34529
G1 X123.951 Y168.322 E9.37108
G1 X123.044 Y169.741 E9.39642
G1 X121.91 Y171.053 E9.42252
G1 X120.65 Y172.149 E9.44765
G1 X119.219 Y173.074 E9.47329
G1 X117.687 Y173.78 E9.49867
G1 X116.036 Y174.271 E9.52459
G1 X114.381 Y174.514 E9.54977
G1 X112.632 Y174.519 E9.57609
M204 S627
G0 F6030 X112.659 Y174.04
M204 S470
G1 F2010 X111.064 Y173.813 E9.60033
G1 X110.051 Y173.555 E9.61606
G1 X108.733 Y173.086 E9.63711
G1 X108.663 Y173.068 E9.6382
G1 X107.353 Y172.6 E9.65913
G1 X104.722 Y171.745 E9.70076
G1 X102.15 Y170.987 E9.74112
G1 X99.486 Y170.284 E9.78258
G1 X96.842 Y169.666 E9.82344
G1 X94.176 Y169.12 E9.86439
G1 X91.488 Y168.652 E9.90545
G1 X89.861 Y168.405 E9.93021
G1 X88.464 Y168.166 E9.95154
G1 X86.894 Y167.704 E9.97617
G1 X85.456 Y167.056 E9.9999
G1 X84.042 Y166.156 E10.02513
G1 X82.81 Y165.095 E10.04959
G1 X81.737 Y163.865 E10.07416
G1 X80.826 Y162.453 E10.09944
G1 X80.156 Y160.984 E10.12374
G1 X79.704 Y159.465 E10.14759
G1 X79.462 Y157.813 E10.17271
G1 X79.46 Y156.164 E10.19753
G1 X79.688 Y154.56 E10.22191
G1 X79.942 Y153.565 E10.23736
G1 X80.421 Y152.214 E10.25893
G1 X80.44 Y152.14 E10.26008
G1 X80.927 Y150.773 E10.28192
G1 X81.771 Y148.174 E10.32304
G1 X82.538 Y145.563 E10.36399
G1 X83.227 Y142.941 E10.40479
G1 X83.853 Y140.262 E10.44619
G1 X84.403 Y137.566 E10.4876
G1 X84.856 Y134.951 E10.52754
G1 X85.087 Y133.433 E10.55064
G1 X85.337 Y131.969 E10.57299
G1 X85.792 Y130.408 E10.59746
G1 X86.474 Y128.906 E10.62228
G1 X87.342 Y127.546 E10.64656
G1 X88.424 Y126.293 E10.67148
G1 X89.635 Y125.238 E10.69565
G1 X91.021 Y124.342 E10.72048
G1 X92.453 Y123.68 E10.74422
G1 X94.055 Y123.2 E10.76939
G1 X95.706 Y122.96 E10.79449
G1 X96.753 Y122.923 E10.81026
G1 X97.919 Y123.006 E10.82785
G1 X99.069 Y123.215 E10.84544
G1 X100.483 Y123.634 E10.86763
G1 X102.013 Y124.328 E10.89292
G1 X103.383 Y125.208 E10.91742
G1 X104.572 Y126.231 E10.94102
G1 X105.682 Y127.501 E10.9664
G1 X106.562 Y128.863 E10.99081
G1 X106.612 Y128.953 E10.99236
G1 X107.268 Y130.197 E11.01352
G1 X107.787 Y131.213 E11.03069
G1 X109.092 Y133.598 E11.0716
G1 X110.45 Y135.923 E11.11212
G1 X111.91 Y138.268 E11.15369
G1 X113.405 Y140.523 E11.1944
G1 X114.071 Y141.469 E11.21181
G1 X114.738 Y142.468 E11.22989
G1 X115.098 Y143.107 E11.24093
G1 X115.837 Y144.514 E11.26484
G1 X116.184 Y145.195 E11.27634
G1 X117.467 Y147.55 E11.3167
G1 X118.849 Y149.923 E11.35802
G1 X120.297 Y152.255 E11.39933
G1 X121.776 Y154.496 E11.43974
G1 X122.512 Y155.545 E11.45902
G1 X123.217 Y156.599 E11.4781
G1 X123.8 Y157.663 E11.49636
G1 X124.399 Y159.179 E11.52089
G1 X124.777 Y160.762 E11.54538
G1 X124.927 Y162.392 E11.57002
G1 X124.885 Y163.542 E11.58733
G1 X124.663 Y165.045 E11.6102
G1 X124.206 Y166.6 E11.63459
G1 X123.526 Y168.099 E11.65936
G1 X122.656 Y169.459 E11.68365
G1 X121.566 Y170.718 E11.70871
G1 X120.357 Y171.769 E11.73282
G1 X118.983 Y172.655 E11.75742
G1 X117.513 Y173.333 E11.78178
G1 X115.927 Y173.803 E11.80667
G1 X114.34 Y174.036 E11.83081
G1 X112.659 Y174.04 E11.85611
M204 S627
G0 F6030 X112.104 Y173.512
M204 S470
G1 F2010 X110.563 Y173.205 E11.87975
G1 X110.212 Y173.102 E11.88526
G1 X108.977 Y172.662 E11.90499
