;FLAVOR:Marlin
;TIME:1194
;Filament used: 0.382956m, 0m
;Layer height: 0.2
;MINX:79.96
;MINY:72.46
;MINZ:0.2
;MAXX:130.04
;MAXY:224.502
;MAXZ:3
;Generated with StratosEngine 1.6.0
T0
M82 ;absolute extrusion mode
;Machine Model: Sigma R19 
;Materials used: T0 ABS  
;Extruders used: T0 0.4  
M141 S0 	;Set chamber temperature 
M140 S100 	;Heat build surface
M104 T0 S235	;Heat extruder 0
M190 S100 	;Wait until bed temperature reached 
M109 T0 S235	;Heat extruder 0 and wait
G21 		;metric values 
G90 		;absolute positioning 
M204 S600 	;set default acceleration 
M205 X12.5 Y12.5 ;set default jerk 
M107 		;start with the fan off 
G28 X0 Y0 	;move X/Y to min endstops 
G28 Z0 		;move Z to min endstops 
G1 Z5 F200 	;safety Z axis movement

T0
G92 E0 		;set zero the extruded length 
G1 E15 F30
G92 E0 
G4 S2 		;stabilize hotend 
G1 E-0.5 F1000 
G92 E0

G4 P1
G4 P2
G4 P3

G92 E0
;LAYER_COUNT:15
;LAYER:0
M107
M204 S627
M205 X9.38 Y9.38
G1 F600 Z0.6
G0 F6030 X105.568 Y224.502 Z0.6
M204 S470
;TYPE:SKIRT
G1 F600 Z0.2
G1 F1050 E0
G1 F2010 X103.912 Y224.472 E0.02492
G1 X102.537 Y224.103 E0.04635
G1 X101.362 Y223.429 E0.06673
G1 X100.87 Y222.997 E0.07659
G1 X99.973 Y222.1 E0.09568
G1 X99.197 Y221.099 E0.11473
G1 X98.651 Y219.823 E0.13562
G1 X98.46 Y218.449 E0.1565
G1 X98.46 Y112.155 E1.75606
G1 X95.046 Y107.523 E1.84265
G1 X94.428 Y106.417 E1.86171
G1 X94.131 Y105.42 E1.87737
G1 X94.042 Y104.54 E1.89068
G1 X85.141 Y104.54 E2.02462
G1 X83.884 Y104.381 E2.04369
G1 X82.707 Y103.913 E2.06275
G1 X81.577 Y103.064 E2.08402
G1 X81.017 Y102.447 E2.09656
G1 X80.372 Y101.356 E2.11563
G1 X80.021 Y100.139 E2.13469
G1 X79.96 Y99.359 E2.14647
G1 X79.96 Y82.641 E2.39805
G1 X80.119 Y81.384 E2.41711
G1 X80.587 Y80.207 E2.43617
G1 X81.436 Y79.077 E2.45744
G1 X82.053 Y78.517 E2.46998
G1 X83.144 Y77.872 E2.48905
G1 X84.361 Y77.521 E2.50812
G1 X85.141 Y77.46 E2.51989
G1 X94.05 Y77.46 E2.65396
G1 X94.198 Y76.384 E2.6703
G1 X94.666 Y75.207 E2.68936
G1 X95.515 Y74.077 E2.71063
G1 X96.132 Y73.517 E2.72317
G1 X97.223 Y72.872 E2.74224
G1 X98.44 Y72.521 E2.7613
G1 X99.22 Y72.46 E2.77308
G1 X110.78 Y72.46 E2.94704
G1 X112.037 Y72.619 E2.9661
G1 X113.214 Y73.087 E2.98516
G1 X114.344 Y73.936 E3.00643
G1 X114.904 Y74.553 E3.01897
G1 X115.549 Y75.644 E3.03804
G1 X115.9 Y76.861 E3.0571
G1 X115.947 Y77.46 E3.06615
G1 X124.859 Y77.46 E3.20026
G1 X126.116 Y77.619 E3.21932
G1 X127.293 Y78.087 E3.23839
G1 X128.423 Y78.936 E3.25965
G1 X128.983 Y79.553 E3.27219
G1 X129.628 Y80.644 E3.29127
G1 X129.979 Y81.861 E3.31033
G1 X130.04 Y82.641 E3.3221
G1 X130.04 Y99.359 E3.57368
G1 X129.881 Y100.616 E3.59275
G1 X129.413 Y101.793 E3.61181
G1 X128.564 Y102.923 E3.63308
G1 X127.947 Y103.483 E3.64562
G1 X126.856 Y104.128 E3.66469
G1 X125.639 Y104.479 E3.68375
G1 X124.859 Y104.54 E3.69552
G1 X115.956 Y104.54 E3.8295
G1 X115.802 Y105.717 E3.84736
G1 X115.449 Y106.696 E3.86302
G1 X114.954 Y107.523 E3.87753
G1 X111.54 Y112.155 E3.96412
G1 X111.54 Y218.449 E5.56368
G1 X111.381 Y219.706 E5.58274
G1 X111.101 Y220.508 E5.59553
G1 X110.463 Y221.603 E5.6146
G1 X110.029 Y222.098 E5.62451
G1 X109.104 Y223.024 E5.6442
G1 X108.103 Y223.801 E5.66327
G1 X106.94 Y224.303 E5.68233
G1 X105.568 Y224.502 E5.7032
M204 S627
G0 F6030 X105.565 Y224.022
M204 S470
G1 F2010 X103.94 Y223.992 E5.72765
G1 X102.726 Y223.662 E5.74659
G1 X101.608 Y223.012 E5.76605
G1 X101.21 Y222.657 E5.77407
G1 X100.313 Y221.76 E5.79316
G1 X99.581 Y220.804 E5.81128
G1 X99.105 Y219.664 E5.82987
G1 X98.94 Y218.449 E5.84832
G1 X98.94 Y111.998 E7.45024
G1 X95.432 Y107.238 E7.53923
G1 X95.107 Y106.73 E7.5483
G1 X94.747 Y105.884 E7.56214
G1 X94.597 Y105.3 E7.57121
G1 X94.519 Y104.06 E7.58991
G1 X85.141 Y104.06 E7.73103
G1 X83.947 Y103.901 E7.74916
G1 X82.836 Y103.435 E7.76729
G1 X81.917 Y102.724 E7.78477
G1 X81.378 Y102.129 E7.79686
G1 X80.779 Y101.084 E7.81498
G1 X80.474 Y99.919 E7.8331
G1 X80.44 Y99.359 E7.84155
G1 X80.44 Y82.641 E8.09313
G1 X80.599 Y81.447 E8.11125
G1 X81.065 Y80.336 E8.12938
G1 X81.776 Y79.417 E8.14687
G1 X82.371 Y78.878 E8.15895
G1 X83.416 Y78.279 E8.17708
G1 X84.581 Y77.974 E8.1952
G1 X85.141 Y77.94 E8.20364
G1 X94.519 Y77.94 E8.34476
G1 X94.559 Y77.039 E8.35834
G1 X94.874 Y75.876 E8.37647
G1 X95.483 Y74.837 E8.39459
G1 X96.45 Y73.878 E8.41509
G1 X97.495 Y73.279 E8.43321
G1 X98.66 Y72.974 E8.45133
G1 X99.22 Y72.94 E8.45978
G1 X110.78 Y72.94 E8.63374
G1 X111.974 Y73.099 E8.65186
G1 X113.085 Y73.565 E8.66999
G1 X114.004 Y74.276 E8.68748
G1 X114.543 Y74.871 E8.69956
G1 X115.142 Y75.916 E8.71769
G1 X115.447 Y77.081 E8.73581
G1 X115.481 Y77.94 E8.74874
G1 X124.859 Y77.94 E8.88987
G1 X126.053 Y78.099 E8.908
G1 X127.164 Y78.565 E8.92613
G1 X128.083 Y79.276 E8.94361
G1 X128.622 Y79.871 E8.95569
G1 X129.221 Y80.916 E8.97382
G1 X129.526 Y82.081 E8.99194
G1 X129.56 Y82.641 E9.00038
G1 X129.56 Y99.359 E9.25196
G1 X129.401 Y100.553 E9.27009
G1 X128.935 Y101.664 E9.28822
G1 X128.224 Y102.583 E9.3057
G1 X127.629 Y103.122 E9.31779
G1 X126.584 Y103.721 E9.33591
G1 X125.419 Y104.026 E9.35403
G1 X124.859 Y104.06 E9.36248
G1 X115.481 Y104.06 E9.5036
G1 X115.441 Y105.062 E9.51869
G1 X115.229 Y105.957 E9.53253
G1 X115.003 Y106.517 E9.54162
G1 X114.568 Y107.238 E9.55429
G1 X111.06 Y111.998 E9.64327
G1 X111.06 Y218.449 E11.2452
G1 X110.901 Y219.643 E11.26332
G1 X110.387 Y220.859 E11.28319
G1 X109.689 Y221.759 E11.30033
G1 X108.764 Y222.685 E11.32002
G1 X107.808 Y223.417 E11.33814
G1 X106.693 Y223.873 E11.35627
G1 X105.565 Y224.022 E11.37339
M204 S627
G0 F6030 X105.562 Y223.542
M204 S470
G1 F2010 X103.97 Y223.511 E11.39736
G1 X102.832 Y223.185 E11.41517
G1 X101.857 Y222.596 E11.43231
G1 X101.549 Y222.318 E11.43855
G1 X100.652 Y221.421 E11.45764
G1 X99.967 Y220.511 E11.47478
G1 X99.559 Y219.506 E11.49111
G1 X99.42 Y218.449 E11.50715
G1 X99.42 Y111.84 E13.11145
G1 X95.819 Y106.954 E13.20279
G1 X95.513 Y106.471 E13.21139
G1 X95.203 Y105.734 E13.22342
G1 X95.063 Y105.181 E13.23201
G1 X94.999 Y103.58 E13.25612
G1 X85.141 Y103.58 E13.40447
G1 X84.013 Y103.421 E13.42161
G1 X82.973 Y102.956 E13.43875
G1 X82.115 Y102.244 E13.45553
G1 X81.43 Y101.334 E13.47267
G1 X81.023 Y100.27 E13.48982
G1 X80.92 Y99.359 E13.50361
G1 X80.92 Y82.641 E13.75519
G1 X81.079 Y81.513 E13.77233
G1 X81.544 Y80.473 E13.78948
G1 X82.256 Y79.615 E13.80626
G1 X83.166 Y78.93 E13.8234
G1 X84.23 Y78.523 E13.84054
G1 X85.141 Y78.42 E13.85434
G1 X94.999 Y78.42 E14.00268
G1 X95.039 Y77.071 E14.02299
G1 X95.354 Y75.977 E14.04012
G1 X95.959 Y75.012 E14.05726
G1 X96.766 Y74.241 E14.07406
G1 X97.763 Y73.689 E14.09121
G1 X98.873 Y73.435 E14.10834
G1 X99.22 Y73.42 E14.11357
G1 X110.78 Y73.42 E14.28753
G1 X111.908 Y73.579 E14.30467
G1 X112.948 Y74.044 E14.32182
G1 X113.806 Y74.756 E14.3386
G1 X114.491 Y75.666 E14.35574
G1 X114.898 Y76.73 E14.37288
G1 X115.001 Y77.641 E14.38668
G1 X115.001 Y78.42 E14.3984
G1 X124.859 Y78.42 E14.54675
G1 X125.987 Y78.579 E14.56389
G1 X127.027 Y79.044 E14.58103
G1 X127.885 Y79.756 E14.59781
G1 X128.57 Y80.666 E14.61495
G1 X128.977 Y81.73 E14.63209
G1 X129.08 Y82.641 E14.64589
G1 X129.08 Y99.359 E14.89747
G1 X128.921 Y100.487 E14.91461
G1 X128.456 Y101.527 E14.93176
G1 X127.744 Y102.385 E14.94853
G1 X126.834 Y103.07 E14.96567
G1 X125.77 Y103.477 E14.98282
G1 X124.859 Y103.58 E14.99661
G1 X115.001 Y103.58 E15.14496
G1 X114.961 Y105.03 E15.16679
G1 X114.773 Y105.807 E15.17882
G1 X114.557 Y106.336 E15.18742
G1 X114.181 Y106.954 E15.1983
G1 X110.58 Y111.84 E15.28964
G1 X110.58 Y218.449 E16.89394
G1 X110.421 Y219.577 E16.91108
G1 X109.958 Y220.641 E16.92855
G1 X109.35 Y221.419 E16.9434
G1 X108.425 Y222.345 E16.9631
G1 X107.515 Y223.031 E16.98025
G1 X106.451 Y223.439 E16.9974
G1 X105.562 Y223.542 E17.01087
M204 S627
G0 F6030 X106.216 Y222.998
M204 S470
G1 F2010 X104.537 Y223.068 E17.03615
G1 X103.479 Y222.915 E17.05224
G1 X102.545 Y222.497 E17.06764
G1 X101.888 Y221.979 E17.08023
G1 X100.991 Y221.082 E17.09932
G1 X100.356 Y220.221 E17.11542
G1 X100.015 Y219.35 E17.1295
G1 X99.9 Y218.449 E17.14316
G1 X99.9 Y111.683 E18.74983
G1 X96.205 Y106.669 E18.84355
G1 X95.683 Y105.657 E18.86069
G1 X95.53 Y105.064 E18.86991
G1 X95.479 Y104.46 E18.87903
G1 X95.479 Y103.1 E18.89949
G1 X85.141 Y103.1 E19.05506
G1 X84.083 Y102.941 E19.07116
G1 X83.119 Y102.478 E19.08726
G1 X82.454 Y101.905 E19.10047
G1 X81.819 Y101.044 E19.11657
G1 X81.464 Y100.035 E19.13266
G1 X81.4 Y99.359 E19.14288
G1 X81.4 Y82.641 E19.39446
G1 X81.559 Y81.583 E19.41056
G1 X82.022 Y80.619 E19.42665
G1 X82.595 Y79.954 E19.43986
G1 X83.456 Y79.319 E19.45596
G1 X84.465 Y78.964 E19.47206
G1 X85.141 Y78.9 E19.48228
G1 X95.479 Y78.9 E19.63785
G1 X95.479 Y77.641 E19.65679
G1 X95.638 Y76.583 E19.67289
G1 X96.101 Y75.619 E19.68899
G1 X96.674 Y74.954 E19.7022
G1 X97.535 Y74.319 E19.7183
G1 X98.544 Y73.964 E19.73439
G1 X99.22 Y73.9 E19.74461
G1 X110.78 Y73.9 E19.91857
G1 X111.838 Y74.059 E19.93467
G1 X112.802 Y74.522 E19.95076
G1 X113.467 Y75.095 E19.96397
G1 X114.102 Y75.956 E19.98007
G1 X114.457 Y76.965 E19.99617
G1 X114.521 Y77.641 E20.00639
G1 X114.521 Y78.9 E20.02533
G1 X124.859 Y78.9 E20.1809
G1 X125.917 Y79.059 E20.197
G1 X126.881 Y79.522 E20.2131
G1 X127.546 Y80.095 E20.22631
G1 X128.181 Y80.956 E20.24241
G1 X128.536 Y81.965 E20.2585
G1 X128.6 Y82.641 E20.26872
G1 X128.6 Y99.359 E20.5203
G1 X128.441 Y100.417 E20.5364
G1 X127.978 Y101.381 E20.55249
G1 X127.405 Y102.046 E20.5657
G1 X126.544 Y102.681 E20.5818
G1 X125.535 Y103.036 E20.5979
G1 X124.859 Y103.1 E20.60812
G1 X114.521 Y103.1 E20.76369
G1 X114.521 Y104.46 E20.78415
G1 X114.341 Y105.584 E20.80128
G1 X114.112 Y106.153 E20.81051
G1 X113.795 Y106.669 E20.81963
G1 X110.1 Y111.683 E20.91336
G1 X110.1 Y218.449 E22.52002
G1 X109.941 Y219.507 E22.53612
G1 X109.53 Y220.421 E22.5512
G1 X109.01 Y221.08 E22.56383
G1 X108.085 Y222.006 E22.58353
G1 X107.225 Y222.642 E22.59962
G1 X106.216 Y222.998 E22.61573
M204 S627
G0 F6030 X105.99 Y222.549
M204 S470
G1 F2010 X104.534 Y222.588 E22.63764
G1 X103.551 Y222.435 E22.65261
G1 X102.767 Y222.07 E22.66563
G1 X102.228 Y221.639 E22.67601
G1 X101.331 Y220.742 E22.6951
G1 X101.007 Y220.362 E22.70262
G1 X100.629 Y219.67 E22.71448
G1 X100.39 Y218.704 E22.72946
G1 X100.38 Y218.449 E22.7333
G1 X100.38 Y111.525 E24.34234
G1 X96.591 Y106.384 E24.43845
G1 X96.115 Y105.434 E24.45444
G1 X95.959 Y104.46 E24.46928
G1 X95.959 Y102.62 E24.49697
G1 X85.141 Y102.62 E24.65976
G1 X84.159 Y102.461 E24.67473
G1 X83.276 Y102.001 E24.68972
G1 X82.47 Y101.185 E24.70698
G1 X82.024 Y100.296 E24.72194
G1 X81.88 Y99.359 E24.73621
G1 X81.88 Y82.641 E24.98779
G1 X82.039 Y81.659 E25.00276
G1 X82.499 Y80.776 E25.01774
G1 X83.315 Y79.97 E25.035
G1 X84.204 Y79.524 E25.04997
G1 X85.141 Y79.38 E25.06423
G1 X95.959 Y79.38 E25.22703
G1 X95.959 Y77.641 E25.2532
G1 X96.118 Y76.659 E25.26817
G1 X96.578 Y75.776 E25.28315
G1 X97.394 Y74.97 E25.30041
G1 X98.283 Y74.524 E25.31538
G1 X99.22 Y74.38 E25.32964
G1 X110.78 Y74.38 E25.5036
G1 X111.762 Y74.539 E25.51857
G1 X112.645 Y74.999 E25.53356
G1 X113.451 Y75.815 E25.55082
G1 X113.897 Y76.704 E25.56578
G1 X114.041 Y77.641 E25.58005
G1 X114.041 Y79.38 E25.60622
G1 X124.859 Y79.38 E25.76901
G1 X125.841 Y79.539 E25.78398
G1 X126.724 Y79.999 E25.79896
G1 X127.53 Y80.815 E25.81622
G1 X127.976 Y81.704 E25.83119
G1 X128.12 Y82.641 E25.84546
G1 X128.12 Y99.359 E26.09704
G1 X127.961 Y100.341 E26.11201
G1 X127.501 Y101.224 E26.12699
G1 X126.685 Y102.03 E26.14425
G1 X125.796 Y102.476 E26.15922
G1 X124.859 Y102.62 E26.17348
G1 X114.041 Y102.62 E26.33628
G1 X114.041 Y104.46 E26.36397
G1 X113.861 Y105.507 E26.37995
G1 X113.409 Y106.384 E26.3948
G1 X109.62 Y111.525 E26.49091
G1 X109.62 Y218.449 E28.09995
G1 X109.461 Y219.431 E28.11492
G1 X109.103 Y220.199 E28.12767
G1 X108.67 Y220.741 E28.13811
G1 X107.745 Y221.667 E28.1578
G1 X106.939 Y222.25 E28.17277
G1 X105.99 Y222.549 E28.18775
M204 S627
G0 F6030 X105.553 Y222.102
M204 S470
G1 F2010 X104.074 Y222.071 E28.21001
G1 X103.398 Y221.861 E28.22066
G1 X102.567 Y221.3 E28.23575
G1 X101.67 Y220.403 E28.25484
G1 X101.108 Y219.569 E28.26997
G1 X100.928 Y219.046 E28.27829
G1 X100.86 Y218.449 E28.28734
G1 X100.86 Y111.366 E29.89877
G1 X96.978 Y106.099 E29.99723
G1 X96.571 Y105.285 E30.01093
G1 X96.439 Y104.46 E30.0235
G1 X96.439 Y102.14 E30.05841
G1 X85.141 Y102.14 E30.22843
G1 X84.24 Y101.982 E30.2422
G1 X83.447 Y101.525 E30.25597
G1 X82.838 Y100.874 E30.26938
G1 X82.451 Y100.045 E30.28315
G1 X82.36 Y99.359 E30.29356
G1 X82.36 Y82.641 E30.54514
G1 X82.518 Y81.74 E30.55891
G1 X82.975 Y80.947 E30.57268
G1 X83.626 Y80.338 E30.5861
G1 X84.455 Y79.951 E30.59987
G1 X85.141 Y79.86 E30.61028
G1 X96.439 Y79.86 E30.7803
G1 X96.439 Y77.641 E30.81369
G1 X96.597 Y76.74 E30.82745
G1 X97.054 Y75.947 E30.84123
G1 X97.705 Y75.338 E30.85464
G1 X98.534 Y74.951 E30.86841
G1 X99.22 Y74.86 E30.87882
G1 X110.78 Y74.86 E31.05278
G1 X111.681 Y75.018 E31.06655
G1 X112.474 Y75.475 E31.08032
G1 X113.083 Y76.126 E31.09374
G1 X113.47 Y76.955 E31.10751
G1 X113.561 Y77.641 E31.11792
G1 X113.561 Y79.86 E31.15131
G1 X124.859 Y79.86 E31.32133
G1 X125.76 Y80.018 E31.33509
G1 X126.553 Y80.475 E31.34887
G1 X127.162 Y81.126 E31.36228
G1 X127.549 Y81.955 E31.37605
G1 X127.64 Y82.641 E31.38646
G1 X127.64 Y99.359 E31.63804
G1 X127.482 Y100.26 E31.65181
G1 X127.025 Y101.053 E31.66558
G1 X126.374 Y101.662 E31.679
G1 X125.545 Y102.049 E31.69277
G1 X124.859 Y102.14 E31.70318
G1 X113.561 Y102.14 E31.8732
G1 X113.561 Y104.46 E31.90811
G1 X113.405 Y105.358 E31.92182
G1 X113.022 Y106.099 E31.93438
G1 X109.14 Y111.366 E32.03284
G1 X109.14 Y218.449 E33.64427
G1 X109.1 Y218.906 E33.65118
G1 X108.892 Y219.569 E33.66163
G1 X108.331 Y220.402 E33.67674
G1 X107.406 Y221.328 E33.69644
G1 X106.657 Y221.853 E33.71021
G1 X106.226 Y222.011 E33.71711
G1 X105.553 Y222.102 E33.72733
M204 S627
G0 F6030 X105.551 Y221.622
M204 S470
G1 F2010 X104.115 Y221.59 E33.74895
G1 X103.222 Y221.221 E33.76349
G1 X102.907 Y220.96 E33.76964
G1 X102.01 Y220.063 E33.78873
G1 X101.549 Y219.381 E33.80112
G1 X101.387 Y218.898 E33.80879
G1 X101.34 Y218.449 E33.81558
G1 X101.34 Y111.209 E35.42938
G1 X97.364 Y105.814 E35.53023
G1 X97.027 Y105.135 E35.54164
G1 X96.919 Y104.46 E35.55192
G1 X96.919 Y101.66 E35.59406
G1 X85.141 Y101.66 E35.7713
G1 X84.33 Y101.502 E35.78373
G1 X83.614 Y101.027 E35.79666
G1 X83.209 Y100.566 E35.8059
G1 X82.886 Y99.805 E35.81834
G1 X82.84 Y99.359 E35.82509
G1 X82.84 Y82.641 E36.07667
G1 X82.998 Y81.83 E36.0891
G1 X83.473 Y81.114 E36.10203
G1 X83.934 Y80.709 E36.11126
G1 X84.695 Y80.386 E36.1237
G1 X85.141 Y80.34 E36.13045
G1 X96.919 Y80.34 E36.30769
G1 X96.919 Y77.641 E36.34831
G1 X97.077 Y76.83 E36.36074
G1 X97.552 Y76.114 E36.37367
G1 X98.013 Y75.709 E36.38291
G1 X98.774 Y75.386 E36.39535
G1 X99.22 Y75.34 E36.40209
G1 X110.78 Y75.34 E36.57605
G1 X111.591 Y75.498 E36.58849
G1 X112.307 Y75.973 E36.60142
G1 X112.712 Y76.434 E36.61065
G1 X113.035 Y77.195 E36.62309
G1 X113.081 Y77.641 E36.62984
G1 X113.081 Y80.34 E36.67046
G1 X124.859 Y80.34 E36.8477
G1 X125.67 Y80.498 E36.86013
G1 X126.386 Y80.973 E36.87306
G1 X126.791 Y81.434 E36.88229
G1 X127.114 Y82.195 E36.89474
G1 X127.16 Y82.641 E36.90148
G1 X127.16 Y99.359 E37.15306
G1 X127.002 Y100.17 E37.1655
G1 X126.527 Y100.886 E37.17843
G1 X126.066 Y101.291 E37.18766
G1 X125.305 Y101.614 E37.2001
G1 X124.859 Y101.66 E37.20685
G1 X113.081 Y101.66 E37.38409
G1 X113.081 Y104.46 E37.42622
G1 X112.949 Y105.208 E37.43765
G1 X112.636 Y105.814 E37.44792
G1 X108.66 Y111.209 E37.54877
G1 X108.66 Y218.449 E39.16257
G1 X108.488 Y219.294 E39.17554
G1 X108.252 Y219.746 E39.18322
G1 X107.991 Y220.063 E39.1894
G1 X107.066 Y220.989 E39.20909
G1 X106.381 Y221.451 E39.22153
G1 X105.551 Y221.622 E39.23428
M204 S627
G0 F6030 X105.548 Y221.142
M204 S470
G1 F2010 X104.162 Y221.11 E39.25514
G1 X103.455 Y220.799 E39.26676
G1 X103.246 Y220.621 E39.27089
G1 X102.349 Y219.724 E39.28998
G1 X101.954 Y219.106 E39.30102
G1 X101.82 Y218.449 E39.31111
G1 X101.82 Y111.051 E40.92728
G1 X97.751 Y105.53 E41.03049
G1 X97.483 Y104.985 E41.03963
G1 X97.399 Y104.46 E41.04763
G1 X97.399 Y101.18 E41.09699
G1 X85.141 Y101.18 E41.28146
G1 X84.431 Y101.022 E41.2924
G1 X83.812 Y100.547 E41.30414
G1 X83.421 Y99.933 E41.3151
