;FLAVOR:Marlin
;TIME:1120
;Filament used: 0.398095m, 0m
;Layer height: 0.2
;MINX:94.039
;MINY:77.46
;MINZ:0.2
;MAXX:135.194
;MAXY:219.54
;MAXZ:2
;Generated with StratosEngine 1.6.0
T0
M82 ;absolute extrusion mode
;Machine Model: Sigma R19 
;Materials used: T0 ABS  
;Extruders used: T0 0.4  
M141 S0 	;Set chamber temperature 
M140 S100 	;Heat build surface
M104 T0 S235	;Heat extruder 0
M190 S100 	;Wait until bed temperature reached 
M109 T0 S235	;Heat extruder 0 and wait
G21 		;metric values 
G90 		;absolute positioning 
M204 S600 	;set default acceleration 
M205 X12.5 Y12.5 ;set default jerk 
M107 		;start with the fan off 
G28 X0 Y0 	;move X/Y to min endstops 
G28 Z0 		;move Z to min endstops 
G1 Z5 F200 	;safety Z axis movement

T0
G92 E0 		;set zero the extruded length 
G1 E15 F30
G92 E0 
G4 S2 		;stabilize hotend 
G1 E-0.5 F1000 
G92 E0

G4 P1
G4 P2
G4 P3

G92 E0
;LAYER_COUNT:10
;LAYER:0
M107
M204 S627
M205 X9.38 Y9.38
G1 F600 Z0.6
G0 F6030 X111.54 Y184.602 Z0.6
M204 S470
;TYPE:SKIRT
G1 F600 Z0.2
G1 F1050 E0
G1 F2010 X112.614 Y183.697 E0.02113
G1 X112.614 Y105.698 E1.1949
G1 X111.54 Y107.155 E1.22214
G1 X111.54 Y184.602 E2.38759
M204 S627
G0 F6030 X111.06 Y185.633
M204 S470
G1 F2010 X113.094 Y183.92 E2.42761
G1 X113.094 Y104.238 E3.6267
G1 X111.06 Y106.998 E3.6783
G1 X111.06 Y185.633 E4.86163
M204 S627
G1 F2100 E-1.13837
G0 F6030 X113.574 Y184.144
M204 S470
G1 F1050 E4.86163
G1 F2010 X113.574 Y102.778 E6.08606
G1 X110.58 Y106.84 E6.162
G1 X110.58 Y186.666 E7.36326
G1 X113.574 Y184.144 E7.42217
M204 S627
G0 F6030 X114.054 Y184.368
M204 S470
G1 F2010 X114.054 Y101.247 E8.67301
G1 X113.795 Y101.669 E8.68046
G1 X110.1 Y106.683 E8.77419
G1 X110.1 Y187.698 E9.99334
G1 X114.054 Y184.368 E10.07113
M204 S627
G0 F6030 X114.534 Y184.591
M204 S470
G1 F2010 X114.534 Y94.183 E11.43163
G1 X114.693 Y93.201 E11.4466
G1 X115.153 Y92.318 E11.46158
G1 X115.969 Y91.512 E11.47884
G1 X116.858 Y91.066 E11.49381
G1 X117.795 Y90.922 E11.50807
G1 X120.513 Y90.922 E11.54898
G1 X121.495 Y91.081 E11.56395
G1 X122.378 Y91.541 E11.57893
G1 X123.184 Y92.357 E11.59619
G1 X123.63 Y93.246 E11.61116
G1 X123.774 Y94.183 E11.62542
G1 X123.774 Y184.591 E12.98592
G1 X129.107 Y189.083 E13.09085
G1 X129.265 Y189.225 E13.09405
G1 X130.098 Y190.03 E13.11148
G1 X130.376 Y190.337 E13.11771
G1 X131.089 Y191.237 E13.13499
G1 X131.326 Y191.582 E13.14129
G1 X131.912 Y192.57 E13.15858
G1 X132.102 Y192.946 E13.16491
G1 X132.552 Y194.009 E13.18229
G1 X132.688 Y194.4 E13.18852
G1 X132.991 Y195.505 E13.20576
G1 X133.075 Y195.917 E13.21209
G1 X133.228 Y197.062 E13.22947
G1 X133.255 Y197.436 E13.23511
G1 X133.274 Y198.959 E13.25803
G1 X133.182 Y200.193 E13.27665
G1 X133.05 Y200.861 E13.2869
G1 X132.672 Y202.062 E13.30585
G1 X131.952 Y203.466 E13.32959
G1 X131.547 Y204.022 E13.33994
G1 X130.698 Y204.952 E13.35889
G1 X129.442 Y205.927 E13.38282
G1 X128.838 Y206.26 E13.3932
G1 X127.671 Y206.744 E13.41221
G1 X126.857 Y206.963 E13.4249
G1 X125.56 Y207.135 E13.44458
G1 X125.15 Y207.162 E13.45077
G1 X113.148 Y207.162 E13.63138
G1 X111.992 Y207.07 E13.64883
G1 X111.336 Y206.939 E13.6589
G1 X110.135 Y206.561 E13.67784
G1 X109.62 Y206.336 E13.6863
G1 X109.62 Y214.359 E13.80704
G1 X109.461 Y215.341 E13.82201
G1 X109.001 Y216.224 E13.83699
G1 X108.185 Y217.03 E13.85425
G1 X107.296 Y217.476 E13.86922
G1 X106.359 Y217.62 E13.88348
G1 X103.641 Y217.62 E13.92438
G1 X102.659 Y217.461 E13.93935
G1 X101.776 Y217.001 E13.95434
G1 X100.97 Y216.185 E13.9716
G1 X100.524 Y215.296 E13.98656
G1 X100.38 Y214.359 E14.00083
G1 X100.38 Y106.525 E15.62356
G1 X96.591 Y101.384 E15.71967
G1 X96.115 Y100.434 E15.73566
G1 X95.959 Y99.46 E15.7505
G1 X95.959 Y82.641 E16.0036
G1 X96.118 Y81.659 E16.01857
G1 X96.578 Y80.776 E16.03356
G1 X97.394 Y79.97 E16.05081
G1 X98.283 Y79.524 E16.06578
G1 X99.22 Y79.38 E16.08005
G1 X110.78 Y79.38 E16.25401
G1 X111.762 Y79.539 E16.26898
G1 X112.645 Y79.999 E16.28396
G1 X113.451 Y80.815 E16.30122
G1 X113.897 Y81.704 E16.31619
G1 X114.041 Y82.641 E16.33045
G1 X114.041 Y99.46 E16.58355
G1 X113.861 Y100.507 E16.59954
G1 X113.409 Y101.384 E16.61439
G1 X109.62 Y106.525 E16.71049
G1 X109.62 Y188.73 E17.94755
G1 X114.534 Y184.591 E18.04423
M204 S627
G0 F6030 X115.014 Y184.814
M204 S470
G1 F2010 X115.014 Y94.183 E19.40809
G1 X115.172 Y93.282 E19.42186
G1 X115.629 Y92.489 E19.43563
G1 X116.28 Y91.88 E19.44904
G1 X117.109 Y91.493 E19.46281
G1 X117.795 Y91.402 E19.47323
G1 X120.513 Y91.402 E19.51413
G1 X121.414 Y91.56 E19.52789
G1 X122.207 Y92.017 E19.54167
G1 X122.816 Y92.668 E19.55508
G1 X123.203 Y93.497 E19.56885
G1 X123.294 Y94.183 E19.57926
G1 X123.294 Y184.814 E20.94312
G1 X128.798 Y189.45 E21.05141
G1 X128.932 Y189.571 E21.05413
G1 X129.765 Y190.376 E21.07156
G1 X129.999 Y190.635 E21.07681
G1 X130.712 Y191.535 E21.09409
G1 X130.914 Y191.827 E21.09943
G1 X131.5 Y192.815 E21.11672
G1 X131.66 Y193.133 E21.12208
G1 X132.11 Y194.196 E21.13945
G1 X132.225 Y194.527 E21.14472
G1 X132.528 Y195.632 E21.16196
G1 X132.599 Y195.98 E21.16731
G1 X132.752 Y197.125 E21.18469
G1 X132.775 Y197.442 E21.18948
G1 X132.794 Y198.965 E21.2124
G1 X132.704 Y200.151 E21.23029
G1 X132.592 Y200.717 E21.23898
G1 X132.214 Y201.918 E21.25792
G1 X131.535 Y203.227 E21.28012
G1 X131.193 Y203.698 E21.28887
G1 X130.344 Y204.628 E21.30782
G1 X129.165 Y205.535 E21.33021
G1 X128.654 Y205.817 E21.33899
G1 X127.487 Y206.301 E21.358
G1 X126.794 Y206.487 E21.3688
G1 X125.497 Y206.659 E21.38849
G1 X125.15 Y206.682 E21.39372
G1 X113.148 Y206.682 E21.57433
G1 X111.48 Y206.481 E21.59962
G1 X110.279 Y206.103 E21.61856
G1 X109.14 Y205.521 E21.63781
G1 X109.14 Y214.359 E21.77081
G1 X108.982 Y215.26 E21.78458
G1 X108.525 Y216.053 E21.79835
G1 X107.874 Y216.662 E21.81176
G1 X107.045 Y217.049 E21.82553
G1 X106.359 Y217.14 E21.83595
G1 X103.641 Y217.14 E21.87685
G1 X102.74 Y216.982 E21.89061
G1 X101.947 Y216.525 E21.90439
G1 X101.338 Y215.874 E21.9178
G1 X100.951 Y215.045 E21.93157
G1 X100.86 Y214.359 E21.94198
G1 X100.86 Y106.366 E23.56711
G1 X96.978 Y101.099 E23.66557
G1 X96.571 Y100.285 E23.67927
G1 X96.439 Y99.46 E23.69184
G1 X96.439 Y82.641 E23.94494
G1 X96.597 Y81.74 E23.9587
G1 X97.054 Y80.947 E23.97248
G1 X97.705 Y80.338 E23.98589
G1 X98.534 Y79.951 E23.99966
G1 X99.22 Y79.86 E24.01007
G1 X110.78 Y79.86 E24.18403
G1 X111.681 Y80.018 E24.1978
G1 X112.474 Y80.475 E24.21157
G1 X113.083 Y81.126 E24.22499
G1 X113.47 Y81.955 E24.23876
G1 X113.561 Y82.641 E24.24917
G1 X113.561 Y99.46 E24.50227
G1 X113.405 Y100.358 E24.51598
G1 X113.022 Y101.099 E24.52854
G1 X109.14 Y106.366 E24.627
G1 X109.14 Y189.784 E25.88231
G1 X109.834 Y189.177 E25.89619
G1 X115.014 Y184.814 E25.9981
M204 S627
G0 F6030 X115.494 Y185.037
M204 S470
G1 F2010 X115.494 Y94.183 E27.36531
G1 X115.652 Y93.372 E27.37775
G1 X116.127 Y92.656 E27.39068
G1 X116.588 Y92.251 E27.39991
G1 X117.349 Y91.928 E27.41235
G1 X117.795 Y91.882 E27.4191
G1 X120.513 Y91.882 E27.46
G1 X121.324 Y92.04 E27.47244
G1 X122.04 Y92.515 E27.48537
G1 X122.445 Y92.976 E27.4946
G1 X122.768 Y93.737 E27.50704
G1 X122.814 Y94.183 E27.51379
G1 X122.814 Y185.037 E28.881
G1 X128.489 Y189.817 E28.99266
G1 X128.598 Y189.916 E28.99487
G1 X129.431 Y190.721 E29.0123
G1 X129.623 Y190.933 E29.01661
G1 X130.336 Y191.833 E29.03389
G1 X130.501 Y192.072 E29.03826
G1 X131.087 Y193.06 E29.05554
G1 X131.218 Y193.32 E29.05993
G1 X131.668 Y194.383 E29.0773
G1 X131.762 Y194.654 E29.08161
G1 X132.065 Y195.759 E29.09885
G1 X132.123 Y196.044 E29.10323
G1 X132.276 Y197.189 E29.12062
G1 X132.295 Y197.448 E29.12452
G1 X132.314 Y198.971 E29.14744
G1 X132.226 Y200.11 E29.16464
G1 X132.134 Y200.572 E29.17172
G1 X131.756 Y201.773 E29.19067
G1 X131.119 Y202.989 E29.21133
G1 X130.838 Y203.374 E29.2185
G1 X129.989 Y204.304 E29.23745
G1 X128.888 Y205.143 E29.25828
G1 X128.47 Y205.373 E29.26546
G1 X127.303 Y205.857 E29.28447
G1 X126.731 Y206.011 E29.29339
G1 X125.434 Y206.183 E29.31308
G1 X125.15 Y206.202 E29.31736
G1 X113.148 Y206.202 E29.49797
G1 X111.625 Y206.023 E29.52105
G1 X110.424 Y205.645 E29.53999
G1 X109.204 Y205.005 E29.56073
G1 X108.66 Y204.578 E29.57113
G1 X108.66 Y214.359 E29.71832
G1 X108.502 Y215.17 E29.73076
G1 X108.027 Y215.886 E29.74369
G1 X107.566 Y216.291 E29.75292
G1 X106.805 Y216.614 E29.76536
G1 X106.359 Y216.66 E29.77211
G1 X103.641 Y216.66 E29.81301
G1 X102.83 Y216.502 E29.82544
G1 X102.114 Y216.027 E29.83837
G1 X101.709 Y215.566 E29.84761
G1 X101.386 Y214.805 E29.86005
G1 X101.34 Y214.359 E29.8668
G1 X101.34 Y106.209 E31.49429
G1 X97.364 Y100.814 E31.59514
G1 X97.027 Y100.135 E31.60655
G1 X96.919 Y99.46 E31.61683
G1 X96.919 Y82.641 E31.86993
G1 X97.077 Y81.83 E31.88237
G1 X97.552 Y81.114 E31.8953
G1 X98.013 Y80.709 E31.90453
G1 X98.774 Y80.386 E31.91697
G1 X99.22 Y80.34 E31.92372
G1 X110.78 Y80.34 E32.09768
G1 X111.591 Y80.498 E32.11011
G1 X112.307 Y80.973 E32.12304
G1 X112.712 Y81.434 E32.13228
G1 X113.035 Y82.195 E32.14472
G1 X113.081 Y82.641 E32.15146
G1 X113.081 Y99.46 E32.40456
G1 X112.949 Y100.208 E32.41599
G1 X112.636 Y100.814 E32.42626
G1 X108.66 Y106.209 E32.52711
G1 X108.66 Y190.981 E33.8028
G1 X109.366 Y190.224 E33.81837
G1 X110.143 Y189.544 E33.83391
G1 X115.494 Y185.037 E33.93919
M204 S627
G0 F6030 X115.974 Y185.261
M204 S470
G1 F2010 X115.974 Y94.183 E35.30978
G1 X116.132 Y93.473 E35.32072
G1 X116.607 Y92.854 E35.33246
G1 X117.221 Y92.463 E35.34342
G1 X117.795 Y92.362 E35.35219
G1 X120.513 Y92.362 E35.39309
G1 X121.223 Y92.52 E35.40403
G1 X121.842 Y92.995 E35.41578
G1 X122.233 Y93.609 E35.42673
G1 X122.334 Y94.183 E35.4355
G1 X122.334 Y185.261 E36.80608
G1 X128.179 Y190.184 E36.92108
G1 X128.264 Y190.261 E36.92281
G1 X129.097 Y191.066 E36.94024
G1 X129.247 Y191.231 E36.9436
G1 X129.96 Y192.131 E36.96088
G1 X130.088 Y192.317 E36.96427
G1 X130.674 Y193.305 E36.98156
G1 X130.776 Y193.507 E36.98497
G1 X131.226 Y194.57 E37.00234
G1 X131.299 Y194.781 E37.0057
G1 X131.602 Y195.886 E37.02294
G1 X131.647 Y196.107 E37.02633
G1 X131.8 Y197.252 E37.04372
G1 X131.815 Y197.454 E37.04676
G1 X131.834 Y198.977 E37.06968
G1 X131.677 Y200.428 E37.09165
G1 X131.299 Y201.629 E37.11059
G1 X130.702 Y202.751 E37.12972
G1 X130.484 Y203.051 E37.1353
G1 X129.635 Y203.981 E37.15425
G1 X128.612 Y204.751 E37.17352
G1 X128.287 Y204.93 E37.1791
G1 X127.12 Y205.414 E37.19811
G1 X126.668 Y205.535 E37.20516
G1 X125.371 Y205.707 E37.22484
G1 X125.15 Y205.722 E37.22818
G1 X113.148 Y205.722 E37.40879
G1 X111.769 Y205.566 E37.42967
G1 X110.568 Y205.188 E37.44862
G1 X109.442 Y204.588 E37.46782
G1 X109.144 Y204.37 E37.47338
G1 X108.215 Y203.521 E37.49232
G1 X108.18 Y203.481 E37.49312
G1 X108.18 Y214.359 E37.65681
G1 X108.022 Y215.069 E37.66776
G1 X107.547 Y215.688 E37.6795
G1 X106.933 Y216.079 E37.69045
G1 X106.359 Y216.18 E37.69922
G1 X103.641 Y216.18 E37.74013
G1 X102.931 Y216.022 E37.75107
G1 X102.312 Y215.547 E37.76281
G1 X101.921 Y214.933 E37.77377
G1 X101.82 Y214.359 E37.78254
G1 X101.82 Y106.051 E39.4124
G1 X97.751 Y100.53 E39.51561
G1 X97.483 Y99.985 E39.52475
G1 X97.399 Y99.46 E39.53275
G1 X97.399 Y82.641 E39.78585
G1 X97.557 Y81.931 E39.7968
G1 X98.032 Y81.312 E39.80854
G1 X98.646 Y80.921 E39.81949
G1 X99.22 Y80.82 E39.82827
G1 X110.78 Y80.82 E40.00223
G1 X111.49 Y80.978 E40.01317
G1 X112.109 Y81.453 E40.02491
G1 X112.5 Y82.067 E40.03587
G1 X112.601 Y82.641 E40.04464
G1 X112.601 Y99.46 E40.29774
G1 X112.493 Y100.058 E40.30688
G1 X112.249 Y100.53 E40.31488
G1 X108.18 Y106.051 E40.41809
G1 X108.18 Y192.404 E41.71756
G1 X108.764 Y191.581 E41.73275
G1 X109.545 Y190.72 E41.75024
G1 X110.428 Y189.932 E41.76805
G1 X115.974 Y185.261 E41.87717
M204 S627
G0 F6030 X116.454 Y185.484
M204 S470
G1 F2010 X116.454 Y94.183 E43.25111
G1 X116.611 Y93.59 E43.26034
G1 X116.946 Y93.193 E43.26816
G1 X117.476 Y92.885 E43.27738
G1 X117.795 Y92.842 E43.28222
G1 X120.513 Y92.842 E43.32313
G1 X121.106 Y92.999 E43.33236
G1 X121.503 Y93.334 E43.34017
G1 X121.811 Y93.864 E43.3494
G1 X121.854 Y94.183 E43.35424
G1 X121.854 Y185.484 E44.72818
G1 X127.87 Y190.551 E44.84654
G1 X127.931 Y190.606 E44.84778
G1 X128.764 Y191.411 E44.86521
G1 X128.871 Y191.529 E44.86761
G1 X129.584 Y192.429 E44.88489
G1 X129.675 Y192.562 E44.88731
G1 X130.261 Y193.55 E44.9046
G1 X130.334 Y193.694 E44.90703
G1 X130.784 Y194.757 E44.9244
G1 X130.836 Y194.908 E44.9268
G1 X131.139 Y196.013 E44.94405
G1 X131.171 Y196.171 E44.94647
G1 X131.324 Y197.316 E44.96386
G1 X131.335 Y197.46 E44.96603
G1 X131.354 Y198.983 E44.98895
G1 X131.219 Y200.284 E45.00863
G1 X130.841 Y201.485 E45.02758
G1 X130.285 Y202.513 E45.04517
G1 X130.129 Y202.727 E45.04915
G1 X129.28 Y203.657 E45.0681
G1 X128.335 Y204.358 E45.08581
G1 X128.103 Y204.486 E45.0898
G1 X126.936 Y204.97 E45.10881
G1 X126.605 Y205.06 E45.11397
G1 X125.308 Y205.232 E45.13366
G1 X125.15 Y205.242 E45.13604
G1 X113.148 Y205.242 E45.31665
G1 X111.913 Y205.108 E45.33535
G1 X110.712 Y204.73 E45.35429
G1 X109.681 Y204.171 E45.37194
G1 X109.467 Y204.016 E45.37592
G1 X108.538 Y203.167 E45.39486
G1 X107.838 Y202.224 E45.41253
G1 X107.7 Y201.972 E45.41685
G1 X107.7 Y214.359 E45.60326
G1 X107.543 Y214.952 E45.61249
G1 X107.208 Y215.349 E45.62031
G1 X106.678 Y215.657 E45.62953
G1 X106.359 Y215.7 E45.63438
G1 X103.641 Y215.7 E45.67528
G1 X103.048 Y215.543 E45.68451
G1 X102.651 Y215.208 E45.69233
G1 X102.343 Y214.678 E45.70155
G1 X102.3 Y214.359 E45.70639
G1 X102.3 Y105.894 E47.33862
G1 X98.137 Y100.245 E47.44422
G1 X97.939 Y99.835 E47.45107
G1 X97.879 Y99.46 E47.45679
G1 X97.879 Y82.641 E47.70989
G1 X98.036 Y82.048 E47.71912
G1 X98.371 Y81.651 E47.72694
G1 X98.901 Y81.343 E47.73616
G1 X99.22 Y81.3 E47.74101
G1 X110.78 Y81.3 E47.91497
G1 X111.373 Y81.457 E47.9242
G1 X111.77 Y81.792 E47.93201
G1 X112.078 Y82.322 E47.94124
G1 X112.121 Y82.641 E47.94608
G1 X112.121 Y99.46 E48.19918
G1 X112.037 Y99.908 E48.20604
G1 X111.863 Y100.245 E48.21175
G1 X107.7 Y105.894 E48.31735
G1 X107.7 Y194.3 E49.64772
G1 X107.76 Y194.158 E49.65004
G1 X108.282 Y193.122 E49.6675
G1 X108.365 Y192.983 E49.66993
G1 X109.019 Y192.031 E49.68731
G1 X109.119 Y191.904 E49.68975
G1 X109.9 Y191.043 E49.70724
G1 X110.762 Y190.278 E49.72458
G1 X116.454 Y185.484 E49.83657
M204 S627
G0 F6030 X116.934 Y185.707
M204 S470
G1 F2010 X116.934 Y94.183 E51.21387
G1 X116.974 Y93.947 E51.21747
G1 X117.286 Y93.533 E51.22527
G1 X117.481 Y93.394 E51.22887
G1 X117.795 Y93.322 E51.23372
G1 X120.513 Y93.322 E51.27462
G1 X120.749 Y93.362 E51.27822
G1 X121.163 Y93.674 E51.28603
G1 X121.302 Y93.869 E51.28963
G1 X121.374 Y94.183 E51.29448
G1 X121.374 Y185.707 E52.67177
G1 X127.561 Y190.918 E52.7935
G1 X128.43 Y191.756 E52.81167
G1 X128.494 Y191.827 E52.8131
G1 X129.207 Y192.727 E52.83038
G1 X129.262 Y192.807 E52.83184
G1 X129.848 Y193.795 E52.84913
G1 X129.892 Y193.881 E52.85058
G1 X130.342 Y194.944 E52.86795
G1 X130.373 Y195.035 E52.8694
G1 X130.676 Y196.14 E52.88664
G1 X130.696 Y196.235 E52.8881
G1 X130.849 Y197.38 E52.90549
G1 X130.855 Y197.466 E52.90679
G1 X130.874 Y198.989 E52.92971
G1 X130.761 Y200.14 E52.94711
G1 X130.383 Y201.341 E52.96606
G1 X129.775 Y202.403 E52.98447
G1 X128.926 Y203.333 E53.00342
G1 X127.919 Y204.043 E53.02196
G1 X126.752 Y204.527 E53.04098
G1 X126.542 Y204.584 E53.04425
G1 X125.245 Y204.756 E53.06394
G1 X125.15 Y204.762 E53.06537
G1 X113.148 Y204.762 E53.24598
G1 X112.057 Y204.65 E53.26249
G1 X110.856 Y204.272 E53.28143
G1 X109.791 Y203.661 E53.29991
G1 X108.862 Y202.812 E53.31885
G1 X108.165 Y201.835 E53.33691
G1 X107.756 Y200.927 E53.3519
G1 X107.511 Y199.93 E53.36735
G1 X107.436 Y198.12 E53.39461
G1 X107.436 Y198.045 E53.39574
G1 X107.51 Y196.865 E53.41353
G1 X107.749 Y195.65 E53.43216
G1 X107.774 Y195.559 E53.43358
G1 X108.151 Y194.464 E53.45101
G1 X108.189 Y194.374 E53.45248
G1 X108.711 Y193.338 E53.46994
G1 X108.761 Y193.254 E53.47141
G1 X109.415 Y192.302 E53.48879
G1 X109.475 Y192.226 E53.49025
G1 X110.256 Y191.365 E53.50774
G1 X111.071 Y190.645 E53.5241
G1 X116.934 Y185.707 E53.63946
M204 S627
G0 F6030 X117.414 Y185.93
M204 S470
G1 F2010 X117.414 Y94.183 E55.02011
G1 X117.625 Y93.872 E55.02576
G1 X117.795 Y93.802 E55.02853
G1 X120.513 Y93.802 E55.06943
G1 X120.824 Y94.013 E55.07509
G1 X120.894 Y94.183 E55.07785
G1 X120.894 Y185.93 E56.4585
