;FLAVOR:Marlin
;TIME:1182
;Filament used: 0.379623m, 0m
;Layer height: 0.2
;MINX:86.86
;MINY:126.46
;MINZ:0.2
;MAXX:123.14
;MAXY:170.54
;MAXZ:15.4
;Generated with StratosEngine 1.6.0
T0
M82 ;absolute extrusion mode
;Machine Model: Sigma R19 
;Materials used: T0 ABS  
;Extruders used: T0 0.4  
M141 S0 	;Set chamber temperature 
M140 S100 	;Heat build surface
M104 T0 S235	;Heat extruder 0
M190 S100 	;Wait until bed temperature reached 
M109 T0 S235	;Heat extruder 0 and wait
G21 		;metric values 
G90 		;absolute positioning 
M204 S600 	;set default acceleration 
M205 X12.5 Y12.5 ;set default jerk 
M107 		;start with the fan off 
G28 X0 Y0 	;move X/Y to min endstops 
G28 Z0 		;move Z to min endstops 
G1 Z5 F200 	;safety Z axis movement

T0
G92 E0 		;set zero the extruded length 
G1 E15 F30
G92 E0 
G4 S2 		;stabilize hotend 
G1 E-0.5 F1000 
G92 E0

G4 P1
G4 P2
G4 P3

G92 E0
;LAYER_COUNT:77
;LAYER:0
M107
M204 S627
M205 X9.38 Y9.38
G1 F600 Z0.6
G0 F6030 X92.902 Y170.54 Z0.6
M204 S470
;TYPE:SKIRT
G1 F600 Z0.2
G1 F1050 E0
G1 F2010 X91.516 Y170.362 E0.02103
G1 X90.315 Y169.958 E0.0401
G1 X89.296 Y169.304 E0.05832
G1 X88.394 Y168.506 E0.07644
G1 X87.65 Y167.48 E0.09551
G1 X87.246 Y166.52 E0.11119
G1 X86.931 Y165.346 E0.12948
G1 X86.86 Y164.5 E0.14225
G1 X86.861 Y132.494 E0.62389
G1 X87.039 Y131.108 E0.64492
G1 X87.445 Y129.908 E0.66399
G1 X88.096 Y128.896 E0.68209
G1 X88.894 Y127.994 E0.70022
G1 X89.92 Y127.25 E0.71929
G1 X90.88 Y126.846 E0.73496
G1 X92.054 Y126.531 E0.75326
G1 X92.9 Y126.46 E0.76603
G1 X117.106 Y126.461 E1.13029
G1 X118.492 Y126.639 E1.15132
G1 X119.692 Y127.045 E1.17039
G1 X120.704 Y127.696 E1.18849
G1 X121.606 Y128.494 E1.20662
G1 X122.35 Y129.52 E1.22569
G1 X122.754 Y130.48 E1.24136
G1 X123.069 Y131.654 E1.25965
G1 X123.14 Y132.5 E1.27243
G1 X123.139 Y164.506 E1.75407
G1 X122.961 Y165.892 E1.7751
G1 X122.555 Y167.092 E1.79416
G1 X121.904 Y168.104 E1.81227
G1 X121.106 Y169.006 E1.83039
G1 X120.08 Y169.75 E1.84947
G1 X119.12 Y170.154 E1.86514
G1 X117.946 Y170.469 E1.88343
G1 X117.1 Y170.54 E1.89621
G1 X92.902 Y170.54 E2.26035
M204 S627
G0 F6030 X92.902 Y170.06
M204 S470
G1 F2010 X91.61 Y169.892 E2.27996
G1 X90.471 Y169.5 E2.29808
G1 X89.602 Y168.935 E2.31368
G1 X88.724 Y168.156 E2.33134
G1 X88.029 Y167.172 E2.34947
G1 X87.536 Y165.824 E2.37107
G1 X87.34 Y164.5 E2.39121
G1 X87.341 Y132.494 E2.87285
G1 X87.51 Y131.204 E2.89243
G1 X87.903 Y130.065 E2.91056
G1 X88.465 Y129.202 E2.92606
G1 X89.244 Y128.324 E2.94372
G1 X90.228 Y127.629 E2.96185
G1 X91.576 Y127.136 E2.98345
G1 X92.9 Y126.94 E3.00359
G1 X117.106 Y126.941 E3.36786
G1 X118.396 Y127.11 E3.38744
G1 X119.535 Y127.503 E3.40557
G1 X120.398 Y128.065 E3.42106
G1 X121.276 Y128.844 E3.43873
G1 X121.971 Y129.828 E3.45686
G1 X122.464 Y131.176 E3.47846
G1 X122.66 Y132.5 E3.4986
G1 X122.659 Y164.506 E3.98024
G1 X122.49 Y165.796 E3.99982
G1 X122.097 Y166.935 E4.01795
G1 X121.535 Y167.798 E4.03345
G1 X120.756 Y168.676 E4.05111
G1 X119.772 Y169.371 E4.06924
G1 X118.424 Y169.864 E4.09084
G1 X117.1 Y170.06 E4.11098
G1 X92.902 Y170.06 E4.47512
M204 S627
G0 F6030 X92.902 Y169.58
M204 S470
G1 F2010 X91.705 Y169.421 E4.49329
G1 X90.63 Y169.043 E4.51044
G1 X89.468 Y168.201 E4.53203
G1 X88.701 Y167.359 E4.54917
G1 X88.165 Y166.242 E4.56782
G1 X87.869 Y165.128 E4.58516
G1 X87.82 Y164.5 E4.59464
G1 X87.821 Y132.494 E5.07628
G1 X87.98 Y131.299 E5.09443
G1 X88.36 Y130.225 E5.11157
G1 X89.199 Y129.068 E5.13308
G1 X90.041 Y128.301 E5.15022
G1 X91.158 Y127.765 E5.16886
G1 X92.272 Y127.469 E5.18621
G1 X92.9 Y127.42 E5.19568
G1 X117.106 Y127.421 E5.55995
G1 X118.301 Y127.58 E5.57809
G1 X119.375 Y127.96 E5.59523
G1 X120.532 Y128.799 E5.61674
G1 X121.299 Y129.641 E5.63388
G1 X121.835 Y130.758 E5.65252
G1 X122.131 Y131.872 E5.66987
G1 X122.18 Y132.5 E5.67935
G1 X122.179 Y164.506 E6.16099
G1 X122.02 Y165.701 E6.17913
G1 X121.64 Y166.775 E6.19627
G1 X120.801 Y167.932 E6.21778
G1 X119.959 Y168.699 E6.23492
G1 X118.842 Y169.235 E6.25357
G1 X117.728 Y169.531 E6.27091
G1 X117.1 Y169.58 E6.28039
G1 X92.902 Y169.58 E6.64453
M204 S627
G0 F6030 X92.902 Y169.1
M204 S470
G1 F2010 X91.8 Y168.95 E6.66127
G1 X90.794 Y168.586 E6.67737
G1 X89.774 Y167.831 E6.69646
G1 X89.061 Y167.034 E6.71256
G1 X88.624 Y166.102 E6.72805
G1 X88.338 Y165.022 E6.74486
G1 X88.3 Y164.5 E6.75274
G1 X88.301 Y132.494 E7.23438
G1 X88.451 Y131.394 E7.25108
G1 X88.816 Y130.389 E7.26717
G1 X89.569 Y129.374 E7.28619
G1 X90.366 Y128.661 E7.30228
G1 X91.298 Y128.224 E7.31777
G1 X92.378 Y127.938 E7.33459
G1 X92.9 Y127.9 E7.34246
G1 X117.106 Y127.901 E7.70673
G1 X118.206 Y128.051 E7.72343
G1 X119.211 Y128.416 E7.73952
G1 X120.226 Y129.169 E7.75854
G1 X120.939 Y129.966 E7.77463
G1 X121.376 Y130.898 E7.79012
G1 X121.662 Y131.978 E7.80694
G1 X121.7 Y132.5 E7.81481
G1 X121.699 Y164.506 E8.29645
G1 X121.549 Y165.606 E8.31316
G1 X121.184 Y166.611 E8.32925
G1 X120.431 Y167.626 E8.34827
G1 X119.634 Y168.339 E8.36436
G1 X118.702 Y168.776 E8.37985
G1 X117.622 Y169.062 E8.39666
G1 X117.1 Y169.1 E8.40454
G1 X92.902 Y169.1 E8.76868
M204 S627
G0 F6030 X92.902 Y168.62
M204 S470
G1 F2010 X91.894 Y168.48 E8.784
G1 X90.962 Y168.131 E8.79897
G1 X90.08 Y167.461 E8.81564
G1 X89.424 Y166.712 E8.83062
G1 X89.083 Y165.963 E8.84301
G1 X88.808 Y164.918 E8.85927
G1 X88.78 Y164.5 E8.86557
G1 X88.781 Y132.494 E9.34721
G1 X88.921 Y131.489 E9.36248
G1 X89.272 Y130.558 E9.37746
G1 X89.939 Y129.68 E9.39405
G1 X90.688 Y129.024 E9.40903
G1 X91.437 Y128.683 E9.42142
G1 X92.482 Y128.408 E9.43768
G1 X92.9 Y128.38 E9.44398
G1 X117.106 Y128.381 E9.80825
G1 X118.111 Y128.521 E9.82351
G1 X119.042 Y128.872 E9.83849
G1 X119.92 Y129.539 E9.85508
G1 X120.576 Y130.288 E9.87006
G1 X120.917 Y131.037 E9.88245
G1 X121.192 Y132.082 E9.89871
G1 X121.22 Y132.5 E9.90501
G1 X121.219 Y164.506 E10.38665
G1 X121.079 Y165.511 E10.40192
G1 X120.728 Y166.442 E10.4169
G1 X120.061 Y167.32 E10.43349
G1 X119.312 Y167.976 E10.44847
G1 X118.563 Y168.317 E10.46086
G1 X117.518 Y168.592 E10.47712
G1 X117.1 Y168.62 E10.48342
G1 X92.902 Y168.62 E10.84756
M204 S627
G0 F6030 X92.902 Y168.14
M204 S470
G1 F2010 X91.989 Y168.009 E10.86144
G1 X91.137 Y167.676 E10.87521
G1 X90.059 Y166.769 E10.89641
G1 X89.793 Y166.395 E10.90332
G1 X89.374 Y165.267 E10.92142
G1 X89.26 Y164.5 E10.93309
G1 X89.261 Y132.494 E11.41473
G1 X89.392 Y131.585 E11.42855
G1 X89.726 Y130.733 E11.44233
G1 X90.631 Y129.659 E11.46346
G1 X91.005 Y129.393 E11.47037
G1 X92.133 Y128.974 E11.48847
G1 X92.9 Y128.86 E11.50014
G1 X117.106 Y128.861 E11.86441
G1 X118.015 Y128.992 E11.87823
G1 X118.867 Y129.326 E11.892
G1 X119.941 Y130.231 E11.91313
G1 X120.207 Y130.605 E11.92004
G1 X120.626 Y131.733 E11.93815
G1 X120.74 Y132.5 E11.94982
G1 X120.739 Y164.506 E12.43146
G1 X120.608 Y165.415 E12.44528
G1 X120.274 Y166.267 E12.45905
G1 X119.369 Y167.341 E12.48018
G1 X118.995 Y167.607 E12.48709
G1 X117.867 Y168.026 E12.5052
G1 X117.1 Y168.14 E12.51687
G1 X92.902 Y168.14 E12.88101
M204 S627
G0 F6030 X92.902 Y167.66
M204 S470
G1 F2010 X92.083 Y167.539 E12.89347
G1 X91.319 Y167.224 E12.9059
G1 X90.399 Y166.427 E12.92422
G1 X90.002 Y165.684 E12.9369
G1 X89.751 Y164.72 E12.95189
G1 X89.74 Y164.5 E12.9552
G1 X89.741 Y132.494 E13.43684
G1 X89.862 Y131.68 E13.44923
G1 X90.178 Y130.916 E13.46167
G1 X90.973 Y129.999 E13.47993
G1 X91.716 Y129.602 E13.49261
G1 X92.68 Y129.351 E13.5076
G1 X92.9 Y129.34 E13.51091
G1 X117.106 Y129.341 E13.87518
G1 X117.92 Y129.462 E13.88756
G1 X118.684 Y129.778 E13.9
G1 X119.601 Y130.573 E13.91827
G1 X119.998 Y131.316 E13.93094
G1 X120.249 Y132.28 E13.94593
G1 X120.26 Y132.5 E13.94925
G1 X120.259 Y164.506 E14.43089
G1 X120.138 Y165.32 E14.44327
G1 X119.822 Y166.084 E14.45571
G1 X119.027 Y167.001 E14.47398
G1 X118.284 Y167.398 E14.48665
G1 X117.32 Y167.649 E14.50164
G1 X117.1 Y167.66 E14.50496
G1 X92.902 Y167.66 E14.8691
M204 S627
G0 F6030 X92.902 Y167.18
M204 S470
G1 F2010 X91.829 Y166.957 E14.88559
G1 X90.998 Y166.351 E14.90107
G1 X90.551 Y165.777 E14.91202
G1 X90.292 Y164.988 E14.92452
G1 X90.22 Y164.5 E14.93194
G1 X90.221 Y132.494 E15.41358
G1 X90.332 Y131.775 E15.42453
G1 X90.685 Y131.038 E15.43682
G1 X91.311 Y130.343 E15.4509
G1 X91.855 Y130.061 E15.46012
G1 X92.9 Y129.82 E15.47626
G1 X117.106 Y129.821 E15.84052
G1 X117.825 Y129.932 E15.85147
G1 X118.562 Y130.285 E15.86377
G1 X119.257 Y130.911 E15.87784
G1 X119.539 Y131.455 E15.88706
G1 X119.78 Y132.5 E15.9032
G1 X119.779 Y164.506 E16.38484
G1 X119.668 Y165.225 E16.39579
G1 X119.315 Y165.962 E16.40809
G1 X118.689 Y166.657 E16.42216
G1 X118.145 Y166.939 E16.43139
G1 X117.1 Y167.18 E16.44752
G1 X92.902 Y167.18 E16.81167
M204 S627
G0 F6030 X92.902 Y166.7
M204 S470
G1 F2010 X91.98 Y166.498 E16.82587
G1 X91.304 Y165.982 E16.83867
G1 X91.093 Y165.755 E16.84333
G1 X90.752 Y164.848 E16.85791
G1 X90.7 Y164.5 E16.86321
G1 X90.701 Y132.494 E17.34485
G1 X90.903 Y131.578 E17.35896
G1 X91.418 Y130.904 E17.37173
G1 X91.645 Y130.693 E17.37639
G1 X92.552 Y130.352 E17.39097
G1 X92.9 Y130.3 E17.39627
G1 X117.106 Y130.301 E17.76053
G1 X118.022 Y130.503 E17.77465
G1 X118.696 Y131.018 E17.78741
G1 X118.907 Y131.245 E17.79208
G1 X119.248 Y132.152 E17.80666
G1 X119.3 Y132.5 E17.81195
G1 X119.299 Y164.506 E18.29359
G1 X119.097 Y165.422 E18.30771
G1 X118.582 Y166.096 E18.32047
G1 X118.355 Y166.307 E18.32514
G1 X117.448 Y166.648 E18.33972
G1 X117.1 Y166.7 E18.34501
G1 X92.902 Y166.7 E18.70916
M204 S627
G0 F6030 X92.902 Y166.22
M204 S470
G1 F2010 X92.367 Y166.127 E18.71733
G1 X92.05 Y165.976 E18.72261
G1 X91.454 Y165.431 E18.73476
G1 X91.18 Y164.5 E18.74937
G1 X91.181 Y132.494 E19.23101
G1 X91.273 Y131.966 E19.23907
G1 X91.424 Y131.65 E19.24435
G1 X91.969 Y131.054 E19.2565
G1 X92.9 Y130.78 E19.2711
G1 X117.106 Y130.781 E19.63537
G1 X117.634 Y130.873 E19.64343
G1 X117.95 Y131.024 E19.6487
G1 X118.546 Y131.569 E19.66085
G1 X118.82 Y132.5 E19.67546
G1 X118.819 Y164.506 E20.1571
G1 X118.727 Y165.034 E20.16516
G1 X118.576 Y165.35 E20.17043
G1 X118.031 Y165.946 E20.18259
G1 X117.1 Y166.22 E20.19719
G1 X92.902 Y166.22 E20.56133
M204 S627
G0 F6030 X92.902 Y165.74
M204 S470
G1 F2010 X92.356 Y165.606 E20.5698
G1 X91.839 Y165.127 E20.5804
G1 X91.66 Y164.5 E20.59021
G1 X91.661 Y132.494 E21.07185
G1 X91.794 Y131.956 E21.08019
G1 X92.273 Y131.439 E21.0908
G1 X92.9 Y131.26 E21.10061
G1 X117.106 Y131.261 E21.46487
G1 X117.644 Y131.394 E21.47321
G1 X118.161 Y131.873 E21.48382
G1 X118.34 Y132.5 E21.49363
G1 X118.339 Y164.506 E21.97527
G1 X118.206 Y165.044 E21.98361
G1 X117.727 Y165.561 E21.99422
G1 X117.1 Y165.74 E22.00403
G1 X92.902 Y165.74 E22.36817
M204 S627
G1 F2100 E16.36817
;MESH:SensorMountBackPlate.stl
G0 F6030 X94.153 Y163.434
G0 X95.133 Y163.638
G0 X96.663 Y162.851
G0 X113.115 Y134.493
G0 X114.059 Y133.597
G0 X117.014 Y132.288
G0 X117.084 Y131.741
M204 S470
;TYPE:WALL-OUTER
G1 F1050 E22.36817
G1 F2010 X117.383 Y131.802 E22.37277
G1 X117.732 Y132.091 E22.37958
G1 X117.86 Y132.513 E22.38622
G1 X117.859 Y164.484 E22.86733
G1 X117.798 Y164.783 E22.87193
G1 X117.509 Y165.132 E22.87875
G1 X117.087 Y165.26 E22.88538
G1 X92.923 Y165.26 E23.24901
G1 X92.617 Y165.198 E23.25371
G1 X92.268 Y164.909 E23.26053
G1 X92.14 Y164.487 E23.26717
G1 X92.141 Y132.516 E23.74828
G1 X92.202 Y132.217 E23.75287
G1 X92.491 Y131.868 E23.75969
G1 X92.913 Y131.74 E23.76633
G1 X117.084 Y131.741 E24.13006
M204 S627
G0 F6030 X117.28 Y131.781
G0 X117.175 Y132.297
G0 X117.142 Y132.358
G0 X117.137 Y135.513
G0 X112.881 Y161.176
G0 X112.959 Y162.156
G0 X114.248 Y163.55
G0 X114.339 Y163.009
M204 S470
G1 F2010 X115.115 Y163.14 E24.14191
G1 X115.669 Y163.003 E24.15049
G1 X116.284 Y162.527 E24.1622
G1 X116.554 Y162.035 E24.17064
G1 X116.641 Y161.511 E24.17864
G1 X116.555 Y160.967 E24.18692
G1 X116.292 Y160.482 E24.19523
G1 X115.679 Y160.003 E24.20693
G1 X115.127 Y159.86 E24.21551
G1 X114.359 Y159.985 E24.22722
G1 X113.887 Y160.291 E24.23569
G1 X113.552 Y160.727 E24.24396
G1 X113.376 Y161.239 E24.25211
G1 X113.438 Y162.015 E24.26382
G1 X113.714 Y162.526 E24.27256
G1 X114.339 Y163.009 E24.28445
M204 S627
G0 F6030 X114.536 Y163.042
G0 X114.153 Y163.434
M204 S470
;TYPE:WALL-INNER
G1 F2010 X115.132 Y163.599 E24.29752
G1 X115.869 Y163.417 E24.30752
G1 X116.633 Y162.826 E24.32024
G1 X116.985 Y162.184 E24.32988
G1 X116.992 Y162.144 E24.33041
G1 X117.097 Y161.513 E24.33884
G1 X116.992 Y160.85 E24.34767
G1 X116.987 Y160.82 E24.34808
G1 X116.643 Y160.185 E24.35758
G1 X115.882 Y159.591 E24.3703
G1 X115.148 Y159.401 E24.38028
G1 X114.193 Y159.556 E24.39302
G1 X113.577 Y159.955 E24.40268
G1 X113.15 Y160.511 E24.41191
G1 X112.92 Y161.181 E24.42124
G1 X112.997 Y162.145 E24.43398
G1 X113.363 Y162.824 E24.44413
G1 X114.153 Y163.434 E24.45727
M204 S627
G0 F6030 X114.113 Y163.525
G0 X95.133 Y163.638
G0 X94.248 Y163.55
G0 X94.339 Y163.009
M204 S470
;TYPE:WALL-OUTER
G1 F2010 X95.115 Y163.14 E24.46912
G1 X95.669 Y163.003 E24.47771
G1 X96.284 Y162.527 E24.48941
G1 X96.554 Y162.035 E24.49785
G1 X96.641 Y161.511 E24.50585
G1 X96.555 Y160.967 E24.51413
G1 X96.292 Y160.482 E24.52244
G1 X95.679 Y160.003 E24.53414
G1 X95.127 Y159.86 E24.54273
G1 X94.359 Y159.985 E24.55443
G1 X93.887 Y160.291 E24.5629
G1 X93.552 Y160.727 E24.57117
G1 X93.376 Y161.239 E24.57932
G1 X93.438 Y162.015 E24.59104
G1 X93.714 Y162.526 E24.59978
G1 X94.339 Y163.009 E24.61166
M204 S627
G0 F6030 X94.536 Y163.042
G0 X94.153 Y163.434
M204 S470
;TYPE:WALL-INNER
G1 F2010 X95.132 Y163.599 E24.62473
G1 X95.869 Y163.417 E24.63473
G1 X96.633 Y162.826 E24.64745
G1 X96.985 Y162.184 E24.65709
G1 X97.097 Y161.513 E24.66605
G1 X96.987 Y160.82 E24.67529
G1 X96.643 Y160.185 E24.6848
G1 X95.882 Y159.591 E24.69751
G1 X95.148 Y159.401 E24.70749
G1 X94.193 Y159.556 E24.72023
G1 X93.577 Y159.955 E24.72989
G1 X93.15 Y160.511 E24.73913
G1 X93.006 Y160.93 E24.74496
G1 X92.92 Y161.181 E24.74845
G1 X92.997 Y162.145 E24.76119
G1 X93.007 Y162.165 E24.76148
G1 X93.363 Y162.824 E24.77134
G1 X94.153 Y163.434 E24.78449
M204 S627
G0 F6030 X94.113 Y163.525
G0 X93.333 Y162.849
G0 X92.896 Y161.363
G0 X94.248 Y137.55
G0 X94.339 Y137.009
M204 S470
;TYPE:WALL-OUTER
G1 F2010 X95.115 Y137.14 E24.79633
G1 X95.669 Y137.003 E24.80492
G1 X96.284 Y136.527 E24.81662
G1 X96.554 Y136.035 E24.82507
G1 X96.641 Y135.511 E24.83306
G1 X96.555 Y134.967 E24.84135
G1 X96.292 Y134.482 E24.84965
G1 X95.679 Y134.003 E24.86136
G1 X95.127 Y133.86 E24.86994
G1 X94.359 Y133.985 E24.88165
G1 X93.887 Y134.291 E24.89011
G1 X93.552 Y134.727 E24.89839
G1 X93.376 Y135.239 E24.90653
G1 X93.438 Y136.015 E24.91825
G1 X93.714 Y136.526 E24.92699
G1 X94.339 Y137.009 E24.93887
M204 S627
G0 F6030 X94.536 Y137.042
G0 X94.153 Y137.434
M204 S470
;TYPE:WALL-INNER
G1 F2010 X95.132 Y137.599 E24.95195
G1 X95.869 Y137.417 E24.96194
G1 X96.633 Y136.826 E24.97466
G1 X96.985 Y136.184 E24.9843
G1 X97.097 Y135.513 E24.99326
G1 X96.987 Y134.82 E25.0025
G1 X96.643 Y134.185 E25.01201
G1 X95.882 Y133.591 E25.02472
G1 X95.148 Y133.401 E25.0347
G1 X94.193 Y133.556 E25.04744
G1 X93.577 Y133.955 E25.05711
G1 X93.15 Y134.511 E25.06634
G1 X93.006 Y134.929 E25.07216
G1 X92.92 Y135.181 E25.07566
G1 X92.997 Y136.145 E25.0884
G1 X93.007 Y136.165 E25.08869
G1 X93.363 Y136.824 E25.09856
G1 X94.153 Y137.434 E25.1117
M204 S627
G0 F6030 X94.113 Y137.525
G0 X94.939 Y137.615
G0 X114.248 Y137.55
G0 X114.339 Y137.009
M204 S470
;TYPE:WALL-OUTER
G1 F2010 X115.115 Y137.14 E25.12354
G1 X115.669 Y137.003 E25.13213
G1 X116.284 Y136.527 E25.14383
G1 X116.554 Y136.035 E25.15228
G1 X116.641 Y135.511 E25.16027
G1 X116.555 Y134.967 E25.16856
G1 X116.292 Y134.482 E25.17686
G1 X115.679 Y134.003 E25.18857
G1 X115.127 Y133.86 E25.19715
G1 X114.359 Y133.985 E25.20886
G1 X113.887 Y134.291 E25.21732
G1 X113.552 Y134.727 E25.2256
G1 X113.376 Y135.239 E25.23374
G1 X113.438 Y136.015 E25.24546
G1 X113.714 Y136.526 E25.2542
G1 X114.339 Y137.009 E25.26609
M204 S627
G0 F6030 X114.536 Y137.042
G0 X114.153 Y137.434
M204 S470
;TYPE:WALL-INNER
G1 F2010 X115.132 Y137.599 E25.27916
G1 X115.869 Y137.417 E25.28915
G1 X116.633 Y136.826 E25.30187
G1 X116.985 Y136.184 E25.31151
G1 X116.992 Y136.143 E25.31206
G1 X117.097 Y135.513 E25.32047
G1 X116.992 Y134.85 E25.32931
G1 X116.987 Y134.82 E25.32971
G1 X116.643 Y134.185 E25.33922
