;FLAVOR:Marlin
;TIME:1382
;Filament used: 0.347124m, 0m
;Layer height: 0.2
;MINX:97.567
;MINY:89.46
;MINZ:0.2
;MAXX:112.433
;MAXY:207.54
;MAXZ:22.4
;Generated with StratosEngine 1.6.0
T0
M82 ;absolute extrusion mode
;Machine Model: Sigma R19 
;Materials used: T0 ABS  
;Extruders used: T0 0.4  
M141 S0 	;Set chamber temperature 
M140 S100 	;Heat build surface
M104 T0 S235	;Heat extruder 0
M190 S100 	;Wait until bed temperature reached 
M109 T0 S235	;Heat extruder 0 and wait
G21 		;metric values 
G90 		;absolute positioning 
M204 S600 	;set default acceleration 
M205 X12.5 Y12.5 ;set default jerk 
M107 		;start with the fan off 
G28 X0 Y0 	;move X/Y to min endstops 
G28 Z0 		;move Z to min endstops 
G1 Z5 F200 	;safety Z axis movement

T0
G92 E0 		;set zero the extruded length 
G1 E15 F30
G92 E0 
G4 S2 		;stabilize hotend 
G1 E-0.5 F1000 
G92 E0

G4 P1
G4 P2
G4 P3

G92 E0
;LAYER_COUNT:112
;LAYER:0
M107
M204 S627
M205 X9.38 Y9.38
G1 F600 Z0.6
G0 F6030 X107.3 Y207.54 Z0.6
M204 S470
;TYPE:SKIRT
G1 F600 Z0.2
G1 F1050 E0
G1 F2010 X102.7 Y207.54 E0.06922
G1 X101.443 Y207.381 E0.08829
G1 X100.266 Y206.913 E0.10735
G1 X99.242 Y206.167 E0.12642
G1 X98.437 Y205.189 E0.14548
G1 X97.901 Y204.041 E0.16454
G1 X97.746 Y203.426 E0.17409
G1 X97.66 Y202.5 E0.18808
G1 X97.66 Y102.985 E1.68563
G1 X97.615 Y102.5 E1.69296
G1 X97.615 Y101.017 E1.71527
G1 X97.567 Y100.5 E1.72309
G1 X97.567 Y94.5 E1.81338
G1 X97.726 Y93.243 E1.83245
G1 X98.194 Y92.066 E1.85151
G1 X98.94 Y91.042 E1.87057
G1 X99.918 Y90.237 E1.88963
G1 X101.066 Y89.701 E1.9087
G1 X101.681 Y89.546 E1.91824
G1 X102.607 Y89.46 E1.93224
G1 X103.8 Y89.46 E1.95019
G1 X105.016 Y89.611 E1.96863
G1 X106.2 Y89.46 E1.98659
G1 X107.392 Y89.46 E2.00453
G1 X108.649 Y89.619 E2.0236
G1 X109.826 Y90.087 E2.04266
G1 X110.85 Y90.833 E2.06172
G1 X111.655 Y91.811 E2.08078
G1 X112.191 Y92.959 E2.09985
G1 X112.346 Y93.574 E2.10939
G1 X112.432 Y94.499 E2.12337
G1 X112.433 Y100.499 E2.21366
G1 X112.385 Y101.175 E2.22386
G1 X112.385 Y102.5 E2.2438
G1 X112.34 Y103.159 E2.25374
G1 X112.34 Y202.5 E3.74867
G1 X112.181 Y203.757 E3.76774
G1 X111.713 Y204.934 E3.7868
G1 X110.967 Y205.958 E3.80586
G1 X109.989 Y206.763 E3.82492
G1 X108.841 Y207.299 E3.84399
G1 X108.226 Y207.454 E3.85353
G1 X107.3 Y207.54 E3.86753
M204 S627
G0 F6030 X107.3 Y207.06
M204 S470
G1 F2010 X102.7 Y207.06 E3.93675
G1 X101.506 Y206.901 E3.95488
G1 X100.395 Y206.435 E3.97301
G1 X99.445 Y205.694 E3.99114
G1 X98.722 Y204.73 E4.00927
G1 X98.277 Y203.611 E4.02739
G1 X98.14 Y202.5 E4.04424
G1 X98.14 Y103.105 E5.53998
G1 X98.095 Y102.5 E5.54911
G1 X98.095 Y101.122 E5.56985
G1 X98.047 Y100.5 E5.57923
G1 X98.047 Y94.5 E5.66953
G1 X98.206 Y93.306 E5.68765
G1 X98.672 Y92.195 E5.70578
G1 X99.413 Y91.245 E5.72391
G1 X100.377 Y90.522 E5.74205
G1 X101.496 Y90.077 E5.76017
G1 X102.607 Y89.94 E5.77701
G1 X103.8 Y89.94 E5.79497
G1 X104.994 Y90.099 E5.81309
G1 X106.2 Y89.94 E5.8314
G1 X107.392 Y89.94 E5.84934
G1 X108.586 Y90.099 E5.86746
G1 X109.697 Y90.565 E5.88559
G1 X110.647 Y91.306 E5.90372
G1 X111.37 Y92.27 E5.92186
G1 X111.815 Y93.389 E5.93998
G1 X111.952 Y94.499 E5.95681
G1 X111.953 Y100.499 E6.0471
G1 X111.905 Y101.142 E6.0568
G1 X111.905 Y102.5 E6.07724
G1 X111.86 Y103.127 E6.0867
G1 X111.86 Y202.5 E7.58211
G1 X111.701 Y203.694 E7.60023
G1 X111.235 Y204.805 E7.61836
G1 X110.494 Y205.755 E7.63649
G1 X109.53 Y206.478 E7.65463
G1 X108.411 Y206.923 E7.67275
G1 X107.3 Y207.06 E7.68959
M204 S627
G0 F6030 X107.3 Y206.58
M204 S470
G1 F2010 X102.7 Y206.58 E7.75882
G1 X101.572 Y206.421 E7.77596
G1 X100.532 Y205.956 E7.7931
G1 X99.661 Y205.222 E7.81024
G1 X99.027 Y204.276 E7.82738
G1 X98.679 Y203.191 E7.84453
G1 X98.62 Y202.5 E7.85496
G1 X98.62 Y103.027 E9.35188
G1 X98.575 Y102.5 E9.35984
G1 X98.575 Y101.062 E9.38148
G1 X98.527 Y100.5 E9.38997
G1 X98.527 Y94.5 E9.48026
G1 X98.686 Y93.372 E9.4974
G1 X99.151 Y92.332 E9.51454
G1 X99.885 Y91.461 E9.53168
G1 X100.831 Y90.827 E9.54882
G1 X101.916 Y90.479 E9.56597
G1 X102.607 Y90.42 E9.5764
G1 X103.8 Y90.42 E9.59436
G1 X104.928 Y90.579 E9.6115
G1 X106.2 Y90.42 E9.63079
G1 X107.392 Y90.42 E9.64873
G1 X108.52 Y90.579 E9.66587
G1 X109.56 Y91.044 E9.68301
G1 X110.431 Y91.778 E9.70015
G1 X111.065 Y92.724 E9.71729
G1 X111.413 Y93.809 E9.73444
G1 X111.472 Y94.499 E9.74486
G1 X111.473 Y100.499 E9.83515
G1 X111.425 Y101.107 E9.84433
G1 X111.425 Y102.5 E9.86529
G1 X111.38 Y103.093 E9.87424
G1 X111.38 Y202.5 E11.37016
G1 X111.221 Y203.628 E11.3873
G1 X110.756 Y204.668 E11.40445
G1 X110.022 Y205.539 E11.42159
G1 X109.076 Y206.173 E11.43872
G1 X107.991 Y206.521 E11.45587
G1 X107.3 Y206.58 E11.46631
M204 S627
G0 F6030 X107.3 Y206.1
M204 S470
G1 F2010 X102.7 Y206.1 E11.53553
G1 X101.642 Y205.941 E11.55163
G1 X100.678 Y205.478 E11.56772
G1 X99.892 Y204.753 E11.58381
G1 X99.354 Y203.828 E11.59992
G1 X99.111 Y202.787 E11.616
G1 X99.1 Y202.5 E11.62033
G1 X99.1 Y103.004 E13.11759
G1 X99.055 Y102.5 E13.1252
G1 X99.055 Y101.023 E13.14743
G1 X99.007 Y100.5 E13.15533
G1 X99.007 Y94.5 E13.24562
G1 X99.166 Y93.442 E13.26172
G1 X99.629 Y92.478 E13.27781
G1 X100.354 Y91.692 E13.29391
G1 X101.279 Y91.154 E13.31001
G1 X102.32 Y90.911 E13.3261
G1 X102.607 Y90.9 E13.33042
G1 X103.8 Y90.9 E13.34837
G1 X104.858 Y91.059 E13.36447
G1 X104.999 Y91.114 E13.36675
G1 X105.913 Y90.911 E13.38084
G1 X106.2 Y90.9 E13.38516
G1 X107.392 Y90.9 E13.4031
G1 X108.45 Y91.059 E13.4192
G1 X109.414 Y91.522 E13.43529
G1 X110.2 Y92.247 E13.45138
G1 X110.738 Y93.172 E13.46748
G1 X110.981 Y94.213 E13.48357
G1 X110.992 Y94.499 E13.48788
G1 X110.993 Y100.499 E13.57817
G1 X110.945 Y101.069 E13.58678
G1 X110.945 Y102.5 E13.60831
G1 X110.9 Y103.057 E13.61672
G1 X110.9 Y202.5 E15.11318
G1 X110.741 Y203.558 E15.12928
G1 X110.278 Y204.522 E15.14538
G1 X109.553 Y205.308 E15.16147
G1 X108.628 Y205.846 E15.17757
G1 X107.587 Y206.089 E15.19366
G1 X107.3 Y206.1 E15.19798
M204 S627
G0 F6030 X107.3 Y205.62
M204 S470
G1 F2010 X102.7 Y205.62 E15.2672
G1 X101.718 Y205.461 E15.28217
G1 X100.835 Y205.001 E15.29715
G1 X100.142 Y204.287 E15.31213
G1 X99.71 Y203.39 E15.32711
G1 X99.58 Y202.5 E15.34065
G1 X99.58 Y102.991 E16.8381
G1 X99.535 Y102.5 E16.84552
G1 X99.535 Y101.005 E16.86802
G1 X99.487 Y100.5 E16.87565
G1 X99.487 Y94.5 E16.96594
G1 X99.646 Y93.518 E16.98091
G1 X100.106 Y92.635 E16.9959
G1 X100.82 Y91.942 E17.01087
G1 X101.717 Y91.51 E17.02585
G1 X102.607 Y91.38 E17.03939
G1 X103.8 Y91.38 E17.05734
G1 X104.782 Y91.539 E17.07231
G1 X104.999 Y91.63 E17.07585
G1 X105.798 Y91.406 E17.08834
G1 X106.2 Y91.38 E17.0944
G1 X107.392 Y91.38 E17.11234
G1 X108.374 Y91.539 E17.12731
G1 X109.257 Y91.999 E17.14229
G1 X109.95 Y92.713 E17.15726
G1 X110.382 Y93.61 E17.17225
G1 X110.512 Y94.499 E17.18577
G1 X110.513 Y100.499 E17.27606
G1 X110.465 Y101.03 E17.28408
G1 X110.465 Y102.5 E17.3062
G1 X110.42 Y103.018 E17.31403
G1 X110.42 Y202.5 E18.81108
G1 X110.261 Y203.482 E18.82605
G1 X109.801 Y204.365 E18.84103
G1 X109.087 Y205.058 E18.856
G1 X108.19 Y205.49 E18.87098
G1 X107.3 Y205.62 E18.88452
M204 S627
G0 F6030 X107.3 Y205.14
M204 S470
G1 F2010 X102.7 Y205.14 E18.95374
G1 X101.799 Y204.982 E18.96751
G1 X101.006 Y204.525 E18.98128
G1 X100.417 Y203.825 E18.99505
G1 X100.102 Y202.967 E19.0088
G1 X100.06 Y202.5 E19.01586
G1 X100.06 Y102.978 E20.51351
G1 X100.015 Y102.5 E20.52073
G1 X100.015 Y100.989 E20.54347
G1 X99.967 Y100.5 E20.55087
G1 X99.967 Y94.5 E20.64116
G1 X100.125 Y93.599 E20.65492
G1 X100.582 Y92.806 E20.6687
G1 X101.282 Y92.217 E20.68246
G1 X102.14 Y91.902 E20.69622
G1 X102.607 Y91.86 E20.70327
G1 X103.8 Y91.86 E20.72123
G1 X104.701 Y92.018 E20.73499
G1 X105.001 Y92.158 E20.73997
G1 X105.733 Y91.902 E20.75164
G1 X106.2 Y91.86 E20.7587
G1 X107.392 Y91.86 E20.77664
G1 X108.293 Y92.018 E20.7904
G1 X109.086 Y92.475 E20.80418
G1 X109.675 Y93.175 E20.81794
G1 X109.99 Y94.033 E20.8317
G1 X110.032 Y94.5 E20.83875
G1 X110.033 Y100.5 E20.92904
G1 X109.985 Y100.987 E20.93641
G1 X109.985 Y102.5 E20.95918
G1 X109.94 Y102.976 E20.96637
G1 X109.94 Y202.5 E22.46405
G1 X109.782 Y203.401 E22.47782
G1 X109.325 Y204.194 E22.49159
G1 X108.625 Y204.783 E22.50536
G1 X107.767 Y205.098 E22.51911
G1 X107.3 Y205.14 E22.52617
M204 S627
G0 F6030 X107.3 Y204.66
M204 S470
G1 F2010 X102.7 Y204.66 E22.59539
G1 X101.889 Y204.502 E22.60782
G1 X101.196 Y204.051 E22.62027
G1 X100.724 Y203.372 E22.63271
G1 X100.54 Y202.5 E22.64612
G1 X100.54 Y102.898 E24.14498
G1 X100.495 Y102.5 E24.15101
G1 X100.495 Y100.925 E24.17471
G1 X100.447 Y100.5 E24.18114
G1 X100.447 Y94.5 E24.27143
G1 X100.605 Y93.689 E24.28387
G1 X101.056 Y92.996 E24.29631
G1 X101.735 Y92.524 E24.30875
G1 X102.607 Y92.34 E24.32216
G1 X103.8 Y92.34 E24.34012
G1 X104.611 Y92.498 E24.35255
G1 X105.001 Y92.707 E24.35921
G1 X105.722 Y92.394 E24.37104
G1 X106.2 Y92.34 E24.37828
G1 X107.392 Y92.34 E24.39621
G1 X108.203 Y92.498 E24.40865
G1 X108.896 Y92.949 E24.42109
G1 X109.368 Y93.628 E24.43354
G1 X109.552 Y94.5 E24.44695
G1 X109.553 Y100.5 E24.53724
G1 X109.505 Y100.94 E24.5439
G1 X109.505 Y102.5 E24.56737
G1 X109.46 Y102.93 E24.57388
G1 X109.46 Y202.5 E26.07225
G1 X109.302 Y203.311 E26.08469
G1 X108.851 Y204.004 E26.09713
G1 X108.172 Y204.476 E26.10957
G1 X107.3 Y204.66 E26.12298
M204 S627
G0 F6030 X107.3 Y204.18
M204 S470
G1 F2010 X102.7 Y204.18 E26.19221
G1 X101.99 Y204.022 E26.20315
G1 X101.412 Y203.579 E26.21411
G1 X101.077 Y202.933 E26.22506
G1 X101.02 Y202.5 E26.23164
G1 X101.02 Y102.842 E27.73133
G1 X100.975 Y102.5 E27.73652
G1 X100.975 Y100.864 E27.76114
G1 X100.927 Y100.5 E27.76667
G1 X100.927 Y94.5 E27.85696
G1 X101.085 Y93.79 E27.8679
G1 X101.528 Y93.212 E27.87886
G1 X102.174 Y92.877 E27.88981
G1 X102.607 Y92.82 E27.89639
G1 X103.8 Y92.82 E27.91434
G1 X104.51 Y92.978 E27.92528
G1 X105.001 Y93.338 E27.93445
G1 X105.425 Y93.009 E27.94252
G1 X106.2 Y92.82 E27.95453
G1 X107.392 Y92.82 E27.97247
G1 X108.102 Y92.978 E27.98341
G1 X108.68 Y93.421 E27.99437
G1 X109.015 Y94.067 E28.00532
G1 X109.072 Y94.5 E28.01189
G1 X109.073 Y100.5 E28.10218
G1 X109.025 Y100.887 E28.10805
G1 X109.025 Y102.5 E28.13232
G1 X108.98 Y102.879 E28.13807
G1 X108.98 Y202.5 E29.63721
G1 X108.822 Y203.21 E29.64816
G1 X108.379 Y203.788 E29.65911
G1 X107.733 Y204.123 E29.67006
G1 X107.3 Y204.18 E29.67664
M204 S627
G0 F6030 X107.3 Y203.7
M204 S470
G1 F2010 X102.7 Y203.7 E29.74586
G1 X102.107 Y203.543 E29.75509
G1 X101.669 Y203.114 E29.76432
G1 X101.5 Y202.5 E29.7739
G1 X101.5 Y102.823 E31.27388
G1 X101.455 Y102.5 E31.27879
G1 X101.455 Y100.835 E31.30385
G1 X101.407 Y100.5 E31.30894
G1 X101.407 Y94.5 E31.39923
G1 X101.564 Y93.907 E31.40846
G1 X101.993 Y93.469 E31.41769
G1 X102.607 Y93.3 E31.42727
G1 X103.8 Y93.3 E31.44522
G1 X104.393 Y93.457 E31.45446
G1 X104.831 Y93.886 E31.46368
G1 X105 Y94.5 E31.47327
G1 X105.157 Y93.907 E31.4825
G1 X105.586 Y93.469 E31.49172
G1 X106.2 Y93.3 E31.50131
G1 X107.392 Y93.3 E31.51924
G1 X107.985 Y93.457 E31.52847
G1 X108.423 Y93.886 E31.5377
G1 X108.592 Y94.5 E31.54728
G1 X108.593 Y100.5 E31.63757
G1 X108.545 Y100.826 E31.64253
G1 X108.545 Y102.5 E31.66772
G1 X108.5 Y102.819 E31.67257
G1 X108.5 Y202.5 E33.17262
G1 X108.343 Y203.093 E33.18185
G1 X107.914 Y203.531 E33.19107
G1 X107.3 Y203.7 E33.20066
M204 S627
G0 F6030 X107.3 Y203.22
M204 S470
G1 F2010 X102.7 Y203.22 E33.26988
G1 X102.254 Y203.065 E33.27699
G1 X102 Y202.668 E33.28408
G1 X101.98 Y202.5 E33.28662
G1 X101.98 Y102.727 E34.78805
G1 X101.935 Y102.5 E34.79153
G1 X101.935 Y100.734 E34.81811
G1 X101.887 Y100.5 E34.82171
G1 X101.887 Y94.5 E34.912
G1 X102.042 Y94.054 E34.9191
G1 X102.439 Y93.8 E34.92619
G1 X102.607 Y93.78 E34.92874
G1 X103.8 Y93.78 E34.94669
G1 X104.246 Y93.935 E34.9538
G1 X104.5 Y94.332 E34.96089
G1 X104.52 Y94.5 E34.96344
G1 X104.52 Y99.78 E35.04289
G1 X105.48 Y99.78 E35.05734
G1 X105.48 Y94.5 E35.13679
G1 X105.635 Y94.054 E35.1439
G1 X106.032 Y93.8 E35.15099
G1 X106.2 Y93.78 E35.15354
G1 X107.392 Y93.78 E35.17148
G1 X107.838 Y93.935 E35.17858
G1 X108.092 Y94.332 E35.18567
G1 X108.112 Y94.5 E35.18822
G1 X108.113 Y100.5 E35.27851
G1 X108.065 Y100.751 E35.28236
G1 X108.065 Y102.5 E35.30868
G1 X108.02 Y102.745 E35.31242
G1 X108.02 Y202.5 E36.81358
G1 X107.865 Y202.946 E36.82069
G1 X107.468 Y203.2 E36.82778
G1 X107.3 Y203.22 E36.83033
M204 S627
G0 F6030 X107.3 Y202.74
M204 S470
G1 F2010 X102.7 Y202.74 E36.89955
G1 X102.48 Y202.596 E36.9035
G1 X102.46 Y202.5 E36.90498
G1 X102.46 Y102.625 E38.40794
G1 X102.415 Y102.5 E38.40994
G1 X102.415 Y100.629 E38.4381
G1 X102.367 Y100.5 E38.44017
G1 X102.367 Y94.5 E38.53046
G1 X102.511 Y94.28 E38.53442
G1 X102.607 Y94.26 E38.53589
G1 X103.8 Y94.26 E38.55385
G1 X104.02 Y94.404 E38.5578
G1 X104.04 Y94.5 E38.55928
G1 X104.04 Y100.26 E38.64596
G1 X105.96 Y100.26 E38.67485
G1 X105.96 Y94.5 E38.76153
G1 X106.104 Y94.28 E38.76549
G1 X106.2 Y94.26 E38.76696
G1 X107.392 Y94.26 E38.7849
G1 X107.612 Y94.404 E38.78886
G1 X107.632 Y94.5 E38.79033
G1 X107.633 Y100.5 E38.88062
G1 X107.585 Y100.639 E38.88284
G1 X107.585 Y102.5 E38.91084
G1 X107.54 Y102.636 E38.913
G1 X107.54 Y202.5 E40.41579
G1 X107.396 Y202.72 E40.41975
G1 X107.3 Y202.74 E40.42123
M204 S627
G1 F2100 E34.42123
;MESH:SensorArm.stl
G0 F6030 X106.771 Y201.971
G0 X106.746 Y101.814
G0 X106.825 Y100.84
G0 X107.105 Y100.26
M204 S470
;TYPE:WALL-OUTER
G1 F1050 E40.42123
G1 F2010 X107.105 Y102.26 E40.45132
G1 X107.06 Y102.26 E40.452
G1 X107.06 Y202.26 E41.95685
G1 X102.94 Y202.26 E42.01885
G1 X102.94 Y102.26 E43.52369
G1 X102.895 Y102.26 E43.52437
G1 X102.895 Y100.26 E43.55446
G1 X102.847 Y100.26 E43.55519
G1 X102.847 Y94.74 E43.63825
G1 X103.56 Y94.74 E43.64898
G1 X103.56 Y100.74 E43.73927
G1 X106.44 Y100.74 E43.78261
G1 X106.44 Y94.74 E43.8729
G1 X107.152 Y94.74 E43.88362
G1 X107.153 Y100.26 E43.96669
G1 X107.105 Y100.26 E43.96741
M204 S627
G0 F6030 X107.105 Y100.46
G0 X106.655 Y101.19
M204 S470
;TYPE:WALL-INNER
G1 F2010 X106.639 Y101.414 E43.97037
G1 X106.61 Y101.81 E43.97559
G1 X106.61 Y201.81 E45.29233
G1 X103.39 Y201.81 E45.33473
G1 X103.39 Y101.81 E46.65147
G1 X103.361 Y101.414 E46.6567
G1 X103.345 Y101.19 E46.65966
G1 X103.569 Y101.19 E46.66153
G1 X103.57 Y101.19 E46.66154
G1 X106.43 Y101.19 E46.6992
G1 X106.431 Y101.19 E46.69921
G1 X106.655 Y101.19 E46.70108
M204 S627
G0 F6030 X106.182 Y101.63
M204 S470
;TYPE:SKIN
G1 F2010 X106.17 Y101.794 E46.70355
G1 X106.17 Y201.37 E48.20202
G1 X103.83 Y201.37 E48.23723
G1 X103.83 Y101.794 E49.7357
G1 X103.818 Y101.63 E49.73817
G1 X106.182 Y101.63 E49.77375
M204 S627
G0 F6030 X105.783 Y102.389
M204 S470
G1 F2010 X105.41 Y102.016 E49.78168
G1 X105.783 Y102.015 E49.7873
M204 S627
G0 F6030 X105.41 Y102.016
M204 S470
G1 F2010 X104.731 Y102.016 E49.79751
G1 X105.783 Y103.068 E49.8199
G1 X105.783 Y103.747 E49.83012
G1 X104.215 Y102.179 E49.86349
G1 X104.215 Y102.857 E49.87369
G1 X105.783 Y104.426 E49.90707
G1 X105.783 Y105.105 E49.91729
G1 X104.215 Y103.536 E49.95067
G1 X104.215 Y104.215 E49.96089
G1 X105.783 Y105.783 E49.99426
G1 X105.783 Y106.462 E50.00448
G1 X104.215 Y104.894 E50.03785
G1 X104.215 Y105.573 E50.04806
G1 X105.783 Y107.141 E50.08143
G1 X105.783 Y107.82 E50.09165
G1 X104.215 Y106.251 E50.12503
G1 X104.215 Y106.93 E50.13525
G1 X105.783 Y108.499 E50.16863
G1 X105.783 Y109.177 E50.17883
G1 X104.215 Y107.609 E50.2122
G1 X104.215 Y108.288 E50.22242
G1 X105.783 Y109.856 E50.25579
G1 X105.783 Y110.535 E50.26601
G1 X104.215 Y108.967 E50.29938
G1 X104.215 Y109.646 E50.3096
G1 X105.783 Y111.214 E50.34297
G1 X105.783 Y111.893 E50.35318
G1 X104.215 Y110.324 E50.38656
G1 X104.215 Y111.003 E50.39678
G1 X105.783 Y112.572 E50.43016
G1 X105.783 Y113.25 E50.44037
G1 X104.215 Y111.682 E50.47374
G1 X104.215 Y112.361 E50.48395
G1 X105.783 Y113.929 E50.51732
G1 X105.783 Y114.608 E50.52754
G1 X104.215 Y113.04 E50.56091
G1 X104.215 Y113.719 E50.57113
G1 X105.783 Y115.287 E50.6045
G1 X105.783 Y115.966 E50.61472
G1 X104.215 Y114.397 E50.6481
G1 X104.215 Y115.076 E50.65831
G1 X105.783 Y116.645 E50.6917
G1 X105.783 Y117.323 E50.7019
G1 X104.215 Y115.755 E50.73527
G1 X104.215 Y116.434 E50.74549
G1 X105.783 Y118.002 E50.77886
G1 X105.783 Y118.681 E50.78907
G1 X104.215 Y117.113 E50.82244
G1 X104.215 Y117.791 E50.83265
G1 X105.783 Y119.36 E50.86603
