;FLAVOR:Marlin
;TIME:6420
;Filament used: 1.97015m, 0m
;Layer height: 0.2
;MINX:83.414
;MINY:96.31
;MINZ:0.2
;MAXX:129.547
;MAXY:209.345
;MAXZ:40
;Generated with StratosEngine 1.6.0
T0
M82 ;absolute extrusion mode
;Machine Model: Sigma R19 
;Materials used: T0 ABS  
;Extruders used: T0 0.4  
M141 S0 	;Set chamber temperature 
M140 S100 	;Heat build surface
M104 T0 S235	;Heat extruder 0
M190 S100 	;Wait until bed temperature reached 
M109 T0 S235	;Heat extruder 0 and wait
G21 		;metric values 
G90 		;absolute positioning 
M204 S600 	;set default acceleration 
M205 X12.5 Y12.5 ;set default jerk 
M107 		;start with the fan off 
G28 X0 Y0 	;move X/Y to min endstops 
G28 Z0 		;move Z to min endstops 
G1 Z5 F200 	;safety Z axis movement

T0
G92 E0 		;set zero the extruded length 
G1 E15 F30
G92 E0 
G4 S2 		;stabilize hotend 
G1 E-0.5 F1000 
G92 E0

G4 P1
G4 P2
G4 P3

G92 E0
;LAYER_COUNT:200
;LAYER:0
M107
M204 S627
M205 X9.38 Y9.38
G1 F600 Z0.6
G0 F6030 X92.911 Y209.345 Z0.6
M204 S470
;TYPE:SKIRT
G1 F600 Z0.2
G1 F1050 E0
G1 F2010 X91.522 Y209.166 E0.02108
G1 X90.322 Y208.761 E0.04013
G1 X89.369 Y208.179 E0.05694
G1 X88.418 Y207.341 E0.07601
G1 X87.743 Y206.366 E0.09386
G1 X87.214 Y205.282 E0.11201
G1 X86.915 Y204.015 E0.1316
G1 X86.869 Y203.306 E0.14229
G1 X86.87 Y172.441 E0.60676
G1 X86.012 Y172.077 E0.62079
G1 X84.988 Y171.331 E0.63985
G1 X84.183 Y170.353 E0.65891
G1 X83.647 Y169.205 E0.67798
G1 X83.415 Y167.96 E0.69704
G1 X83.501 Y166.692 E0.71616
G1 X83.864 Y164.845 E0.74449
G1 X84.176 Y163.095 E0.77124
G1 X84.461 Y161.293 E0.79869
G1 X84.705 Y159.537 E0.82537
G1 X84.92 Y157.72 E0.85291
G1 X85.106 Y155.841 E0.88132
G1 X85.245 Y154.083 E0.90786
G1 X85.351 Y152.273 E0.93514
G1 X85.424 Y150.445 E0.96267
G1 X85.461 Y148.62 E0.99014
G1 X85.462 Y146.801 E1.01751
G1 X85.427 Y144.974 E1.04501
G1 X85.359 Y143.212 E1.07155
G1 X85.251 Y141.34 E1.09977
G1 X85.109 Y139.52 E1.12724
G1 X84.938 Y137.772 E1.15367
G1 X84.714 Y135.866 E1.18255
G1 X84.476 Y134.132 E1.20889
G1 X84.191 Y132.325 E1.23641
G1 X83.869 Y130.508 E1.26418
G1 X83.501 Y128.639 E1.29285
G1 X83.414 Y127.375 E1.31192
G1 X83.645 Y126.129 E1.33099
G1 X84.18 Y124.981 E1.35004
G1 X84.984 Y124.002 E1.36911
G1 X86.006 Y123.254 E1.38817
G1 X87.183 Y122.785 E1.40723
G1 X88.446 Y122.624 E1.42639
G1 X94.694 Y122.624 E1.52042
G1 X94.297 Y121.993 E1.53164
G1 X93.643 Y120.773 E1.55247
G1 X93.399 Y120.247 E1.56119
G1 X92.879 Y118.933 E1.58246
G1 X92.694 Y118.371 E1.59136
G1 X92.34 Y117.037 E1.61213
G1 X92.223 Y116.468 E1.62087
G1 X92.024 Y115.098 E1.6417
G1 X91.974 Y114.523 E1.65039
G1 X91.934 Y113.172 E1.67073
G1 X91.95 Y112.595 E1.67942
G1 X92.07 Y111.188 E1.70067
G1 X92.155 Y110.604 E1.70955
G1 X92.433 Y109.247 E1.73039
G1 X92.58 Y108.692 E1.73903
G1 X93.009 Y107.381 E1.75979
G1 X93.222 Y106.838 E1.76857
G1 X93.801 Y105.582 E1.78938
G1 X94.077 Y105.064 E1.79821
G1 X94.798 Y103.884 E1.81902
G1 X95.123 Y103.415 E1.82761
G1 X95.954 Y102.348 E1.84796
G1 X96.336 Y101.912 E1.85668
G1 X97.327 Y100.904 E1.87795
G1 X97.76 Y100.511 E1.88675
G1 X98.838 Y99.643 E1.90758
G1 X99.312 Y99.305 E1.91634
G1 X100.48 Y98.569 E1.93712
G1 X100.988 Y98.289 E1.94585
G1 X102.237 Y97.69 E1.96669
G1 X102.781 Y97.467 E1.97554
G1 X104.087 Y97.019 E1.99632
G1 X104.641 Y96.863 E2.00498
G1 X105.993 Y96.566 E2.02581
G1 X106.567 Y96.475 E2.03455
G1 X107.943 Y96.336 E2.05537
G1 X108.519 Y96.31 E2.06404
G1 X109.898 Y96.329 E2.0848
G1 X110.48 Y96.371 E2.09358
G1 X111.854 Y96.55 E2.11443
G1 X112.429 Y96.659 E2.12324
G1 X113.769 Y96.995 E2.14403
G1 X114.313 Y97.165 E2.1526
G1 X115.582 Y97.641 E2.173
G1 X116.114 Y97.877 E2.18176
G1 X117.368 Y98.521 E2.20297
G1 X117.87 Y98.816 E2.21173
G1 X118.996 Y99.57 E2.23212
G1 X119.456 Y99.917 E2.2408
G1 X120.508 Y100.811 E2.26157
G1 X120.926 Y101.21 E2.27027
G1 X121.871 Y102.221 E2.29109
G1 X122.239 Y102.664 E2.29976
G1 X123.061 Y103.774 E2.32054
G1 X123.381 Y104.262 E2.32933
G1 X124.07 Y105.461 E2.35014
G1 X124.33 Y105.98 E2.35887
G1 X124.876 Y107.249 E2.37966
G1 X125.076 Y107.802 E2.38851
G1 X125.479 Y109.155 E2.40975
G1 X125.613 Y109.724 E2.41855
G1 X125.852 Y111.087 E2.43937
G1 X125.987 Y112.646 E2.46292
G1 X125.987 Y114.029 E2.48373
G1 X125.954 Y114.608 E2.49246
G1 X125.795 Y115.983 E2.51329
G1 X125.694 Y116.558 E2.52208
G1 X125.378 Y117.902 E2.54285
G1 X125.216 Y118.451 E2.55147
G1 X124.759 Y119.724 E2.57182
G1 X124.531 Y120.258 E2.58056
G1 X123.904 Y121.524 E2.60182
G1 X123.616 Y122.03 E2.61058
G1 X122.862 Y123.192 E2.63142
G1 X122.516 Y123.663 E2.64022
G1 X121.636 Y124.726 E2.66099
G1 X121.32 Y125.086 E2.66819
G1 X121.798 Y125.386 E2.67669
G1 X122.892 Y126.161 E2.69686
G1 X123.333 Y126.512 E2.70534
G1 X124.337 Y127.407 E2.72558
G1 X124.736 Y127.805 E2.73407
G1 X125.634 Y128.807 E2.75431
G1 X125.989 Y129.251 E2.76287
G1 X126.768 Y130.347 E2.7831
G1 X127.069 Y130.825 E2.7916
G1 X127.721 Y132.002 E2.81185
G1 X127.966 Y132.509 E2.82032
G1 X128.482 Y133.75 E2.84055
G1 X128.669 Y134.284 E2.84906
G1 X129.043 Y135.576 E2.86931
G1 X129.17 Y136.127 E2.87781
G1 X129.397 Y137.453 E2.89806
G1 X129.461 Y138.015 E2.90657
G1 X129.538 Y139.358 E2.92681
G1 X129.546 Y139.646 E2.93115
G1 X129.547 Y155.68 E3.17244
G1 X129.539 Y155.961 E3.17667
G1 X129.465 Y157.285 E3.19662
G1 X129.402 Y157.847 E3.20513
G1 X129.177 Y159.173 E3.22537
G1 X129.053 Y159.72 E3.23381
G1 X128.682 Y161.013 E3.25405
G1 X128.491 Y161.557 E3.26273
G1 X127.975 Y162.799 E3.28297
G1 X127.734 Y163.3 E3.29134
G1 X127.083 Y164.48 E3.31162
G1 X126.782 Y164.959 E3.32013
G1 X126.006 Y166.054 E3.34033
G1 X125.653 Y166.498 E3.34886
G1 X124.757 Y167.501 E3.3691
G1 X124.36 Y167.898 E3.37755
G1 X123.357 Y168.796 E3.39781
G1 X122.77 Y169.252 E3.40899
G1 X122.991 Y169.936 E3.41981
G1 X123.149 Y171.304 E3.44053
G1 X123.148 Y203.311 E3.92219
G1 X122.969 Y204.698 E3.94324
G1 X122.563 Y205.898 E3.9623
G1 X121.983 Y206.846 E3.97902
G1 X121.145 Y207.797 E3.9981
G1 X120.17 Y208.472 E4.01594
G1 X119.086 Y209.001 E4.03409
G1 X117.789 Y209.303 E4.05413
G1 X117.108 Y209.345 E4.0644
G1 X92.911 Y209.345 E4.42853
M204 S627
G0 F6030 X92.911 Y208.865
M204 S470
G1 F2010 X91.617 Y208.696 E4.44817
G1 X90.478 Y208.303 E4.4663
G1 X89.162 Y207.41 E4.49023
G1 X88.377 Y206.497 E4.50835
G1 X87.653 Y205.084 E4.53224
G1 X87.393 Y203.966 E4.54952
G1 X87.349 Y203.306 E4.55947
G1 X87.35 Y172.085 E5.0293
G1 X86.681 Y171.869 E5.03988
G1 X85.642 Y171.26 E5.058
G1 X84.798 Y170.4 E5.07613
G1 X84.209 Y169.349 E5.09426
G1 X83.915 Y168.181 E5.11239
G1 X83.887 Y167.578 E5.12147
G1 X83.972 Y166.784 E5.13349
G1 X84.341 Y164.906 E5.16229
G1 X84.645 Y163.2 E5.18837
G1 X84.932 Y161.387 E5.21599
G1 X85.19 Y159.527 E5.24425
G1 X85.398 Y157.767 E5.27092
G1 X85.58 Y155.933 E5.29865
G1 X85.724 Y154.101 E5.32631
G1 X85.832 Y152.267 E5.35395
G1 X85.904 Y150.474 E5.38096
G1 X85.941 Y148.63 E5.40871
G1 X85.942 Y146.792 E5.43637
G1 X85.908 Y145.014 E5.46313
G1 X85.834 Y143.097 E5.492
G1 X85.731 Y141.32 E5.51879
G1 X85.589 Y139.493 E5.54636
G1 X85.415 Y137.716 E5.57323
G1 X85.197 Y135.865 E5.60128
G1 X84.948 Y134.046 E5.62891
G1 X84.656 Y132.191 E5.65717
G1 X84.344 Y130.436 E5.68399
G1 X83.972 Y128.546 E5.71298
G1 X83.897 Y127.343 E5.73112
G1 X84.14 Y126.163 E5.74925
G1 X84.683 Y125.088 E5.76737
G1 X85.489 Y124.193 E5.78549
G1 X86.501 Y123.54 E5.80362
G1 X87.649 Y123.174 E5.82175
G1 X88.446 Y123.104 E5.83379
G1 X95.611 Y123.104 E5.94161
G1 X94.72 Y121.766 E5.9658
G1 X94.066 Y120.546 E5.98663
G1 X93.845 Y120.07 E5.99453
G1 X93.325 Y118.756 E6.0158
G1 X93.158 Y118.248 E6.02384
G1 X92.804 Y116.914 E6.04461
G1 X92.698 Y116.399 E6.05253
G1 X92.499 Y115.029 E6.07336
G1 X92.454 Y114.509 E6.08121
G1 X92.414 Y113.158 E6.10155
G1 X92.428 Y112.635 E6.10943
G1 X92.548 Y111.228 E6.13068
G1 X92.625 Y110.701 E6.13869
G1 X92.903 Y109.344 E6.15954
G1 X93.036 Y108.841 E6.16736
G1 X93.465 Y107.53 E6.18812
G1 X93.658 Y107.039 E6.19606
G1 X94.237 Y105.783 E6.21687
G1 X94.487 Y105.314 E6.22487
G1 X95.208 Y104.134 E6.24568
G1 X95.501 Y103.71 E6.25344
G1 X96.332 Y102.643 E6.27379
G1 X96.678 Y102.248 E6.28169
G1 X97.669 Y101.24 E6.30296
G1 X98.061 Y100.885 E6.31092
G1 X99.139 Y100.017 E6.33175
G1 X99.568 Y99.711 E6.33968
G1 X100.736 Y98.975 E6.36045
G1 X101.195 Y98.721 E6.36835
G1 X102.444 Y98.122 E6.38919
G1 X102.936 Y97.921 E6.39719
G1 X104.242 Y97.473 E6.41797
G1 X104.744 Y97.332 E6.42582
G1 X106.096 Y97.035 E6.44665
G1 X106.616 Y96.952 E6.45457
G1 X107.992 Y96.813 E6.47538
G1 X108.513 Y96.79 E6.48323
G1 X109.892 Y96.809 E6.50398
G1 X110.418 Y96.847 E6.51192
G1 X111.792 Y97.026 E6.53277
G1 X112.312 Y97.125 E6.54074
G1 X113.652 Y97.461 E6.56153
G1 X114.144 Y97.614 E6.56928
G1 X115.413 Y98.09 E6.58968
G1 X115.895 Y98.304 E6.59761
G1 X117.149 Y98.948 E6.61883
G1 X117.603 Y99.215 E6.62675
G1 X118.729 Y99.969 E6.64714
G1 X119.145 Y100.283 E6.65499
G1 X120.197 Y101.177 E6.67576
G1 X120.575 Y101.538 E6.68363
G1 X121.52 Y102.549 E6.70445
G1 X121.854 Y102.949 E6.7123
G1 X122.676 Y104.059 E6.73308
G1 X122.965 Y104.501 E6.74103
G1 X123.654 Y105.7 E6.76184
G1 X123.889 Y106.17 E6.76975
G1 X124.435 Y107.439 E6.79053
G1 X124.616 Y107.939 E6.79854
G1 X125.019 Y109.292 E6.81978
G1 X125.14 Y109.806 E6.82773
G1 X125.379 Y111.169 E6.84855
G1 X125.507 Y112.646 E6.87086
G1 X125.507 Y114.029 E6.89167
G1 X125.477 Y114.553 E6.89957
G1 X125.318 Y115.928 E6.9204
G1 X125.227 Y116.448 E6.92835
G1 X124.911 Y117.792 E6.94912
G1 X124.764 Y118.289 E6.95692
G1 X124.307 Y119.562 E6.97727
G1 X124.101 Y120.045 E6.98518
G1 X123.474 Y121.311 E7.00644
G1 X123.213 Y121.769 E7.01437
G1 X122.459 Y122.931 E7.03521
G1 X122.147 Y123.357 E7.04316
G1 X121.267 Y124.42 E7.06393
G1 X120.509 Y125.188 E7.08017
G1 X121.521 Y125.778 E7.09779
G1 X122.615 Y126.553 E7.11797
G1 X123.013 Y126.87 E7.12563
G1 X124.017 Y127.765 E7.14587
G1 X124.379 Y128.126 E7.15356
G1 X125.277 Y129.128 E7.17381
G1 X125.598 Y129.529 E7.18154
G1 X126.377 Y130.625 E7.20177
G1 X126.649 Y131.057 E7.20945
G1 X127.301 Y132.234 E7.2297
G1 X127.523 Y132.693 E7.23737
G1 X128.039 Y133.934 E7.2576
G1 X128.208 Y134.417 E7.2653
G1 X128.582 Y135.709 E7.28554
G1 X128.697 Y136.208 E7.29325
G1 X128.924 Y137.534 E7.31349
G1 X128.982 Y138.042 E7.32119
G1 X129.059 Y139.385 E7.34143
G1 X129.066 Y139.646 E7.34536
G1 X129.067 Y155.68 E7.58664
G1 X129.06 Y155.934 E7.59047
G1 X128.986 Y157.258 E7.61042
G1 X128.929 Y157.767 E7.61813
G1 X128.704 Y159.093 E7.63837
G1 X128.591 Y159.588 E7.64601
G1 X128.22 Y160.881 E7.66625
G1 X128.048 Y161.373 E7.6741
G1 X127.532 Y162.615 E7.69434
G1 X127.314 Y163.068 E7.7019
G1 X126.663 Y164.248 E7.72218
G1 X126.39 Y164.682 E7.7299
G1 X125.614 Y165.777 E7.75009
G1 X125.295 Y166.178 E7.75781
G1 X124.399 Y167.181 E7.77804
G1 X124.04 Y167.54 E7.78568
G1 X123.037 Y168.438 E7.80594
G1 X122.17 Y169.088 E7.82225
G1 X122.538 Y170.105 E7.83853
G1 X122.669 Y171.304 E7.85668
G1 X122.668 Y203.311 E8.33833
G1 X122.499 Y204.603 E8.35794
G1 X122.105 Y205.741 E8.37606
G1 X121.214 Y207.053 E8.39993
G1 X120.301 Y207.838 E8.41805
G1 X118.888 Y208.562 E8.44194
G1 X117.743 Y208.825 E8.45962
G1 X117.108 Y208.865 E8.46919
G1 X92.911 Y208.865 E8.83332
M204 S627
G0 F6030 X92.911 Y208.385
M204 S470
G1 F2010 X91.712 Y208.225 E8.85152
G1 X90.638 Y207.846 E8.86866
G1 X89.458 Y207.031 E8.89024
G1 X89.063 Y206.619 E8.89883
G1 X88.323 Y205.411 E8.92015
G1 X87.936 Y204.339 E8.9373
G1 X87.829 Y203.306 E8.95293
G1 X87.83 Y171.694 E9.42864
G1 X86.782 Y171.389 E9.44507
G1 X85.817 Y170.784 E9.46221
G1 X85.057 Y169.935 E9.47935
G1 X84.561 Y168.91 E9.49649
G1 X84.368 Y167.787 E9.51364
G1 X84.443 Y166.877 E9.52738
G1 X84.808 Y165.019 E9.55587
G1 X85.127 Y163.231 E9.5832
G1 X85.414 Y161.414 E9.61088
G1 X85.655 Y159.672 E9.63735
G1 X85.881 Y157.767 E9.66622
G1 X86.059 Y155.965 E9.69347
G1 X86.201 Y154.165 E9.72064
G1 X86.31 Y152.317 E9.7485
G1 X86.385 Y150.43 E9.77691
G1 X86.421 Y148.64 E9.80386
G1 X86.422 Y146.783 E9.8318
G1 X86.388 Y144.995 E9.85871
G1 X86.315 Y143.108 E9.88713
G1 X86.212 Y141.322 E9.91405
G1 X86.067 Y139.457 E9.9422
G1 X85.883 Y137.582 E9.97055
G1 X85.673 Y135.797 E9.9976
G1 X85.417 Y133.931 E10.02594
G1 X85.138 Y132.157 E10.05297
G1 X84.823 Y130.381 E10.08011
G1 X84.443 Y128.453 E10.10968
G1 X84.381 Y127.316 E10.12682
G1 X84.636 Y126.205 E10.14397
G1 X85.187 Y125.209 E10.1611
G1 X85.993 Y124.404 E10.17824
G1 X86.99 Y123.853 E10.19538
G1 X88.101 Y123.599 E10.21253
G1 X88.446 Y123.584 E10.21773
G1 X96.591 Y123.584 E10.3403
G1 X96.154 Y123.045 E10.35074
G1 X95.385 Y121.935 E10.37106
G1 X95.143 Y121.54 E10.37803
G1 X94.489 Y120.32 E10.39887
G1 X94.291 Y119.893 E10.40595
G1 X93.771 Y118.579 E10.42721
G1 X93.621 Y118.124 E10.43442
G1 X93.267 Y116.79 E10.45519
G1 X93.173 Y116.33 E10.46226
G1 X92.974 Y114.96 E10.48309
G1 X92.934 Y114.495 E10.49011
G1 X92.894 Y113.144 E10.51045
G1 X92.907 Y112.676 E10.5175
G1 X93.027 Y111.269 E10.53875
G1 X93.095 Y110.797 E10.54593
G1 X93.373 Y109.44 E10.56677
G1 X93.492 Y108.99 E10.57378
G1 X93.921 Y107.679 E10.59453
G1 X94.094 Y107.24 E10.60163
G1 X94.673 Y105.984 E10.62245
G1 X94.896 Y105.565 E10.62959
G1 X95.617 Y104.385 E10.6504
G1 X95.88 Y104.005 E10.65735
G1 X96.711 Y102.938 E10.6777
G1 X97.021 Y102.585 E10.68477
G1 X98.012 Y101.577 E10.70605
G1 X98.362 Y101.259 E10.71316
G1 X99.44 Y100.391 E10.73399
G1 X99.824 Y100.117 E10.74109
G1 X100.992 Y99.381 E10.76186
G1 X101.403 Y99.154 E10.76893
G1 X102.652 Y98.555 E10.78977
G1 X103.092 Y98.375 E10.79693
G1 X104.398 Y97.927 E10.81771
G1 X104.847 Y97.801 E10.82472
G1 X106.199 Y97.504 E10.84555
G1 X106.664 Y97.43 E10.85264
G1 X108.04 Y97.291 E10.87345
G1 X108.506 Y97.27 E10.88047
G1 X109.885 Y97.289 E10.90123
G1 X110.356 Y97.323 E10.90833
G1 X111.73 Y97.502 E10.92918
G1 X112.195 Y97.591 E10.93631
G1 X113.535 Y97.927 E10.9571
G1 X113.976 Y98.064 E10.96405
G1 X115.245 Y98.54 E10.98444
G1 X115.676 Y98.731 E10.99154
G1 X116.93 Y99.375 E11.01275
G1 X117.336 Y99.614 E11.01984
G1 X118.462 Y100.368 E11.04023
G1 X118.834 Y100.649 E11.04725
G1 X119.886 Y101.543 E11.06802
G1 X120.225 Y101.866 E11.07507
G1 X121.17 Y102.877 E11.09589
G1 X121.468 Y103.235 E11.1029
G1 X122.29 Y104.345 E11.12369
G1 X122.549 Y104.74 E11.1308
G1 X123.238 Y105.939 E11.15161
G1 X123.448 Y106.359 E11.15867
G1 X123.994 Y107.628 E11.17946
G1 X124.156 Y108.076 E11.18663
G1 X124.559 Y109.429 E11.20788
G1 X124.668 Y109.889 E11.21499
G1 X124.907 Y111.252 E11.23581
G1 X125.027 Y112.646 E11.25687
G1 X125.027 Y114.029 E11.27768
G1 X125 Y114.498 E11.28475
G1 X124.841 Y115.873 E11.30558
G1 X124.76 Y116.338 E11.31268
G1 X124.444 Y117.682 E11.33346
G1 X124.312 Y118.127 E11.34044
G1 X123.855 Y119.4 E11.3608
G1 X123.671 Y119.832 E11.36786
G1 X123.044 Y121.098 E11.38912
G1 X122.811 Y121.508 E11.39622
G1 X122.057 Y122.67 E11.41707
G1 X121.777 Y123.051 E11.42418
G1 X120.897 Y124.114 E11.44495
G1 X120.575 Y124.46 E11.45206
G1 X119.706 Y125.292 E11.47016
G1 X120.856 Y125.927 E11.48993
G1 X121.243 Y126.17 E11.49681
G1 X122.337 Y126.945 E11.51699
G1 X122.694 Y127.228 E11.52384
G1 X123.698 Y128.123 E11.54408
G1 X124.021 Y128.446 E11.55096
G1 X124.919 Y129.448 E11.5712
G1 X125.207 Y129.807 E11.57813
G1 X125.986 Y130.903 E11.59836
G1 X126.229 Y131.29 E11.60524
G1 X126.881 Y132.467 E11.62549
G1 X127.079 Y132.878 E11.63235
G1 X127.595 Y134.119 E11.65258
G1 X127.747 Y134.551 E11.65947
G1 X128.121 Y135.843 E11.67971
G1 X128.223 Y136.289 E11.6866
G1 X128.45 Y137.615 E11.70684
G1 X128.502 Y138.069 E11.71372
G1 X128.579 Y139.412 E11.73396
G1 X128.586 Y139.646 E11.73748
G1 X128.587 Y155.68 E11.97877
G1 X128.581 Y155.908 E11.9822
G1 X128.507 Y157.232 E12.00216
G1 X128.456 Y157.687 E12.00905
G1 X128.231 Y159.013 E12.02929
G1 X128.13 Y159.455 E12.03611
G1 X127.759 Y160.748 E12.05635
G1 X127.605 Y161.188 E12.06337
G1 X127.089 Y162.43 E12.08361
G1 X126.893 Y162.836 E12.09039
G1 X126.242 Y164.016 E12.11067
G1 X125.999 Y164.404 E12.11756
G1 X125.223 Y165.499 E12.13776
G1 X124.937 Y165.858 E12.14466
G1 X124.041 Y166.861 E12.1649
G1 X123.719 Y167.183 E12.17176
G1 X122.716 Y168.081 E12.19202
G1 X121.556 Y168.936 E12.2137
G1 X121.927 Y169.722 E12.22678
G1 X122.17 Y170.906 E12.24497
G1 X122.189 Y171.304 E12.25097
G1 X122.188 Y203.311 E12.73262
G1 X122.028 Y204.507 E12.75078
