;FLAVOR:Marlin
;TIME:2695
;Filament used: 1.01654m, 0m
;Layer height: 0.2
;MINX:86.469
;MINY:129.979
;MINZ:0.2
;MAXX:123.532
;MAXY:167.019
;MAXZ:38
;Generated with StratosEngine 1.6.0
T0
M82 ;absolute extrusion mode
;Machine Model: Sigma R19 
;Materials used: T0 ABS  
;Extruders used: T0 0.4  
M141 S0 	;Set chamber temperature 
M140 S100 	;Heat build surface
M104 T0 S235	;Heat extruder 0
M190 S100 	;Wait until bed temperature reached 
M109 T0 S235	;Heat extruder 0 and wait
G21 		;metric values 
G90 		;absolute positioning 
M204 S600 	;set default acceleration 
M205 X12.5 Y12.5 ;set default jerk 
M107 		;start with the fan off 
G28 X0 Y0 	;move X/Y to min endstops 
G28 Z0 		;move Z to min endstops 
G1 Z5 F200 	;safety Z axis movement

T0
G92 E0 		;set zero the extruded length 
G1 E15 F30
G92 E0 
G4 S2 		;stabilize hotend 
G1 E-0.5 F1000 
G92 E0

G4 P1
G4 P2
G4 P3

G92 E0
;LAYER_COUNT:190
;LAYER:0
M107
M204 S627
M205 X9.38 Y9.38
G1 F600 Z0.6
G0 F6030 X105.723 Y167.019 Z0.6
M204 S470
;TYPE:SKIRT
G1 F600 Z0.2
G1 F1050 E0
G1 F2010 X104.268 Y167.019 E0.0219
G1 X103.726 Y166.99 E0.03006
G1 X102.265 Y166.832 E0.05218
G1 X101.717 Y166.742 E0.06053
G1 X100.29 Y166.426 E0.08253
G1 X99.773 Y166.282 E0.0906
G1 X98.397 Y165.819 E0.11245
G1 X97.887 Y165.616 E0.12071
G1 X96.556 Y165 E0.14278
G1 X96.074 Y164.744 E0.151
G1 X94.818 Y163.988 E0.17306
G1 X94.363 Y163.679 E0.18133
G1 X93.204 Y162.796 E0.20326
G1 X92.79 Y162.444 E0.21144
G1 X91.728 Y161.437 E0.23346
G1 X91.353 Y161.041 E0.24167
G1 X90.413 Y159.933 E0.26353
G1 X90.083 Y159.498 E0.27175
G1 X89.255 Y158.275 E0.29398
G1 X88.974 Y157.808 E0.30218
G1 X88.295 Y156.526 E0.32401
G1 X88.07 Y156.04 E0.33207
G1 X87.524 Y154.676 E0.35418
G1 X87.345 Y154.144 E0.36262
G1 X86.959 Y152.745 E0.38446
G1 X86.843 Y152.218 E0.39258
G1 X86.606 Y150.77 E0.41466
G1 X86.547 Y150.225 E0.42291
G1 X86.469 Y148.764 E0.44493
G1 X86.469 Y148.227 E0.45301
G1 X86.547 Y146.764 E0.47506
G1 X86.607 Y146.21 E0.48344
G1 X86.846 Y144.764 E0.5055
G1 X86.964 Y144.233 E0.51369
G1 X87.353 Y142.837 E0.53549
G1 X87.524 Y142.329 E0.54356
G1 X88.066 Y140.965 E0.56565
G1 X88.298 Y140.463 E0.57397
G1 X88.979 Y139.18 E0.59583
G1 X89.262 Y138.71 E0.60408
G1 X90.093 Y137.487 E0.62633
G1 X90.42 Y137.058 E0.63445
G1 X91.359 Y135.952 E0.65628
G1 X91.738 Y135.552 E0.66458
G1 X92.803 Y134.545 E0.68663
G1 X93.217 Y134.194 E0.6948
G1 X94.375 Y133.314 E0.71669
G1 X94.827 Y133.007 E0.72491
G1 X96.083 Y132.252 E0.74696
G1 X96.565 Y131.997 E0.75517
G1 X97.895 Y131.382 E0.77722
G1 X98.401 Y131.181 E0.78541
G1 X99.781 Y130.716 E0.80733
G1 X100.308 Y130.57 E0.81556
G1 X101.732 Y130.257 E0.8375
G1 X102.273 Y130.168 E0.84575
G1 X103.736 Y130.01 E0.86789
G1 X104.27 Y129.981 E0.87594
G1 X105.709 Y129.979 E0.89759
G1 X106.259 Y130.008 E0.90588
G1 X107.736 Y130.168 E0.92824
G1 X108.278 Y130.257 E0.9365
G1 X109.702 Y130.571 E0.95845
G1 X110.227 Y130.717 E0.96665
G1 X111.606 Y131.182 E0.98855
G1 X112.113 Y131.384 E0.99676
G1 X113.442 Y131.999 E1.0188
G1 X113.924 Y132.255 E1.02701
G1 X115.182 Y133.012 E1.0491
G1 X115.637 Y133.321 E1.05738
G1 X116.796 Y134.204 E1.07931
G1 X117.21 Y134.556 E1.08748
G1 X118.272 Y135.563 E1.10951
G1 X118.647 Y135.959 E1.11772
G1 X119.584 Y137.063 E1.13951
G1 X119.913 Y137.497 E1.1477
G1 X120.743 Y138.722 E1.16997
G1 X121.025 Y139.19 E1.17819
G1 X121.704 Y140.472 E1.20002
G1 X121.929 Y140.958 E1.20808
G1 X122.477 Y142.327 E1.23027
G1 X122.656 Y142.859 E1.23872
G1 X123.04 Y144.25 E1.26043
G1 X123.155 Y144.775 E1.26852
G1 X123.393 Y146.225 E1.29063
G1 X123.453 Y146.769 E1.29887
G1 X123.532 Y148.233 E1.32093
G1 X123.532 Y148.774 E1.32907
G1 X123.454 Y150.233 E1.35106
G1 X123.393 Y150.787 E1.35945
G1 X123.153 Y152.237 E1.38157
G1 X123.036 Y152.767 E1.38973
G1 X122.647 Y154.163 E1.41154
G1 X122.476 Y154.671 E1.41961
G1 X121.934 Y156.035 E1.44169
G1 X121.702 Y156.537 E1.45002
G1 X121.022 Y157.818 E1.47184
G1 X120.739 Y158.287 E1.48008
G1 X119.907 Y159.512 E1.50237
G1 X119.58 Y159.942 E1.5105
G1 X118.641 Y161.048 E1.53233
G1 X118.262 Y161.448 E1.54062
G1 X117.199 Y162.453 E1.56264
G1 X116.788 Y162.802 E1.57075
G1 X115.626 Y163.686 E1.59272
G1 X115.169 Y163.996 E1.60103
G1 X113.915 Y164.749 E1.62304
G1 X113.437 Y165.002 E1.63118
G1 X112.104 Y165.619 E1.65329
G1 X111.591 Y165.823 E1.66159
G1 X110.209 Y166.287 E1.68353
G1 X109.685 Y166.432 E1.69171
G1 X108.268 Y166.743 E1.71355
G1 X107.732 Y166.831 E1.72172
G1 X106.267 Y166.99 E1.74389
G1 X105.723 Y167.019 E1.75209
M204 S627
G0 F6030 X105.723 Y166.539
M204 S470
G1 F2010 X104.268 Y166.539 E1.77399
G1 X103.778 Y166.513 E1.78137
G1 X102.317 Y166.355 E1.80349
G1 X101.821 Y166.273 E1.81105
G1 X100.394 Y165.957 E1.83305
G1 X99.926 Y165.827 E1.84036
G1 X98.55 Y165.364 E1.8622
G1 X98.089 Y165.18 E1.86967
G1 X96.758 Y164.564 E1.89174
G1 X96.321 Y164.333 E1.89918
G1 X95.065 Y163.577 E1.92124
G1 X94.654 Y163.297 E1.92873
G1 X93.495 Y162.414 E1.95065
G1 X93.12 Y162.096 E1.95805
G1 X92.058 Y161.089 E1.98007
G1 X91.719 Y160.73 E1.9875
G1 X90.779 Y159.622 E2.00937
G1 X90.48 Y159.228 E2.01681
G1 X89.652 Y158.005 E2.03904
G1 X89.398 Y157.583 E2.04645
G1 X88.719 Y156.301 E2.06828
G1 X88.516 Y155.862 E2.07556
G1 X87.97 Y154.498 E2.09767
G1 X87.807 Y154.016 E2.10533
G1 X87.421 Y152.617 E2.12717
G1 X87.317 Y152.141 E2.1345
G1 X87.08 Y150.693 E2.15658
G1 X87.026 Y150.199 E2.16406
G1 X86.948 Y148.738 E2.18607
G1 X86.948 Y148.252 E2.19339
G1 X87.026 Y146.789 E2.21543
G1 X87.081 Y146.288 E2.22302
G1 X87.32 Y144.842 E2.24507
G1 X87.426 Y144.362 E2.25247
G1 X87.815 Y142.966 E2.27428
G1 X87.97 Y142.506 E2.28158
G1 X88.512 Y141.142 E2.30367
G1 X88.722 Y140.688 E2.3112
G1 X89.403 Y139.405 E2.33306
G1 X89.659 Y138.98 E2.34052
G1 X90.49 Y137.757 E2.36277
G1 X90.786 Y137.369 E2.37012
G1 X91.725 Y136.263 E2.39195
G1 X92.068 Y135.901 E2.39946
G1 X93.133 Y134.894 E2.42151
G1 X93.507 Y134.576 E2.4289
G1 X94.665 Y133.696 E2.45079
G1 X95.075 Y133.419 E2.45823
G1 X96.331 Y132.664 E2.48029
G1 X96.766 Y132.433 E2.4877
G1 X98.096 Y131.818 E2.50975
G1 X98.554 Y131.636 E2.51716
G1 X99.934 Y131.171 E2.53908
G1 X100.411 Y131.038 E2.54653
G1 X101.835 Y130.725 E2.56847
G1 X102.324 Y130.645 E2.57593
G1 X103.787 Y130.487 E2.59807
G1 X104.271 Y130.461 E2.60537
G1 X105.71 Y130.459 E2.62702
G1 X106.207 Y130.486 E2.63451
G1 X107.684 Y130.646 E2.65687
G1 X108.175 Y130.726 E2.66435
G1 X109.599 Y131.04 E2.6863
G1 X110.074 Y131.172 E2.69372
G1 X111.453 Y131.637 E2.71562
G1 X111.911 Y131.82 E2.72304
G1 X113.24 Y132.435 E2.74507
G1 X113.676 Y132.666 E2.7525
G1 X114.934 Y133.423 E2.77459
G1 X115.346 Y133.703 E2.78209
G1 X116.505 Y134.586 E2.80402
G1 X116.88 Y134.904 E2.81141
G1 X117.942 Y135.911 E2.83344
G1 X118.281 Y136.269 E2.84086
G1 X119.218 Y137.373 E2.86265
G1 X119.516 Y137.766 E2.87007
G1 X120.346 Y138.991 E2.89234
G1 X120.601 Y139.415 E2.89978
G1 X121.28 Y140.697 E2.92161
G1 X121.483 Y141.136 E2.92889
G1 X122.031 Y142.505 E2.95108
G1 X122.194 Y142.987 E2.95874
G1 X122.578 Y144.378 E2.98046
G1 X122.682 Y144.852 E2.98776
G1 X122.92 Y146.302 E3.00987
G1 X122.973 Y146.795 E3.01733
G1 X123.052 Y148.259 E3.0394
G1 X123.052 Y148.748 E3.04675
G1 X122.974 Y150.207 E3.06874
G1 X122.92 Y150.709 E3.07634
G1 X122.68 Y152.159 E3.09846
G1 X122.574 Y152.638 E3.10584
G1 X122.185 Y154.034 E3.12765
G1 X122.03 Y154.494 E3.13495
G1 X121.488 Y155.858 E3.15704
G1 X121.278 Y156.312 E3.16457
G1 X120.598 Y157.593 E3.18639
G1 X120.342 Y158.017 E3.19384
G1 X119.51 Y159.242 E3.21613
G1 X119.214 Y159.631 E3.22348
G1 X118.275 Y160.737 E3.24532
G1 X117.932 Y161.1 E3.25283
G1 X116.869 Y162.105 E3.27485
G1 X116.497 Y162.42 E3.28218
G1 X115.335 Y163.304 E3.30415
G1 X114.921 Y163.584 E3.31167
G1 X113.667 Y164.337 E3.33369
G1 X113.235 Y164.566 E3.34104
G1 X111.902 Y165.183 E3.36315
G1 X111.438 Y165.368 E3.37066
G1 X110.056 Y165.832 E3.3926
G1 X109.583 Y165.963 E3.39999
G1 X108.166 Y166.274 E3.42182
G1 X107.68 Y166.353 E3.42923
G1 X106.215 Y166.512 E3.4514
G1 X105.723 Y166.539 E3.45882
M204 S627
G0 F6030 X105.723 Y166.059
M204 S470
G1 F2010 X104.268 Y166.059 E3.48071
G1 X103.829 Y166.035 E3.48733
G1 X102.368 Y165.877 E3.50944
G1 X101.925 Y165.804 E3.5162
G1 X100.498 Y165.488 E3.5382
G1 X100.079 Y165.372 E3.54474
G1 X98.703 Y164.909 E3.56659
G1 X98.29 Y164.745 E3.57327
G1 X96.959 Y164.129 E3.59534
G1 X96.569 Y163.922 E3.60199
G1 X95.313 Y163.166 E3.62405
G1 X94.944 Y162.915 E3.63076
G1 X93.785 Y162.032 E3.65269
G1 X93.451 Y161.748 E3.65929
G1 X92.389 Y160.741 E3.68131
G1 X92.085 Y160.419 E3.68798
G1 X91.145 Y159.311 E3.70984
G1 X90.877 Y158.959 E3.7165
G1 X90.049 Y157.736 E3.73872
G1 X89.822 Y157.359 E3.74535
G1 X89.143 Y156.077 E3.76718
G1 X88.961 Y155.683 E3.77371
G1 X88.415 Y154.319 E3.79582
G1 X88.27 Y153.888 E3.80266
G1 X87.884 Y152.489 E3.8245
G1 X87.791 Y152.063 E3.83106
G1 X87.554 Y150.615 E3.85314
G1 X87.506 Y150.174 E3.85982
G1 X87.428 Y148.713 E3.88183
G1 X87.428 Y148.278 E3.88838
G1 X87.506 Y146.815 E3.91043
G1 X87.555 Y146.367 E3.91721
G1 X87.794 Y144.921 E3.93927
G1 X87.889 Y144.491 E3.94589
G1 X88.278 Y143.095 E3.9677
G1 X88.416 Y142.683 E3.97424
G1 X88.958 Y141.319 E3.99633
G1 X89.146 Y140.913 E4.00306
G1 X89.827 Y139.63 E4.02492
G1 X90.056 Y139.25 E4.03159
G1 X90.887 Y138.027 E4.05384
G1 X91.152 Y137.679 E4.06043
G1 X92.091 Y136.573 E4.08226
G1 X92.398 Y136.249 E4.08898
G1 X93.463 Y135.242 E4.11103
G1 X93.797 Y134.959 E4.11762
G1 X94.955 Y134.079 E4.13951
G1 X95.322 Y133.83 E4.14618
G1 X96.578 Y133.075 E4.16823
G1 X96.968 Y132.869 E4.17487
G1 X98.298 Y132.254 E4.19692
G1 X98.707 Y132.091 E4.20355
G1 X100.087 Y131.626 E4.22546
G1 X100.514 Y131.507 E4.23213
G1 X101.938 Y131.194 E4.25407
G1 X102.376 Y131.123 E4.26075
G1 X103.839 Y130.965 E4.28289
G1 X104.271 Y130.941 E4.28941
G1 X105.71 Y130.939 E4.31106
G1 X106.155 Y130.963 E4.31777
G1 X107.632 Y131.123 E4.34012
G1 X108.072 Y131.195 E4.34683
G1 X109.496 Y131.509 E4.36878
G1 X109.921 Y131.627 E4.37541
G1 X111.3 Y132.092 E4.39731
G1 X111.709 Y132.255 E4.40394
G1 X113.038 Y132.87 E4.42598
G1 X113.429 Y133.077 E4.43263
G1 X114.687 Y133.834 E4.45473
G1 X115.056 Y134.085 E4.46144
G1 X116.215 Y134.968 E4.48337
G1 X116.549 Y135.252 E4.48997
G1 X117.611 Y136.259 E4.51199
G1 X117.915 Y136.58 E4.51864
G1 X118.852 Y137.684 E4.54043
G1 X119.119 Y138.035 E4.54707
G1 X119.949 Y139.26 E4.56934
G1 X120.177 Y139.639 E4.57599
G1 X120.856 Y140.921 E4.59783
G1 X121.038 Y141.315 E4.60436
G1 X121.586 Y142.684 E4.62655
G1 X121.731 Y143.114 E4.63338
G1 X122.115 Y144.505 E4.65509
G1 X122.208 Y144.93 E4.66164
G1 X122.446 Y146.38 E4.68375
G1 X122.494 Y146.821 E4.69043
G1 X122.573 Y148.285 E4.71249
G1 X122.573 Y148.723 E4.71908
G1 X122.495 Y150.182 E4.74107
G1 X122.446 Y150.63 E4.74785
G1 X122.206 Y152.08 E4.76997
G1 X122.111 Y152.509 E4.77658
G1 X121.722 Y153.905 E4.79839
G1 X121.584 Y154.317 E4.80492
G1 X121.042 Y155.681 E4.82701
G1 X120.854 Y156.087 E4.83374
G1 X120.174 Y157.368 E4.85557
G1 X119.945 Y157.747 E4.86223
G1 X119.113 Y158.972 E4.88452
G1 X118.848 Y159.321 E4.89111
G1 X117.909 Y160.427 E4.91294
G1 X117.602 Y160.751 E4.91966
G1 X116.539 Y161.756 E4.94168
G1 X116.206 Y162.038 E4.94824
G1 X115.044 Y162.922 E4.97021
G1 X114.674 Y163.173 E4.97694
G1 X113.42 Y163.926 E4.99895
G1 X113.034 Y164.131 E5.00553
G1 X111.701 Y164.748 E5.02763
G1 X111.286 Y164.913 E5.03435
G1 X109.904 Y165.377 E5.05629
G1 X109.48 Y165.494 E5.06291
G1 X108.063 Y165.805 E5.08474
G1 X107.628 Y165.876 E5.09138
G1 X106.163 Y166.035 E5.11355
G1 X105.723 Y166.059 E5.12018
M204 S627
G0 F6030 X105.723 Y165.579
M204 S470
G1 F2010 X104.268 Y165.579 E5.14208
G1 X103.881 Y165.558 E5.14791
G1 X102.42 Y165.4 E5.17002
G1 X102.029 Y165.336 E5.17599
G1 X100.602 Y165.02 E5.19798
G1 X100.232 Y164.917 E5.20376
G1 X98.856 Y164.454 E5.22561
G1 X98.492 Y164.309 E5.2315
G1 X97.161 Y163.693 E5.25357
G1 X96.816 Y163.51 E5.25945
G1 X95.56 Y162.754 E5.28151
G1 X95.235 Y162.534 E5.28742
G1 X94.076 Y161.651 E5.30934
G1 X93.781 Y161.399 E5.31518
G1 X92.719 Y160.392 E5.33721
G1 X92.451 Y160.109 E5.34307
G1 X91.511 Y159.001 E5.36494
G1 X91.275 Y158.69 E5.37081
G1 X90.447 Y157.467 E5.39304
G1 X90.247 Y157.134 E5.39888
G1 X89.568 Y155.852 E5.42071
G1 X89.407 Y155.505 E5.42647
G1 X88.861 Y154.141 E5.44858
G1 X88.733 Y153.761 E5.45461
G1 X88.347 Y152.362 E5.47645
G1 X88.264 Y151.985 E5.48226
G1 X88.027 Y150.537 E5.50434
G1 X87.985 Y150.148 E5.51023
G1 X87.907 Y148.687 E5.53225
G1 X87.907 Y148.303 E5.53803
G1 X87.985 Y146.84 E5.56007
G1 X88.028 Y146.445 E5.56605
G1 X88.267 Y144.999 E5.58811
G1 X88.351 Y144.62 E5.59395
G1 X88.74 Y143.224 E5.61576
G1 X88.862 Y142.861 E5.62152
G1 X89.404 Y141.497 E5.64361
G1 X89.57 Y141.138 E5.64956
G1 X90.251 Y139.855 E5.67142
G1 X90.453 Y139.52 E5.6773
G1 X91.284 Y138.297 E5.69956
G1 X91.518 Y137.99 E5.70536
G1 X92.457 Y136.884 E5.7272
G1 X92.728 Y136.598 E5.73313
G1 X93.793 Y135.591 E5.75518
G1 X94.088 Y135.341 E5.761
G1 X95.246 Y134.461 E5.78289
G1 X95.569 Y134.242 E5.78876
G1 X96.825 Y133.487 E5.81081
G1 X97.169 Y133.304 E5.81668
G1 X98.499 Y132.689 E5.83873
G1 X98.86 Y132.545 E5.84458
G1 X100.24 Y132.08 E5.86649
G1 X100.617 Y131.976 E5.87238
G1 X102.041 Y131.663 E5.89432
G1 X102.427 Y131.6 E5.9002
G1 X103.89 Y131.442 E5.92235
G1 X104.272 Y131.421 E5.9281
G1 X105.711 Y131.419 E5.94976
G1 X106.104 Y131.44 E5.95568
G1 X107.581 Y131.6 E5.97804
G1 X107.968 Y131.663 E5.98394
G1 X109.392 Y131.977 E6.00588
G1 X109.767 Y132.082 E6.01174
G1 X111.146 Y132.547 E6.03364
G1 X111.508 Y132.691 E6.0395
G1 X112.837 Y133.306 E6.06154
G1 X113.181 Y133.488 E6.0674
G1 X114.439 Y134.245 E6.08949
G1 X114.765 Y134.466 E6.09542
G1 X115.924 Y135.349 E6.11735
G1 X116.219 Y135.601 E6.12318
G1 X117.281 Y136.608 E6.14521
G1 X117.549 Y136.89 E6.15106
G1 X118.486 Y137.994 E6.17285
G1 X118.721 Y138.305 E6.17872
G1 X119.551 Y139.53 E6.20099
G1 X119.752 Y139.864 E6.20685
G1 X120.431 Y141.146 E6.22868
G1 X120.592 Y141.493 E6.23444
G1 X121.14 Y142.862 E6.25663
G1 X121.268 Y143.242 E6.26266
G1 X121.652 Y144.633 E6.28438
G1 X121.734 Y145.008 E6.29016
G1 X121.972 Y146.458 E6.31227
G1 X122.015 Y146.847 E6.31816
G1 X122.094 Y148.311 E6.34022
G1 X122.094 Y148.697 E6.34603
G1 X122.016 Y150.156 E6.36802
G1 X121.973 Y150.552 E6.37401
G1 X121.733 Y152.002 E6.39613
G1 X121.649 Y152.38 E6.40195
G1 X121.26 Y153.776 E6.42376
G1 X121.138 Y154.139 E6.42953
G1 X120.596 Y155.503 E6.45161
G1 X120.43 Y155.862 E6.45756
G1 X119.75 Y157.143 E6.47939
G1 X119.548 Y157.478 E6.48528
G1 X118.716 Y158.703 E6.50756
G1 X118.482 Y159.01 E6.51337
G1 X117.543 Y160.116 E6.5352
G1 X117.272 Y160.402 E6.54113
G1 X116.209 Y161.407 E6.56314
G1 X115.916 Y161.656 E6.56893
G1 X114.754 Y162.54 E6.5909
G1 X114.427 Y162.761 E6.59684
G1 X113.173 Y163.514 E6.61885
G1 X112.832 Y163.695 E6.62466
G1 X111.499 Y164.312 E6.64677
G1 X111.133 Y164.458 E6.6527
G1 X109.751 Y164.922 E6.67463
G1 X109.377 Y165.025 E6.68047
G1 X107.96 Y165.336 E6.7023
G1 X107.576 Y165.399 E6.70816
G1 X106.111 Y165.558 E6.73033
G1 X105.723 Y165.579 E6.73618
M204 S627
G0 F6030 X105.723 Y165.099
M204 S470
G1 F2010 X104.268 Y165.099 E6.75808
G1 X103.933 Y165.081 E6.76313
G1 X102.472 Y164.923 E6.78524
G1 X102.132 Y164.867 E6.79043
G1 X100.705 Y164.551 E6.81242
G1 X100.385 Y164.462 E6.81742
G1 X99.009 Y163.999 E6.83927
G1 X98.694 Y163.873 E6.84437
G1 X97.363 Y163.257 E6.86644
G1 X97.064 Y163.099 E6.87153
G1 X95.808 Y162.343 E6.89359
G1 X95.526 Y162.152 E6.89872
G1 X94.367 Y161.269 E6.92064
G1 X94.111 Y161.051 E6.9257
G1 X93.049 Y160.044 E6.94773
G1 X92.817 Y159.798 E6.95282
G1 X91.877 Y158.69 E6.97468
G1 X91.672 Y158.421 E6.97977
G1 X90.844 Y157.198 E7.002
G1 X90.671 Y156.909 E7.00706
G1 X89.992 Y155.627 E7.0289
G1 X89.852 Y155.326 E7.03389
G1 X89.306 Y153.962 E7.056
G1 X89.195 Y153.633 E7.06123
G1 X88.809 Y152.234 E7.08306
G1 X88.738 Y151.908 E7.08809
G1 X88.501 Y150.46 E7.11017
G1 X88.464 Y150.122 E7.11528
G1 X88.386 Y148.661 E7.1373
G1 X88.386 Y148.329 E7.1423
G1 X88.464 Y146.866 E7.16434
G1 X88.502 Y146.523 E7.16954
G1 X88.741 Y145.077 E7.19159
G1 X88.814 Y144.749 E7.19665
G1 X89.203 Y143.353 E7.21846
G1 X89.309 Y143.038 E7.22346
G1 X89.851 Y141.674 E7.24554
G1 X89.994 Y141.363 E7.2507
G1 X90.675 Y140.08 E7.27255
G1 X90.85 Y139.79 E7.27765
