;FLAVOR:Marlin
;TIME:5993
;Filament used: 1.47479m, 0m
;Layer height: 0.15
;MINX:40.728
;MINY:84.234
;MINZ:0.2
;MAXX:169.272
;MAXY:212.766
;MAXZ:5.9
;Generated with StratosEngine 1.6.0
T0
M82 ;absolute extrusion mode
;Machine Model: Sigma R19 
;Materials used: T0 ABS  
;Extruders used: T0 0.4  
M141 S0 	;Set chamber temperature 
M140 S100 	;Heat build surface
M104 T0 S235	;Heat extruder 0
M190 S100 	;Wait until bed temperature reached 
M109 T0 S235	;Heat extruder 0 and wait
G21 		;metric values 
G90 		;absolute positioning 
M204 S600 	;set default acceleration 
M205 X12.5 Y12.5 ;set default jerk 
M107 		;start with the fan off 
G28 X0 Y0 	;move X/Y to min endstops 
G28 Z0 		;move Z to min endstops 
G1 Z5 F200 	;safety Z axis movement

T0
G92 E0 		;set zero the extruded length 
G1 E15 F30
G92 E0 
G4 S2 		;stabilize hotend 
G1 E-0.5 F1000 
G92 E0

G4 P1
G4 P2
G4 P3

G92 E0
;LAYER_COUNT:39
;LAYER:0
M107
M204 S627
M205 X9.38 Y9.38
G1 F600 Z0.5
G0 F6030 X105.78 Y212.766 Z0.5
M204 S470
;TYPE:SKIRT
G1 F600 Z0.2
G1 F1050 E0
G1 F2010 X104.14 Y212.765 E0.02468
G1 X102.498 Y212.722 E0.0494
G1 X100.861 Y212.637 E0.07406
G1 X99.225 Y212.511 E0.09876
G1 X97.589 Y212.343 E0.12351
G1 X96.04 Y212.144 E0.14701
G1 X94.342 Y211.881 E0.17286
G1 X92.722 Y211.588 E0.19764
G1 X91.121 Y211.254 E0.22225
G1 X89.514 Y210.879 E0.24708
G1 X87.932 Y210.463 E0.2717
G1 X86.354 Y210.007 E0.29642
G1 X84.866 Y209.536 E0.3199
G1 X83.237 Y208.973 E0.34584
G1 X81.706 Y208.399 E0.37045
G1 X80.175 Y207.784 E0.39527
G1 X78.674 Y207.131 E0.41991
G1 X77.185 Y206.439 E0.44462
G1 X75.713 Y205.71 E0.46933
G1 X74.261 Y204.943 E0.49405
G1 X72.831 Y204.14 E0.51873
G1 X71.42 Y203.301 E0.54343
G1 X70.029 Y202.424 E0.56817
G1 X68.666 Y201.514 E0.59284
G1 X67.326 Y200.57 E0.6175
G1 X66.002 Y199.588 E0.64231
G1 X64.715 Y198.578 E0.66693
G1 X63.446 Y197.531 E0.69169
G1 X62.211 Y196.456 E0.71632
G1 X60.996 Y195.345 E0.7411
G1 X59.817 Y194.207 E0.76576
G1 X58.666 Y193.04 E0.79043
G1 X57.54 Y191.84 E0.81519
G1 X56.45 Y190.614 E0.83987
G1 X55.393 Y189.363 E0.86452
G1 X54.36 Y188.078 E0.88933
G1 X53.369 Y186.775 E0.91397
G1 X52.454 Y185.509 E0.93747
G1 X51.48 Y184.087 E0.96341
G1 X50.591 Y182.709 E0.98809
G1 X49.736 Y181.31 E1.01276
G1 X48.914 Y179.886 E1.0375
G1 X48.131 Y178.444 E1.0622
G1 X47.385 Y176.983 E1.08688
G1 X46.71 Y175.576 E1.11037
G1 X46.007 Y174.004 E1.13628
G1 X45.373 Y172.488 E1.16101
G1 X44.808 Y171.032 E1.18451
G1 X44.226 Y169.411 E1.21043
G1 X43.713 Y167.855 E1.23508
G1 X43.26 Y166.362 E1.25856
G1 X42.805 Y164.7 E1.28449
G1 X42.41 Y163.104 E1.30924
G1 X42.058 Y161.501 E1.33393
G1 X41.747 Y159.889 E1.35864
G1 X41.477 Y158.271 E1.38332
G1 X41.248 Y156.645 E1.40803
G1 X41.061 Y155.015 E1.43272
G1 X40.914 Y153.378 E1.45746
G1 X40.811 Y151.741 E1.48214
G1 X40.749 Y150.103 E1.50681
G1 X40.728 Y148.459 E1.53155
G1 X40.736 Y147.897 E1.54001
G1 X40.772 Y146.254 E1.56474
G1 X40.85 Y144.616 E1.58941
G1 X40.97 Y142.976 E1.61416
G1 X41.133 Y141.346 E1.63881
G1 X41.338 Y139.701 E1.66376
G1 X41.668 Y137.584 E1.696
G1 X42.073 Y135.425 E1.72906
G1 X42.407 Y133.899 E1.75256
G1 X42.806 Y132.296 E1.77742
G1 X43.26 Y130.644 E1.8032
G1 X43.736 Y129.068 E1.82798
G1 X44.253 Y127.512 E1.85265
G1 X44.808 Y125.968 E1.87734
G1 X45.404 Y124.436 E1.90208
G1 X46.039 Y122.923 E1.92677
G1 X46.709 Y121.429 E1.95141
G1 X47.42 Y119.945 E1.97617
G1 X48.131 Y118.555 E1.99967
G1 X48.914 Y117.114 E2.02435
G1 X49.736 Y115.69 E2.04909
G1 X50.591 Y114.291 E2.07376
G1 X51.482 Y112.913 E2.09846
G1 X52.407 Y111.559 E2.12314
G1 X53.37 Y110.225 E2.14789
G1 X54.36 Y108.922 E2.17252
G1 X55.393 Y107.637 E2.19733
G1 X56.45 Y106.386 E2.22198
G1 X57.54 Y105.16 E2.24666
G1 X58.666 Y103.96 E2.27143
G1 X59.814 Y102.794 E2.29605
G1 X59.874 Y102.734 E2.29733
G1 X61.055 Y101.601 E2.32195
G1 X62.269 Y100.491 E2.34671
G1 X63.51 Y99.415 E2.37143
G1 X64.774 Y98.375 E2.39606
G1 X66.068 Y97.363 E2.42078
G1 X67.387 Y96.384 E2.4455
G1 X68.732 Y95.439 E2.47023
G1 X70.096 Y94.533 E2.49488
G1 X71.488 Y93.656 E2.51963
G1 X72.902 Y92.818 E2.54437
G1 X74.331 Y92.019 E2.56901
G1 X75.713 Y91.29 E2.59252
G1 X77.257 Y90.526 E2.61844
G1 X78.675 Y89.869 E2.64196
G1 X80.254 Y89.185 E2.66786
G1 X81.775 Y88.574 E2.69252
G1 X83.312 Y88 E2.71721
G1 X84.866 Y87.464 E2.74195
G1 X86.429 Y86.971 E2.76661
G1 X88.009 Y86.515 E2.79136
G1 X89.598 Y86.102 E2.81607
G1 X91.195 Y85.73 E2.84074
G1 X92.803 Y85.398 E2.86545
G1 X94.42 Y85.106 E2.89018
G1 X95.965 Y84.868 E2.9137
G1 X97.67 Y84.648 E2.93957
G1 X99.305 Y84.482 E2.9643
G1 X100.939 Y84.358 E2.98896
G1 X102.579 Y84.275 E3.01367
G1 X104.22 Y84.234 E3.03837
G1 X105.779 Y84.234 E3.06184
G1 X107.422 Y84.275 E3.08657
G1 X109.06 Y84.358 E3.11125
G1 X110.696 Y84.482 E3.13594
G1 X112.328 Y84.647 E3.16062
G1 X113.963 Y84.858 E3.18543
G1 X115.58 Y85.106 E3.21005
G1 X117.197 Y85.398 E3.23478
G1 X118.805 Y85.73 E3.25948
G1 X120.402 Y86.102 E3.28416
G1 X121.993 Y86.517 E3.3089
G1 X122.068 Y86.537 E3.31007
G1 X123.645 Y86.993 E3.33477
G1 X125.134 Y87.464 E3.35828
G1 X126.688 Y88 E3.38301
G1 X128.225 Y88.574 E3.4077
G1 X129.822 Y89.216 E3.4336
G1 X131.255 Y89.837 E3.45711
G1 X132.742 Y90.525 E3.48176
G1 X134.287 Y91.29 E3.50771
G1 X135.738 Y92.057 E3.53241
G1 X137.17 Y92.86 E3.55711
G1 X138.512 Y93.658 E3.58061
G1 X139.971 Y94.576 E3.60655
G1 X141.334 Y95.486 E3.63121
G1 X142.676 Y96.431 E3.65591
G1 X143.93 Y97.361 E3.6794
G1 X145.288 Y98.423 E3.70535
G1 X146.553 Y99.468 E3.73004
G1 X147.789 Y100.544 E3.7547
G1 X149.003 Y101.654 E3.77945
G1 X150.183 Y102.793 E3.80413
G1 X151.333 Y103.959 E3.82878
G1 X152.46 Y105.159 E3.85355
G1 X153.55 Y106.386 E3.87825
G1 X154.608 Y107.639 E3.90293
G1 X155.637 Y108.919 E3.92764
G1 X156.631 Y110.226 E3.95235
G1 X157.591 Y111.556 E3.97703
G1 X158.518 Y112.912 E4.00175
G1 X159.367 Y114.223 E4.02526
G1 X160.265 Y115.691 E4.05115
G1 X161.084 Y117.111 E4.07582
G1 X161.831 Y118.482 E4.09932
G1 X162.615 Y120.016 E4.12524
G1 X163.29 Y121.423 E4.14873
G1 X163.993 Y122.996 E4.17465
G1 X164.627 Y124.512 E4.19938
G1 X165.192 Y125.968 E4.22288
G1 X165.747 Y127.512 E4.24757
G1 X166.263 Y129.071 E4.27229
G1 X166.739 Y130.642 E4.29699
G1 X167.175 Y132.224 E4.32168
G1 X167.571 Y133.816 E4.34637
G1 X167.926 Y135.421 E4.37111
G1 X168.239 Y137.033 E4.39582
G1 X168.511 Y138.65 E4.42049
G1 X168.742 Y140.274 E4.44518
G1 X168.931 Y141.907 E4.46992
G1 X169.086 Y143.62 E4.4958
G1 X169.19 Y145.259 E4.52051
G1 X169.251 Y146.897 E4.54518
G1 X169.272 Y148.54 E4.56991
G1 X169.25 Y150.184 E4.59465
G1 X169.185 Y151.818 E4.61926
G1 X169.087 Y153.376 E4.64275
G1 X168.939 Y155.018 E4.66756
G1 X168.752 Y156.645 E4.6922
G1 X168.524 Y158.27 E4.7169
G1 X168.512 Y158.351 E4.71813
G1 X168.24 Y159.97 E4.74283
G1 X167.942 Y161.503 E4.76633
G1 X167.572 Y163.185 E4.79225
G1 X167.176 Y164.781 E4.817
G1 X166.761 Y166.285 E4.84047
G1 X166.263 Y167.929 E4.86632
G1 X165.747 Y169.488 E4.89104
G1 X165.192 Y171.032 E4.91573
G1 X164.596 Y172.564 E4.94046
G1 X163.961 Y174.077 E4.96516
G1 X163.291 Y175.571 E4.9898
G1 X162.581 Y177.052 E5.01451
G1 X161.832 Y178.518 E5.03929
G1 X161.085 Y179.889 E5.06278
G1 X160.224 Y181.378 E5.08866
G1 X159.367 Y182.775 E5.11333
G1 X158.474 Y184.153 E5.13804
G1 X157.546 Y185.508 E5.16275
G1 X156.583 Y186.838 E5.18746
G1 X155.59 Y188.14 E5.2121
G1 X154.558 Y189.424 E5.23689
G1 X153.497 Y190.675 E5.26158
G1 X152.407 Y191.897 E5.28622
G1 X151.279 Y193.1 E5.31104
G1 X150.127 Y194.263 E5.33567
G1 X148.946 Y195.398 E5.36032
G1 X147.731 Y196.51 E5.3851
G1 X146.49 Y197.585 E5.40981
G1 X145.228 Y198.624 E5.43441
G1 X144 Y199.588 E5.4579
G1 X142.612 Y200.615 E5.48389
G1 X141.272 Y201.556 E5.50853
G1 X139.901 Y202.471 E5.53333
G1 X138.578 Y203.302 E5.55684
G1 X137.101 Y204.181 E5.58271
G1 X135.74 Y204.944 E5.60619
G1 X134.284 Y205.711 E5.63095
G1 X132.743 Y206.474 E5.65683
G1 X131.325 Y207.131 E5.68035
G1 X129.746 Y207.815 E5.70624
G1 X128.225 Y208.426 E5.73091
G1 X126.688 Y209 E5.7556
G1 X125.134 Y209.536 E5.78034
G1 X123.569 Y210.03 E5.80503
G1 X121.992 Y210.484 E5.82973
G1 X120.4 Y210.899 E5.85448
G1 X118.808 Y211.269 E5.87908
G1 X117.277 Y211.587 E5.90261
G1 X115.58 Y211.894 E5.92856
G1 X114.036 Y212.132 E5.95207
G1 X112.33 Y212.352 E5.97796
G1 X110.696 Y212.518 E6.00267
G1 X109.061 Y212.642 E6.02735
G1 X107.422 Y212.725 E6.05204
G1 X105.78 Y212.766 E6.07676
M204 S627
G0 F6030 X105.78 Y212.286
M204 S470
G1 F2010 X104.152 Y212.285 E6.10126
G1 X102.523 Y212.243 E6.12578
G1 X100.964 Y212.163 E6.14927
G1 X99.273 Y212.033 E6.1748
G1 X97.651 Y211.866 E6.19933
G1 X96.034 Y211.658 E6.22387
G1 X94.427 Y211.408 E6.24834
G1 X92.819 Y211.118 E6.27293
G1 X91.29 Y210.8 E6.29643
G1 X89.636 Y210.415 E6.32199
G1 X88.065 Y210.002 E6.34643
G1 X86.499 Y209.549 E6.37096
G1 X84.947 Y209.057 E6.39546
G1 X83.405 Y208.524 E6.42001
G1 X81.885 Y207.954 E6.44444
G1 X80.366 Y207.343 E6.46908
G1 X78.876 Y206.695 E6.49353
G1 X77.398 Y206.009 E6.51805
G1 X75.937 Y205.285 E6.54259
G1 X74.496 Y204.524 E6.56711
G1 X73.076 Y203.727 E6.59162
G1 X71.676 Y202.894 E6.61613
G1 X70.296 Y202.025 E6.64067
G1 X68.942 Y201.121 E6.66517
G1 X67.612 Y200.185 E6.68965
G1 X66.356 Y199.255 E6.71317
G1 X65.02 Y198.207 E6.73872
G1 X63.761 Y197.168 E6.76328
G1 X62.535 Y196.101 E6.78774
G1 X61.329 Y194.999 E6.81233
G1 X60.158 Y193.87 E6.8368
G1 X59.016 Y192.712 E6.86128
G1 X57.898 Y191.52 E6.88587
G1 X56.816 Y190.304 E6.91037
G1 X55.767 Y189.062 E6.93483
G1 X54.742 Y187.788 E6.95944
G1 X53.758 Y186.493 E6.98391
G1 X52.806 Y185.174 E7.00839
G1 X51.883 Y183.826 E7.03298
G1 X51 Y182.459 E7.05746
G1 X50.151 Y181.07 E7.08196
G1 X49.336 Y179.657 E7.10651
G1 X48.558 Y178.226 E7.13102
G1 X47.847 Y176.835 E7.15453
G1 X47.113 Y175.304 E7.18008
G1 X46.45 Y173.819 E7.20455
G1 X45.821 Y172.314 E7.2291
G1 X45.232 Y170.795 E7.25362
G1 X44.682 Y169.261 E7.27814
G1 X44.173 Y167.716 E7.30262
G1 X43.7 Y166.153 E7.32719
G1 X43.271 Y164.584 E7.35167
G1 X42.879 Y163.001 E7.37621
G1 X42.529 Y161.41 E7.40073
G1 X42.22 Y159.81 E7.42525
G1 X41.952 Y158.204 E7.44975
G1 X41.724 Y156.59 E7.47428
G1 X41.545 Y155.037 E7.4978
G1 X41.393 Y153.347 E7.52334
G1 X41.291 Y151.722 E7.54784
G1 X41.229 Y150.097 E7.57231
G1 X41.208 Y148.466 E7.59686
G1 X41.216 Y147.907 E7.60527
G1 X41.251 Y146.277 E7.62981
G1 X41.329 Y144.651 E7.6543
G1 X41.448 Y143.024 E7.67885
G1 X41.609 Y141.405 E7.70333
G1 X41.812 Y139.775 E7.72805
G1 X42.126 Y137.752 E7.75886
G1 X42.526 Y135.607 E7.7917
G1 X42.876 Y134.002 E7.81642
G1 X43.287 Y132.351 E7.84202
G1 X43.719 Y130.783 E7.8665
G1 X44.192 Y129.219 E7.89108
G1 X44.704 Y127.675 E7.91556
G1 X45.256 Y126.142 E7.94008
G1 X45.847 Y124.621 E7.96464
G1 X46.477 Y123.12 E7.98913
G1 X47.142 Y121.636 E8.01361
G1 X47.816 Y120.227 E8.03711
G1 X48.59 Y118.715 E8.06267
G1 X49.369 Y117.283 E8.0872
G1 X50.186 Y115.872 E8.11174
G1 X51.036 Y114.486 E8.13621
G1 X51.922 Y113.118 E8.16073
G1 X52.843 Y111.773 E8.18526
G1 X53.797 Y110.454 E8.20976
G1 X54.787 Y109.155 E8.23434
G1 X55.807 Y107.889 E8.2588
G1 X56.86 Y106.646 E8.28332
G1 X57.946 Y105.427 E8.30789
G1 X59.06 Y104.243 E8.33235
G1 X60.207 Y103.08 E8.35693
G1 X61.379 Y101.955 E8.38138
G1 X62.584 Y100.853 E8.40595
G1 X63.815 Y99.785 E8.43048
G1 X65.07 Y98.752 E8.45494
G1 X66.354 Y97.748 E8.47946
G1 X67.663 Y96.777 E8.50399
G1 X68.998 Y95.839 E8.52854
G1 X70.352 Y94.939 E8.55301
G1 X71.733 Y94.069 E8.57757
G1 X73.136 Y93.237 E8.60212
G1 X74.555 Y92.444 E8.62658
G1 X75.998 Y91.684 E8.65112
G1 X77.459 Y90.962 E8.67565
G1 X78.937 Y90.278 E8.70015
G1 X80.434 Y89.63 E8.7247
G1 X81.943 Y89.023 E8.74918
G1 X83.468 Y88.454 E8.77367
G1 X85.011 Y87.922 E8.79823
G1 X86.562 Y87.432 E8.82271
G1 X88.13 Y86.979 E8.84727
G1 X89.708 Y86.569 E8.87181
G1 X91.292 Y86.2 E8.89628
G1 X92.888 Y85.87 E8.92081
G1 X94.493 Y85.581 E8.94535
G1 X96.102 Y85.334 E8.96984
G1 X97.719 Y85.126 E8.99438
G1 X99.342 Y84.961 E9.01893
G1 X100.964 Y84.837 E9.04341
G1 X102.591 Y84.755 E9.06792
G1 X104.22 Y84.714 E9.09244
G1 X105.779 Y84.714 E9.1159
G1 X107.477 Y84.757 E9.14147
G1 X109.035 Y84.837 E9.16494
G1 X110.725 Y84.967 E9.19045
G1 X112.353 Y85.133 E9.21507
G1 X113.963 Y85.343 E9.23951
G1 X115.575 Y85.592 E9.26405
G1 X117.176 Y85.883 E9.28854
G1 X118.772 Y86.214 E9.31307
G1 X120.361 Y86.586 E9.33763
G1 X121.935 Y86.998 E9.36211
G1 X123.436 Y87.431 E9.38562
G1 X125.055 Y87.944 E9.41118
G1 X126.595 Y88.476 E9.4357
G1 X128.117 Y89.047 E9.46016
G1 X129.631 Y89.657 E9.48472
G1 X131.123 Y90.304 E9.50919
G1 X132.604 Y90.991 E9.53376
G1 X134.063 Y91.715 E9.55827
G1 X135.503 Y92.476 E9.58278
G1 X136.924 Y93.273 E9.6073
G1 X138.322 Y94.105 E9.63178
G1 X139.704 Y94.975 E9.65636
G1 X141.058 Y95.879 E9.68086
G1 X142.39 Y96.817 E9.70537
G1 X143.697 Y97.787 E9.72986
G1 X144.983 Y98.793 E9.75444
G1 X146.238 Y99.831 E9.77894
G1 X147.465 Y100.899 E9.80342
G1 X148.67 Y102 E9.82799
G1 X149.842 Y103.13 E9.85249
G1 X150.939 Y104.241 E9.87598
G1 X152.102 Y105.478 E9.90153
G1 X153.184 Y106.696 E9.92605
G1 X154.234 Y107.939 E9.95053
G1 X155.255 Y109.21 E9.97507
G1 X156.242 Y110.507 E9.99959
G1 X157.195 Y111.827 E10.02409
G1 X158.115 Y113.173 E10.04863
G1 X159 Y114.541 E10.07315
G1 X159.849 Y115.931 E10.09766
G1 X160.662 Y117.341 E10.12215
G1 X161.442 Y118.773 E10.14669
G1 X162.153 Y120.164 E10.1702
G1 X162.887 Y121.695 E10.19575
G1 X163.55 Y123.181 E10.22023
G1 X164.179 Y124.686 E10.24478
G1 X164.768 Y126.205 E10.2693
G1 X165.318 Y127.739 E10.29382
G1 X165.828 Y129.286 E10.31833
G1 X166.299 Y130.845 E10.34284
G1 X166.713 Y132.351 E10.36634
G1 X167.121 Y133.999 E10.39189
G1 X167.471 Y135.59 E10.41641
G1 X167.78 Y137.19 E10.44093
G1 X168.048 Y138.796 E10.46543
G1 X168.276 Y140.41 E10.48996
G1 X168.455 Y141.962 E10.51347
G1 X168.607 Y143.651 E10.53899
G1 X168.71 Y145.277 E10.56351
G1 X168.771 Y146.903 E10.58799
G1 X168.792 Y148.534 E10.61254
G1 X168.77 Y150.165 E10.63709
G1 X168.706 Y151.788 E10.66153
G1 X168.602 Y153.418 E10.68611
G1 X168.455 Y155.038 E10.71059
G1 X168.267 Y156.656 E10.7351
G1 X168.039 Y158.271 E10.75964
G1 X167.781 Y159.811 E10.78314
G1 X167.458 Y161.474 E10.80863
G1 X167.123 Y163 E10.83214
G1 X166.713 Y164.653 E10.85777
G1 X166.28 Y166.219 E10.88222
G1 X165.808 Y167.778 E10.90674
G1 X165.296 Y169.325 E10.93126
G1 X164.744 Y170.858 E10.95578
G1 X164.153 Y172.379 E10.98033
G1 X163.523 Y173.88 E11.00483
G1 X162.858 Y175.364 E11.0293
G1 X162.184 Y176.773 E11.05281
G1 X161.41 Y178.288 E11.07841
G1 X160.631 Y179.717 E11.1029
G1 X159.814 Y181.128 E11.12743
G1 X158.964 Y182.514 E11.1519
G1 X158.078 Y183.882 E11.17643
G1 X157.157 Y185.227 E11.20096
G1 X156.202 Y186.547 E11.22548
G1 X155.215 Y187.84 E11.24995
G1 X154.192 Y189.114 E11.27454
G1 X153.139 Y190.355 E11.29903
G1 X152.056 Y191.569 E11.32352
G1 X150.938 Y192.762 E11.34812
G1 X149.794 Y193.917 E11.37258
G1 X148.622 Y195.044 E11.39705
G1 X147.416 Y196.148 E11.42166
G1 X146.185 Y197.214 E11.44616
G1 X144.931 Y198.247 E11.47061
G1 X143.703 Y199.211 E11.4941
G1 X142.336 Y200.222 E11.51969
G1 X141.005 Y201.157 E11.54417
G1 X139.645 Y202.065 E11.56878
G1 X138.268 Y202.929 E11.59324
G1 X136.866 Y203.762 E11.61778
G1 X135.444 Y204.558 E11.6423
G1 X134.002 Y205.316 E11.66682
G1 X132.541 Y206.038 E11.69134
G1 X131.063 Y206.722 E11.71585
G1 X129.566 Y207.37 E11.7404
G1 X128.057 Y207.977 E11.76487
G1 X126.532 Y208.546 E11.78937
G1 X124.989 Y209.078 E11.81393
G1 X123.436 Y209.569 E11.83844
G1 X121.871 Y210.019 E11.86294
G1 X120.291 Y210.431 E11.88752
G1 X118.71 Y210.799 E11.91194
G1 X117.112 Y211.13 E11.9365
G1 X115.507 Y211.419 E11.96104
G1 X113.899 Y211.666 E11.98552
G1 X112.282 Y211.874 E12.01006
G1 X110.659 Y212.039 E12.03461
G1 X109.036 Y212.163 E12.0591
G1 X107.41 Y212.245 E12.0836
G1 X105.78 Y212.286 E12.10814
M204 S627
G0 F6030 X105.78 Y211.806
M204 S470
G1 F2010 X104.165 Y211.805 E12.13244
G1 X102.547 Y211.763 E12.1568
G1 X100.934 Y211.68 E12.1811
G1 X99.322 Y211.556 E12.20543
G1 X97.712 Y211.39 E12.22979
G1 X96.107 Y211.184 E12.25414
G1 X94.512 Y210.936 E12.27843
G1 X92.917 Y210.648 E12.30282
G1 X91.339 Y210.319 E12.32708
G1 X89.758 Y209.95 E12.35151
G1 X88.198 Y209.54 E12.37578
G1 X86.644 Y209.091 E12.40012
G1 X85.103 Y208.603 E12.42445
G1 X83.573 Y208.074 E12.44881
G1 X82.063 Y207.509 E12.47307
