;FLAVOR:Marlin
;TIME:3109
;Filament used: 0.758614m, 0m
;Layer height: 0.15
;MINX:77.96
;MINY:125.46
;MINZ:0.2
;MAXX:132.04
;MAXY:171.54
;MAXZ:6.95
;Generated with StratosEngine 1.6.0
T0
M82 ;absolute extrusion mode
;Machine Model: Sigma R19 
;Materials used: T0 ABS  
;Extruders used: T0 0.4  
M141 S0 	;Set chamber temperature 
M140 S100 	;Heat build surface
M104 T0 S235	;Heat extruder 0
M190 S100 	;Wait until bed temperature reached 
M109 T0 S235	;Heat extruder 0 and wait
G21 		;metric values 
G90 		;absolute positioning 
M204 S600 	;set default acceleration 
M205 X12.5 Y12.5 ;set default jerk 
M107 		;start with the fan off 
G28 X0 Y0 	;move X/Y to min endstops 
G28 Z0 		;move Z to min endstops 
G1 Z5 F200 	;safety Z axis movement

T0
G92 E0 		;set zero the extruded length 
G1 E15 F30
G92 E0 
G4 S2 		;stabilize hotend 
G1 E-0.5 F1000 
G92 E0

G4 P1
G4 P2
G4 P3

G92 E0
;LAYER_COUNT:46
;LAYER:0
M107
M204 S627
M205 X9.38 Y9.38
G1 F600 Z0.5
G0 F6030 X111.909 Y171.539 Z0.5
M204 S470
;TYPE:SKIRT
G1 F600 Z0.2
G1 F1050 E0
G1 F2010 X98.001 Y171.54 E0.20929
G1 X97.75 Y171.534 E0.21307
G1 X96.244 Y171.459 E0.23576
G1 X95.736 Y171.408 E0.24345
G1 X94.232 Y171.179 E0.26634
G1 X93.729 Y171.075 E0.27407
G1 X92.26 Y170.695 E0.2969
G1 X91.77 Y170.542 E0.30463
G1 X90.332 Y170.009 E0.32771
G1 X89.869 Y169.81 E0.33529
G1 X88.504 Y169.142 E0.35816
G1 X88.05 Y168.89 E0.36597
G1 X86.772 Y168.092 E0.38865
G1 X86.361 Y167.806 E0.39618
G1 X85.159 Y166.878 E0.41903
G1 X84.77 Y166.545 E0.42674
G1 X83.658 Y165.49 E0.44981
G1 X83.303 Y165.117 E0.45755
G1 X82.321 Y163.973 E0.48024
G1 X82.011 Y163.573 E0.48786
G1 X81.142 Y162.327 E0.51072
G1 X80.87 Y161.891 E0.51845
G1 X80.132 Y160.562 E0.54133
G1 X79.908 Y160.107 E0.54896
G1 X79.303 Y158.701 E0.57199
G1 X79.122 Y158.212 E0.57984
G1 X78.673 Y156.775 E0.60249
G1 X78.548 Y156.292 E0.61
G1 X78.24 Y154.801 E0.63291
G1 X78.162 Y154.296 E0.6406
G1 X78.007 Y152.788 E0.66342
G1 X77.962 Y151.538 E0.68224
G1 X77.96 Y151.415 E0.68409
G1 X77.96 Y145.501 E0.77309
G1 X77.966 Y145.25 E0.77686
G1 X78.041 Y143.744 E0.79956
G1 X78.093 Y143.232 E0.8073
G1 X78.325 Y141.717 E0.83036
G1 X78.427 Y141.218 E0.83803
G1 X78.804 Y139.76 E0.86069
G1 X78.958 Y139.271 E0.86841
G1 X79.49 Y137.835 E0.89145
G1 X79.689 Y137.371 E0.89905
G1 X80.357 Y136.006 E0.92192
G1 X80.608 Y135.553 E0.92971
G1 X81.406 Y134.274 E0.9524
G1 X81.693 Y133.862 E0.95995
G1 X82.622 Y132.659 E0.98283
G1 X82.955 Y132.27 E0.99053
G1 X84.01 Y131.158 E1.0136
G1 X84.383 Y130.803 E1.02135
G1 X85.536 Y129.813 E1.04422
G1 X85.94 Y129.5 E1.05191
G1 X87.186 Y128.633 E1.07475
G1 X87.619 Y128.363 E1.08243
G1 X88.947 Y127.626 E1.10528
G1 X89.406 Y127.401 E1.11298
G1 X90.791 Y126.807 E1.13565
G1 X91.267 Y126.631 E1.14329
G1 X92.728 Y126.172 E1.16634
G1 X93.223 Y126.044 E1.17403
G1 X94.714 Y125.737 E1.19694
G1 X95.222 Y125.659 E1.20467
G1 X96.721 Y125.507 E1.22735
G1 X98.091 Y125.461 E1.24797
G1 X111.999 Y125.46 E1.45727
G1 X112.25 Y125.466 E1.46105
G1 X113.756 Y125.541 E1.48374
G1 X114.268 Y125.593 E1.49148
G1 X115.783 Y125.825 E1.51455
G1 X116.282 Y125.927 E1.52221
G1 X117.74 Y126.304 E1.54487
G1 X118.23 Y126.458 E1.5526
G1 X119.668 Y126.991 E1.57568
G1 X120.131 Y127.19 E1.58326
G1 X121.494 Y127.857 E1.6061
G1 X121.948 Y128.109 E1.61391
G1 X123.228 Y128.908 E1.63662
G1 X123.639 Y129.194 E1.64416
G1 X124.841 Y130.122 E1.66701
G1 X125.23 Y130.455 E1.67471
G1 X126.342 Y131.51 E1.69778
G1 X126.697 Y131.883 E1.70553
G1 X127.687 Y133.036 E1.7284
G1 X128 Y133.44 E1.73609
G1 X128.867 Y134.686 E1.75893
G1 X129.137 Y135.119 E1.76661
G1 X129.874 Y136.447 E1.78947
G1 X130.099 Y136.906 E1.79716
G1 X130.693 Y138.291 E1.81984
G1 X130.869 Y138.767 E1.82747
G1 X131.328 Y140.228 E1.85052
G1 X131.456 Y140.721 E1.85818
G1 X131.763 Y142.21 E1.88106
G1 X131.841 Y142.72 E1.88883
G1 X131.993 Y144.219 E1.9115
G1 X132.038 Y145.462 E1.93022
G1 X132.04 Y145.585 E1.93207
G1 X132.04 Y151.499 E2.02106
G1 X132.034 Y151.75 E2.02484
G1 X131.959 Y153.256 E2.04753
G1 X131.908 Y153.764 E2.05522
G1 X131.679 Y155.268 E2.07811
G1 X131.575 Y155.771 E2.08584
G1 X131.195 Y157.24 E2.10867
G1 X131.042 Y157.729 E2.11638
G1 X130.51 Y159.165 E2.13943
G1 X130.312 Y159.626 E2.14698
G1 X129.65 Y160.981 E2.16967
G1 X129.397 Y161.438 E2.17753
G1 X128.586 Y162.737 E2.20058
G1 X128.299 Y163.15 E2.20815
G1 X127.377 Y164.343 E2.23084
G1 X127.046 Y164.729 E2.23849
G1 X125.999 Y165.833 E2.26138
G1 X125.627 Y166.187 E2.26911
G1 X124.466 Y167.185 E2.29215
G1 X124.06 Y167.5 E2.29988
G1 X122.824 Y168.36 E2.32254
G1 X122.393 Y168.628 E2.33018
G1 X121.065 Y169.366 E2.35304
G1 X120.608 Y169.591 E2.36071
G1 X119.213 Y170.191 E2.38356
G1 X118.731 Y170.37 E2.3913
G1 X117.281 Y170.825 E2.41417
G1 X116.792 Y170.952 E2.42177
G1 X115.301 Y171.26 E2.44468
G1 X114.796 Y171.338 E2.45237
G1 X113.286 Y171.493 E2.47521
G1 X111.909 Y171.539 E2.49595
M204 S627
G0 F6030 X111.899 Y171.059
M204 S470
G1 F2010 X98.001 Y171.06 E2.70509
G1 X97.774 Y171.054 E2.70851
G1 X96.268 Y170.979 E2.7312
G1 X95.809 Y170.933 E2.73814
G1 X94.305 Y170.704 E2.76103
G1 X93.849 Y170.611 E2.76804
G1 X92.38 Y170.231 E2.79087
G1 X91.937 Y170.092 E2.79786
G1 X90.499 Y169.559 E2.82094
G1 X90.08 Y169.379 E2.8278
G1 X88.715 Y168.711 E2.85067
G1 X88.304 Y168.483 E2.85774
G1 X87.026 Y167.685 E2.88041
G1 X86.654 Y167.426 E2.88724
G1 X85.452 Y166.498 E2.91009
G1 X85.1 Y166.197 E2.91706
G1 X83.988 Y165.142 E2.94012
G1 X83.667 Y164.804 E2.94714
G1 X82.685 Y163.66 E2.96983
G1 X82.405 Y163.299 E2.9767
G1 X81.536 Y162.053 E2.99956
G1 X81.289 Y161.658 E3.00657
G1 X80.551 Y160.329 E3.02945
G1 X80.349 Y159.917 E3.03635
G1 X79.744 Y158.511 E3.05939
G1 X79.581 Y158.069 E3.06648
G1 X79.132 Y156.632 E3.08913
G1 X79.018 Y156.194 E3.09594
G1 X78.71 Y154.703 E3.11885
G1 X78.64 Y154.247 E3.1258
G1 X78.485 Y152.739 E3.14861
G1 X78.441 Y151.527 E3.16686
G1 X78.44 Y145.501 E3.25754
G1 X78.446 Y145.274 E3.26096
G1 X78.521 Y143.768 E3.28365
G1 X78.568 Y143.305 E3.29065
G1 X78.8 Y141.79 E3.31372
G1 X78.892 Y141.338 E3.32066
G1 X79.269 Y139.88 E3.34332
G1 X79.408 Y139.438 E3.35029
G1 X79.94 Y138.002 E3.37334
G1 X80.12 Y137.582 E3.38021
G1 X80.788 Y136.217 E3.40308
G1 X81.015 Y135.807 E3.41014
G1 X81.813 Y134.528 E3.43282
G1 X82.073 Y134.155 E3.43966
G1 X83.002 Y132.952 E3.46254
G1 X83.303 Y132.6 E3.46951
G1 X84.358 Y131.488 E3.49257
G1 X84.695 Y131.167 E3.49958
G1 X85.848 Y130.177 E3.52245
G1 X86.215 Y129.894 E3.52942
G1 X87.461 Y129.027 E3.55226
G1 X87.852 Y128.783 E3.5592
G1 X89.18 Y128.046 E3.58205
G1 X89.596 Y127.842 E3.58903
G1 X90.981 Y127.248 E3.6117
G1 X91.411 Y127.089 E3.6186
G1 X92.872 Y126.63 E3.64165
G1 X93.319 Y126.514 E3.6486
G1 X94.81 Y126.207 E3.67151
G1 X95.27 Y126.136 E3.67851
G1 X96.769 Y125.984 E3.70118
G1 X98.101 Y125.941 E3.72124
G1 X111.999 Y125.94 E3.93038
G1 X112.226 Y125.946 E3.9338
G1 X113.732 Y126.021 E3.95649
G1 X114.195 Y126.068 E3.96349
G1 X115.71 Y126.3 E3.98656
G1 X116.162 Y126.392 E3.9935
G1 X117.62 Y126.769 E4.01616
G1 X118.063 Y126.908 E4.02315
G1 X119.501 Y127.441 E4.04623
G1 X119.92 Y127.621 E4.05309
G1 X121.283 Y128.288 E4.07592
G1 X121.694 Y128.516 E4.083
G1 X122.974 Y129.315 E4.1057
G1 X123.346 Y129.574 E4.11253
G1 X124.548 Y130.502 E4.13538
G1 X124.9 Y130.803 E4.14235
G1 X126.012 Y131.858 E4.16541
G1 X126.333 Y132.195 E4.17242
G1 X127.323 Y133.348 E4.19529
G1 X127.606 Y133.715 E4.20226
G1 X128.473 Y134.961 E4.2251
G1 X128.717 Y135.352 E4.23204
G1 X129.454 Y136.68 E4.25489
G1 X129.658 Y137.096 E4.26187
G1 X130.252 Y138.481 E4.28455
G1 X130.411 Y138.911 E4.29144
G1 X130.87 Y140.372 E4.31449
G1 X130.986 Y140.818 E4.32142
G1 X131.293 Y142.307 E4.3443
G1 X131.364 Y142.768 E4.35132
G1 X131.516 Y144.267 E4.374
G1 X131.559 Y145.473 E4.39216
G1 X131.56 Y151.499 E4.48284
G1 X131.554 Y151.726 E4.48625
G1 X131.479 Y153.232 E4.50895
G1 X131.433 Y153.691 E4.51589
G1 X131.204 Y155.195 E4.53878
G1 X131.111 Y155.651 E4.54578
G1 X130.731 Y157.12 E4.56862
G1 X130.592 Y157.562 E4.57559
G1 X130.06 Y158.998 E4.59864
G1 X129.881 Y159.416 E4.60548
G1 X129.219 Y160.771 E4.62817
G1 X128.99 Y161.184 E4.63528
G1 X128.179 Y162.483 E4.65832
G1 X127.919 Y162.856 E4.66517
G1 X126.997 Y164.049 E4.68786
G1 X126.698 Y164.399 E4.69478
G1 X125.651 Y165.503 E4.71768
G1 X125.315 Y165.823 E4.72466
G1 X124.154 Y166.821 E4.7477
G1 X123.785 Y167.106 E4.75472
G1 X122.549 Y167.966 E4.77738
G1 X122.16 Y168.209 E4.78428
G1 X120.832 Y168.947 E4.80714
G1 X120.419 Y169.15 E4.81407
G1 X119.024 Y169.75 E4.83692
G1 X118.587 Y169.912 E4.84393
G1 X117.137 Y170.367 E4.8668
G1 X116.694 Y170.482 E4.87369
G1 X115.203 Y170.79 E4.8966
G1 X114.747 Y170.86 E4.90354
G1 X113.237 Y171.015 E4.92638
G1 X111.899 Y171.059 E4.94653
M204 S627
G0 F6030 X111.888 Y170.579
M204 S470
G1 F2010 X98.001 Y170.58 E5.15551
G1 X97.798 Y170.575 E5.15856
G1 X96.292 Y170.5 E5.18125
G1 X95.881 Y170.459 E5.18747
G1 X94.377 Y170.23 E5.21036
G1 X93.969 Y170.146 E5.21663
G1 X92.5 Y169.766 E5.23947
G1 X92.104 Y169.642 E5.24571
G1 X90.666 Y169.109 E5.26879
G1 X90.291 Y168.948 E5.27493
G1 X88.926 Y168.28 E5.2978
G1 X88.558 Y168.076 E5.30413
G1 X87.28 Y167.278 E5.3268
G1 X86.948 Y167.047 E5.33289
G1 X85.746 Y166.119 E5.35574
G1 X85.431 Y165.849 E5.36199
G1 X84.319 Y164.794 E5.38505
G1 X84.031 Y164.491 E5.39134
G1 X83.049 Y163.347 E5.41403
G1 X82.799 Y163.024 E5.42018
G1 X81.93 Y161.778 E5.44304
G1 X81.709 Y161.425 E5.44931
G1 X80.971 Y160.096 E5.47218
G1 X80.79 Y159.728 E5.47835
G1 X80.185 Y158.322 E5.50139
G1 X80.039 Y157.926 E5.50774
G1 X79.59 Y156.489 E5.53039
G1 X79.488 Y156.097 E5.53649
G1 X79.18 Y154.606 E5.5594
G1 X79.117 Y154.198 E5.56561
G1 X78.962 Y152.69 E5.58842
G1 X78.921 Y151.515 E5.60612
G1 X78.92 Y145.501 E5.69662
G1 X78.925 Y145.298 E5.69967
G1 X79 Y143.792 E5.72237
G1 X79.042 Y143.377 E5.72864
G1 X79.274 Y141.862 E5.75171
G1 X79.357 Y141.459 E5.7579
G1 X79.734 Y140.001 E5.78056
G1 X79.858 Y139.605 E5.78681
G1 X80.39 Y138.169 E5.80985
G1 X80.551 Y137.793 E5.81601
G1 X81.219 Y136.428 E5.83887
G1 X81.422 Y136.061 E5.84519
G1 X82.22 Y134.782 E5.86787
G1 X82.453 Y134.448 E5.874
G1 X83.382 Y133.245 E5.89687
G1 X83.651 Y132.931 E5.9031
G1 X84.706 Y131.819 E5.92616
G1 X85.008 Y131.532 E5.93243
G1 X86.161 Y130.542 E5.9553
G1 X86.489 Y130.288 E5.96154
G1 X87.735 Y129.421 E5.98439
G1 X88.085 Y129.203 E5.99059
G1 X89.413 Y128.466 E6.01345
G1 X89.785 Y128.283 E6.01969
G1 X91.17 Y127.689 E6.04236
G1 X91.555 Y127.547 E6.04854
G1 X93.016 Y127.088 E6.07158
G1 X93.416 Y126.984 E6.0778
G1 X94.907 Y126.677 E6.10071
G1 X95.318 Y126.614 E6.10697
G1 X96.817 Y126.462 E6.12964
G1 X98.112 Y126.421 E6.14914
G1 X111.999 Y126.42 E6.35812
G1 X112.202 Y126.425 E6.36117
G1 X113.708 Y126.5 E6.38386
G1 X114.123 Y126.542 E6.39014
G1 X115.638 Y126.774 E6.41321
G1 X116.041 Y126.857 E6.4194
G1 X117.499 Y127.234 E6.44206
G1 X117.896 Y127.358 E6.44832
G1 X119.334 Y127.891 E6.4714
G1 X119.709 Y128.052 E6.47754
G1 X121.072 Y128.719 E6.50037
G1 X121.439 Y128.923 E6.50669
G1 X122.719 Y129.722 E6.5294
G1 X123.052 Y129.953 E6.5355
G1 X124.254 Y130.881 E6.55835
G1 X124.569 Y131.151 E6.56459
G1 X125.681 Y132.206 E6.58766
G1 X125.968 Y132.508 E6.59393
G1 X126.958 Y133.661 E6.6168
G1 X127.212 Y133.989 E6.62304
G1 X128.079 Y135.235 E6.64588
G1 X128.297 Y135.585 E6.65209
G1 X129.034 Y136.913 E6.67494
G1 X129.217 Y137.285 E6.68118
G1 X129.811 Y138.67 E6.70386
G1 X129.953 Y139.055 E6.71004
G1 X130.412 Y140.516 E6.73308
G1 X130.516 Y140.915 E6.73929
G1 X130.823 Y142.404 E6.76216
G1 X130.886 Y142.816 E6.76844
G1 X131.038 Y144.315 E6.79111
G1 X131.079 Y145.485 E6.80873
G1 X131.08 Y151.499 E6.89923
G1 X131.075 Y151.702 E6.90228
G1 X131 Y153.208 E6.92498
G1 X130.959 Y153.619 E6.93119
G1 X130.73 Y155.123 E6.95408
G1 X130.646 Y155.531 E6.96035
G1 X130.266 Y157 E6.98319
G1 X130.142 Y157.395 E6.98942
G1 X129.61 Y158.831 E7.01246
G1 X129.45 Y159.205 E7.01858
G1 X128.788 Y160.56 E7.04128
G1 X128.583 Y160.93 E7.04764
G1 X127.772 Y162.229 E7.07069
G1 X127.539 Y162.563 E7.07682
G1 X126.617 Y163.756 E7.09951
G1 X126.349 Y164.069 E7.10571
G1 X125.302 Y165.173 E7.1286
G1 X125.002 Y165.459 E7.13484
G1 X123.841 Y166.457 E7.15788
G1 X123.511 Y166.712 E7.16416
G1 X122.275 Y167.572 E7.18681
G1 X121.927 Y167.789 E7.19299
G1 X120.599 Y168.527 E7.21585
G1 X120.229 Y168.709 E7.22205
G1 X118.834 Y169.309 E7.24491
G1 X118.444 Y169.454 E7.25117
G1 X116.994 Y169.909 E7.27404
G1 X116.597 Y170.012 E7.28021
G1 X115.106 Y170.32 E7.30312
G1 X114.698 Y170.383 E7.30933
G1 X113.188 Y170.538 E7.33218
G1 X111.888 Y170.579 E7.35175
M204 S627
G0 F6030 X111.878 Y170.099
M204 S470
G1 F2010 X98.001 Y170.1 E7.56058
G1 X97.822 Y170.096 E7.56327
G1 X96.316 Y170.021 E7.58596
G1 X95.953 Y169.984 E7.59145
G1 X94.449 Y169.755 E7.61435
G1 X94.089 Y169.681 E7.61988
G1 X92.62 Y169.301 E7.64271
G1 X92.271 Y169.192 E7.64821
G1 X90.833 Y168.659 E7.67129
G1 X90.502 Y168.517 E7.67671
G1 X89.137 Y167.849 E7.69958
G1 X88.812 Y167.669 E7.70517
G1 X87.534 Y166.871 E7.72784
G1 X87.241 Y166.667 E7.73322
G1 X86.039 Y165.739 E7.75607
G1 X85.761 Y165.501 E7.76157
G1 X84.649 Y164.446 E7.78464
G1 X84.395 Y164.179 E7.79019
G1 X83.413 Y163.035 E7.81287
G1 X83.192 Y162.749 E7.81831
G1 X82.323 Y161.503 E7.84117
G1 X82.129 Y161.192 E7.84669
G1 X81.391 Y159.863 E7.86957
G1 X81.231 Y159.538 E7.87502
G1 X80.626 Y158.132 E7.89805
G1 X80.497 Y157.783 E7.90365
G1 X80.048 Y156.346 E7.92631
G1 X79.958 Y156 E7.93169
G1 X79.65 Y154.509 E7.9546
G1 X79.595 Y154.149 E7.96008
G1 X79.44 Y152.641 E7.98289
G1 X79.4 Y151.415 E8.00135
G1 X79.4 Y145.501 E8.09035
G1 X79.404 Y145.322 E8.09304
G1 X79.479 Y143.816 E8.11573
G1 X79.516 Y143.45 E8.12127
G1 X79.748 Y141.935 E8.14433
G1 X79.822 Y141.579 E8.1498
G1 X80.199 Y140.121 E8.17246
G1 X80.308 Y139.771 E8.17798
G1 X80.84 Y138.335 E8.20103
G1 X80.982 Y138.004 E8.20645
G1 X81.65 Y136.639 E8.22932
G1 X81.83 Y136.315 E8.23489
G1 X82.628 Y135.036 E8.25758
G1 X82.833 Y134.742 E8.26297
G1 X83.762 Y133.539 E8.28585
G1 X83.999 Y133.261 E8.29134
G1 X85.054 Y132.149 E8.31441
G1 X85.321 Y131.896 E8.31994
G1 X86.474 Y130.906 E8.34281
G1 X86.763 Y130.682 E8.34832
G1 X88.009 Y129.815 E8.37116
G1 X88.318 Y129.622 E8.37664
G1 X89.646 Y128.885 E8.3995
G1 X89.974 Y128.724 E8.405
G1 X91.359 Y128.13 E8.42767
G1 X91.699 Y128.005 E8.43313
G1 X93.16 Y127.546 E8.45617
G1 X93.513 Y127.454 E8.46166
G1 X95.004 Y127.147 E8.48457
G1 X95.367 Y127.091 E8.49009
G1 X96.866 Y126.939 E8.51277
G1 X98.122 Y126.901 E8.53168
G1 X111.999 Y126.9 E8.74051
G1 X112.178 Y126.904 E8.7432
G1 X113.684 Y126.979 E8.76589
G1 X114.05 Y127.016 E8.77143
G1 X115.565 Y127.248 E8.79449
G1 X115.921 Y127.322 E8.79996
G1 X117.379 Y127.699 E8.82262
G1 X117.729 Y127.808 E8.82814
G1 X119.167 Y128.341 E8.85122
G1 X119.498 Y128.483 E8.85664
G1 X120.861 Y129.15 E8.87947
G1 X121.185 Y129.33 E8.88505
G1 X122.465 Y130.129 E8.90776
G1 X122.759 Y130.333 E8.91314
G1 X123.961 Y131.261 E8.936
G1 X124.239 Y131.499 E8.9415
G1 X125.351 Y132.554 E8.96457
G1 X125.604 Y132.821 E8.9701
G1 X126.594 Y133.974 E8.99297
G1 X126.818 Y134.263 E8.99848
G1 X127.685 Y135.509 E9.02132
G1 X127.878 Y135.818 E9.0268
G1 X128.615 Y137.146 E9.04966
G1 X128.776 Y137.474 E9.05516
G1 X129.37 Y138.859 E9.07783
G1 X129.495 Y139.199 E9.08329
G1 X129.954 Y140.66 E9.10633
G1 X130.046 Y141.012 E9.11181
G1 X130.353 Y142.501 E9.13468
G1 X130.409 Y142.865 E9.14023
G1 X130.561 Y144.364 E9.1629
G1 X130.6 Y145.585 E9.18128
G1 X130.6 Y151.499 E9.27028
G1 X130.596 Y151.678 E9.27297
G1 X130.521 Y153.184 E9.29566
G1 X130.484 Y153.547 E9.30116
G1 X130.255 Y155.051 E9.32405
G1 X130.181 Y155.411 E9.32958
G1 X129.801 Y156.88 E9.35241
G1 X129.692 Y157.229 E9.35792
G1 X129.16 Y158.665 E9.38096
G1 X129.019 Y158.994 E9.38635
G1 X128.357 Y160.349 E9.40904
G1 X128.176 Y160.676 E9.41467
G1 X127.365 Y161.975 E9.43771
G1 X127.159 Y162.269 E9.44311
G1 X126.237 Y163.462 E9.4658
G1 X126.001 Y163.738 E9.47127
G1 X124.954 Y164.842 E9.49416
G1 X124.689 Y165.095 E9.49968
G1 X123.528 Y166.093 E9.52272
G1 X123.237 Y166.318 E9.52825
G1 X122.001 Y167.178 E9.55091
G1 X121.694 Y167.37 E9.55636
G1 X120.366 Y168.108 E9.57922
G1 X120.039 Y168.268 E9.5847
G1 X118.644 Y168.868 E9.60755
G1 X118.3 Y168.996 E9.61308
G1 X116.85 Y169.451 E9.63595
