;FLAVOR:Marlin
;TIME:195
;Filament used: 0.0308914m, 0m
;Layer height: 0.1
;MINX:87.047
;MINY:130.542
;MINZ:0.2
;MAXX:122.948
;MAXY:166.448
;MAXZ:0.7
;Generated with StratosEngine 1.6.0
T0
M82 ;absolute extrusion mode
;Machine Model: Sigma R19 
;Materials used: T0 ABS  
;Extruders used: T0 0.4  
M141 S0 	;Set chamber temperature 
M140 S100 	;Heat build surface
M104 T0 S235	;Heat extruder 0
M190 S100 	;Wait until bed temperature reached 
M109 T0 S235	;Heat extruder 0 and wait
G21 		;metric values 
G90 		;absolute positioning 
M204 S600 	;set default acceleration 
M205 X12.5 Y12.5 ;set default jerk 
M107 		;start with the fan off 
G28 X0 Y0 	;move X/Y to min endstops 
G28 Z0 		;move Z to min endstops 
G1 Z5 F200 	;safety Z axis movement

T0
G92 E0 		;set zero the extruded length 
G1 E15 F30
G92 E0 
G4 S2 		;stabilize hotend 
G1 E-0.5 F1000 
G92 E0

G4 P1
G4 P2
G4 P3

G92 E0
;LAYER_COUNT:5
;LAYER:0
M107
M204 S627
M205 X9.38 Y9.38
G1 F600 Z0.4
G0 F6030 X105.406 Y166.442 Z0.4
M204 S470
;TYPE:SKIRT
G1 F600 Z0.2
G1 F1050 E0
G1 F2010 X104.144 Y166.44 E0.01899
G1 X102.285 Y166.383 E0.04698
G1 X99.643 Y166.375 E0.08674
G1 X97.21 Y166.442 E0.12336
G1 X95.919 Y166.417 E0.1428
G1 X94.66 Y166.213 E0.16199
G1 X93.624 Y165.916 E0.17821
G1 X92.694 Y165.545 E0.19327
G1 X91.812 Y165.075 E0.20831
G1 X91.009 Y164.546 E0.22278
G1 X90.189 Y163.863 E0.23884
G1 X89.517 Y163.185 E0.25321
G1 X88.86 Y162.358 E0.2691
G1 X88.347 Y161.563 E0.28334
G1 X87.878 Y160.627 E0.2991
G1 X87.523 Y159.707 E0.31394
G1 X87.262 Y158.716 E0.32936
G1 X87.109 Y157.79 E0.34348
G1 X87.051 Y156.726 E0.35952
G1 X87.072 Y156.095 E0.36902
G1 X87.123 Y153.443 E0.40893
G1 X87.099 Y150.798 E0.44874
G1 X87.082 Y150.221 E0.45742
G1 X87.047 Y148.983 E0.47606
G1 X87.072 Y147.893 E0.49247
G1 X87.123 Y145.243 E0.53235
G1 X87.099 Y142.598 E0.57216
G1 X87.082 Y142.019 E0.58088
G1 X87.048 Y140.788 E0.59941
G1 X87.082 Y139.528 E0.61838
G1 X87.177 Y138.68 E0.63122
G1 X87.482 Y137.421 E0.65071
G1 X87.857 Y136.42 E0.6668
G1 X88.284 Y135.548 E0.68141
G1 X88.843 Y134.671 E0.69706
G1 X89.392 Y133.96 E0.71058
G1 X90.174 Y133.149 E0.72753
G1 X90.891 Y132.542 E0.74167
G1 X91.754 Y131.961 E0.75732
G1 X92.579 Y131.511 E0.77146
G1 X93.575 Y131.101 E0.78767
G1 X94.461 Y130.834 E0.8016
G1 X95.535 Y130.635 E0.81803
G1 X97.021 Y130.542 E0.84044
G1 X98.979 Y130.6 E0.86992
G1 X101.631 Y130.619 E0.90983
G1 X105.072 Y130.547 E0.96162
G1 X106.106 Y130.561 E0.97718
G1 X107.179 Y130.6 E0.99334
G1 X109.831 Y130.619 E1.03325
G1 X112.565 Y130.562 E1.0744
G1 X113.92 Y130.58 E1.09479
G1 X114.867 Y130.694 E1.10915
G1 X115.909 Y130.937 E1.12525
G1 X116.797 Y131.239 E1.13936
G1 X117.747 Y131.682 E1.15514
G1 X118.606 Y132.187 E1.17013
G1 X119.429 Y132.805 E1.18562
G1 X120.098 Y133.412 E1.19921
G1 X120.823 Y134.229 E1.21565
G1 X121.389 Y135.012 E1.23019
G1 X121.912 Y135.933 E1.24613
G1 X122.293 Y136.788 E1.26021
G1 X122.615 Y137.791 E1.27607
G1 X122.8 Y138.624 E1.28891
G1 X122.941 Y139.882 E1.30796
G1 X122.946 Y140.98 E1.32448
G1 X122.889 Y142.824 E1.35224
G1 X122.882 Y145.487 E1.39232
G1 X122.948 Y148.124 E1.43201
G1 X122.946 Y149.18 E1.4479
G1 X122.889 Y151.024 E1.47567
G1 X122.882 Y153.687 E1.51574
G1 X122.948 Y156.32 E1.55538
G1 X122.925 Y157.377 E1.57129
G1 X122.842 Y158.133 E1.58273
G1 X122.627 Y159.17 E1.59867
G1 X122.351 Y160.058 E1.61266
G1 X121.931 Y161.024 E1.62851
G1 X121.444 Y161.901 E1.64361
G1 X120.851 Y162.736 E1.65902
G1 X120.248 Y163.434 E1.6729
G1 X119.47 Y164.159 E1.6889
G1 X118.714 Y164.739 E1.70324
G1 X117.804 Y165.288 E1.71924
G1 X116.93 Y165.707 E1.73382
G1 X115.928 Y166.057 E1.74979
G1 X115.042 Y166.274 E1.76352
G1 X113.987 Y166.414 E1.77954
G1 X112.799 Y166.448 E1.79742
G1 X112.262 Y166.438 E1.8055
G1 X110.485 Y166.383 E1.83226
G1 X107.843 Y166.375 E1.87202
G1 X105.406 Y166.442 E1.9087
M204 S627
G0 F6030 X105.401 Y165.962
M204 S470
G1 F2010 X104.153 Y165.96 E1.92748
G1 X102.301 Y165.903 E1.95537
G1 X99.632 Y165.895 E1.99553
G1 X97.205 Y165.962 E2.03207
G1 X96.612 Y165.969 E2.04099
G1 X95.631 Y165.895 E2.0558
G1 X94.751 Y165.742 E2.06924
G1 X93.797 Y165.468 E2.08417
G1 X92.884 Y165.105 E2.09896
G1 X92.072 Y164.672 E2.11281
G1 X91.283 Y164.152 E2.12703
G1 X90.527 Y163.522 E2.14184
G1 X89.866 Y162.855 E2.15597
G1 X89.26 Y162.093 E2.17062
G1 X88.756 Y161.312 E2.18461
G1 X88.323 Y160.45 E2.19912
G1 X87.975 Y159.547 E2.21368
G1 X87.735 Y158.634 E2.22789
G1 X87.584 Y157.723 E2.24179
G1 X87.531 Y156.742 E2.25657
G1 X87.552 Y156.111 E2.26607
G1 X87.603 Y153.448 E2.30615
G1 X87.579 Y150.773 E2.34641
G1 X87.562 Y150.211 E2.35487
G1 X87.527 Y148.97 E2.37355
G1 X87.552 Y147.909 E2.38952
G1 X87.603 Y145.248 E2.42958
G1 X87.579 Y142.573 E2.46983
G1 X87.562 Y142.008 E2.47834
G1 X87.528 Y140.774 E2.49691
G1 X87.561 Y139.56 E2.51519
G1 X87.72 Y138.432 E2.53233
G1 X87.945 Y137.549 E2.54604
G1 X88.29 Y136.627 E2.56086
G1 X88.71 Y135.77 E2.57522
G1 X89.224 Y134.962 E2.58963
G1 X89.767 Y134.26 E2.60299
G1 X90.487 Y133.512 E2.61861
G1 X91.192 Y132.916 E2.6325
G1 X91.987 Y132.381 E2.64692
G1 X92.8 Y131.938 E2.66086
G1 X93.718 Y131.56 E2.6758
G1 X94.59 Y131.296 E2.68951
G1 X95.58 Y131.113 E2.70466
G1 X97.011 Y131.022 E2.72623
G1 X98.958 Y131.079 E2.75555
G1 X101.637 Y131.099 E2.79586
G1 X104.338 Y131.043 E2.83652
G1 X106.096 Y131.041 E2.86297
G1 X107.158 Y131.079 E2.87896
G1 X109.837 Y131.099 E2.91928
G1 X112.589 Y131.042 E2.9607
G1 X113.867 Y131.057 E2.97994
G1 X114.8 Y131.169 E2.99408
G1 X115.76 Y131.393 E3.00891
G1 X116.632 Y131.69 E3.02277
G1 X117.508 Y132.098 E3.03732
G1 X118.351 Y132.594 E3.05203
G1 X119.11 Y133.163 E3.06631
G1 X119.769 Y133.761 E3.0797
G1 X120.437 Y134.514 E3.09485
G1 X120.994 Y135.284 E3.10915
G1 X121.475 Y136.133 E3.12383
G1 X121.85 Y136.973 E3.13768
G1 X122.146 Y137.898 E3.15229
G1 X122.33 Y138.72 E3.16497
G1 X122.463 Y139.916 E3.18308
G1 X122.466 Y140.965 E3.19886
G1 X122.409 Y142.808 E3.22661
G1 X122.402 Y145.497 E3.26708
G1 X122.467 Y148.083 E3.306
G1 X122.466 Y149.165 E3.32229
G1 X122.409 Y151.008 E3.35003
G1 X122.402 Y153.697 E3.3905
G1 X122.467 Y156.302 E3.42971
G1 X122.446 Y157.342 E3.44537
G1 X122.365 Y158.076 E3.45648
G1 X122.167 Y159.033 E3.47118
G1 X121.896 Y159.905 E3.48493
G1 X121.509 Y160.796 E3.49954
G1 X121.031 Y161.656 E3.51435
G1 X120.484 Y162.426 E3.52856
G1 X119.892 Y163.113 E3.54221
G1 X119.175 Y163.781 E3.55696
G1 X118.431 Y164.352 E3.57107
G1 X117.593 Y164.858 E3.5858
G1 X116.733 Y165.269 E3.60015
G1 X115.809 Y165.592 E3.61488
G1 X114.938 Y165.805 E3.62837
G1 X113.965 Y165.934 E3.64314
G1 X112.808 Y165.968 E3.66056
G1 X112.277 Y165.958 E3.66855
G1 X110.501 Y165.903 E3.69529
G1 X107.832 Y165.895 E3.73545
G1 X105.401 Y165.962 E3.77205
M204 S627
G0 F6030 X105.395 Y165.482
M204 S470
G1 F2010 X104.161 Y165.48 E3.79062
G1 X102.282 Y165.423 E3.81891
G1 X99.62 Y165.415 E3.85897
G1 X97.199 Y165.482 E3.89541
G1 X96.606 Y165.489 E3.90434
G1 X95.709 Y165.421 E3.91788
G1 X94.843 Y165.271 E3.9311
G1 X93.969 Y165.02 E3.94479
G1 X93.075 Y164.664 E3.95927
G1 X92.332 Y164.268 E3.97194
G1 X91.557 Y163.758 E3.9859
G1 X90.865 Y163.181 E3.99946
G1 X90.214 Y162.525 E4.01336
G1 X89.661 Y161.828 E4.02675
G1 X89.165 Y161.06 E4.04051
G1 X88.769 Y160.272 E4.05378
G1 X88.427 Y159.387 E4.06806
G1 X88.208 Y158.551 E4.08106
G1 X88.059 Y157.655 E4.09473
G1 X88.011 Y156.758 E4.10825
G1 X88.031 Y156.17 E4.1171
G1 X88.083 Y153.453 E4.158
G1 X88.059 Y150.78 E4.19822
G1 X88.042 Y150.183 E4.20721
G1 X88.007 Y148.956 E4.22568
G1 X88.031 Y147.964 E4.24062
G1 X88.083 Y145.253 E4.28142
G1 X88.059 Y142.58 E4.32165
G1 X88.042 Y141.981 E4.33066
G1 X88.008 Y140.761 E4.34903
G1 X88.04 Y139.591 E4.36664
G1 X88.186 Y138.546 E4.38252
G1 X88.407 Y137.678 E4.396
G1 X88.723 Y136.834 E4.40956
G1 X89.135 Y135.993 E4.42366
G1 X89.606 Y135.253 E4.43686
G1 X90.142 Y134.56 E4.45004
G1 X90.801 Y133.876 E4.46433
G1 X91.493 Y133.29 E4.47798
G1 X92.221 Y132.8 E4.49118
G1 X93.021 Y132.364 E4.5049
G1 X93.861 Y132.018 E4.51857
G1 X94.72 Y131.759 E4.53207
G1 X95.625 Y131.591 E4.54592
G1 X97.001 Y131.502 E4.56667
G1 X98.971 Y131.56 E4.59633
G1 X101.644 Y131.579 E4.63655
G1 X104.365 Y131.523 E4.67751
G1 X105.193 Y131.502 E4.68997
G1 X107.171 Y131.56 E4.71975
G1 X109.844 Y131.579 E4.75998
G1 X112.554 Y131.523 E4.80077
G1 X113.814 Y131.534 E4.81973
G1 X114.732 Y131.644 E4.83364
G1 X115.61 Y131.849 E4.84721
G1 X116.467 Y132.141 E4.86083
G1 X117.269 Y132.514 E4.87414
G1 X118.097 Y133.001 E4.8886
G1 X118.791 Y133.522 E4.90166
G1 X119.439 Y134.11 E4.91483
G1 X120.05 Y134.799 E4.92868
G1 X120.598 Y135.556 E4.94275
G1 X121.039 Y136.333 E4.95619
G1 X121.408 Y137.158 E4.96979
G1 X121.678 Y138.004 E4.98316
G1 X121.859 Y138.816 E4.99568
G1 X121.984 Y139.951 E5.01286
G1 X121.987 Y140.95 E5.02789
G1 X121.929 Y142.827 E5.05615
G1 X121.922 Y145.508 E5.0965
G1 X121.987 Y148.101 E5.13553
G1 X121.987 Y149.15 E5.15132
G1 X121.929 Y151.027 E5.17957
G1 X121.922 Y153.708 E5.21992
G1 X121.988 Y156.319 E5.25922
G1 X121.967 Y157.307 E5.27409
G1 X121.888 Y158.02 E5.28489
G1 X121.707 Y158.895 E5.29834
G1 X121.441 Y159.753 E5.31185
G1 X121.087 Y160.568 E5.32523
G1 X120.618 Y161.412 E5.33976
G1 X120.118 Y162.116 E5.35275
G1 X119.535 Y162.791 E5.36617
G1 X118.879 Y163.402 E5.37966
G1 X118.149 Y163.964 E5.39353
G1 X117.382 Y164.427 E5.40701
G1 X116.536 Y164.832 E5.42112
G1 X115.691 Y165.127 E5.43459
G1 X114.833 Y165.337 E5.44788
G1 X113.944 Y165.455 E5.46138
G1 X112.361 Y165.48 E5.4852
G1 X110.482 Y165.423 E5.51349
G1 X107.82 Y165.415 E5.55355
G1 X105.395 Y165.482 E5.59006
M204 S627
G0 F6030 X105.39 Y165.002
M204 S470
G1 F2010 X104.17 Y165 E5.60842
G1 X102.299 Y164.943 E5.63659
G1 X99.608 Y164.935 E5.67708
G1 X97.193 Y165.002 E5.71344
G1 X96.6 Y165.009 E5.72236
G1 X95.787 Y164.947 E5.73463
G1 X94.934 Y164.8 E5.74766
G1 X94.142 Y164.572 E5.76006
G1 X93.265 Y164.224 E5.77426
G1 X92.591 Y163.864 E5.78576
G1 X91.831 Y163.363 E5.79946
G1 X91.203 Y162.841 E5.81174
G1 X90.563 Y162.195 E5.82543
G1 X90.061 Y161.563 E5.83757
G1 X89.574 Y160.809 E5.85108
G1 X89.215 Y160.094 E5.86312
G1 X88.88 Y159.226 E5.87712
G1 X88.681 Y158.469 E5.8889
G1 X88.534 Y157.588 E5.90234
G1 X88.491 Y156.774 E5.91461
G1 X88.51 Y156.196 E5.92331
G1 X88.563 Y153.458 E5.96452
G1 X88.539 Y150.755 E6.0052
G1 X88.522 Y150.173 E6.01396
G1 X88.487 Y148.943 E6.03248
G1 X88.51 Y147.99 E6.04682
G1 X88.563 Y145.258 E6.08794
G1 X88.539 Y142.555 E6.12862
G1 X88.522 Y141.971 E6.13741
G1 X88.488 Y140.748 E6.15583
G1 X88.529 Y139.468 E6.1751
G1 X88.653 Y138.66 E6.1874
G1 X88.87 Y137.806 E6.20066
G1 X89.156 Y137.041 E6.21295
G1 X89.56 Y136.215 E6.22679
G1 X89.987 Y135.544 E6.23875
G1 X90.517 Y134.859 E6.25179
G1 X91.114 Y134.239 E6.26474
G1 X91.794 Y133.664 E6.27814
G1 X92.454 Y133.22 E6.29011
G1 X93.242 Y132.79 E6.30362
G1 X94.004 Y132.476 E6.31602
G1 X94.849 Y132.221 E6.3293
G1 X95.67 Y132.069 E6.34187
G1 X96.99 Y131.982 E6.36178
G1 X98.951 Y132.039 E6.3913
G1 X101.65 Y132.06 E6.43192
G1 X104.393 Y132.002 E6.4732
G1 X105.183 Y131.982 E6.4851
G1 X107.151 Y132.039 E6.51472
G1 X109.85 Y132.06 E6.55534
G1 X112.581 Y132.003 E6.59645
G1 X113.76 Y132.011 E6.61419
G1 X114.664 Y132.119 E6.62789
G1 X115.46 Y132.305 E6.64019
G1 X116.303 Y132.591 E6.65359
G1 X117.029 Y132.93 E6.66564
G1 X117.842 Y133.408 E6.67984
G1 X118.472 Y133.88 E6.69168
G1 X119.11 Y134.46 E6.70466
G1 X119.664 Y135.084 E6.71721
G1 X120.203 Y135.829 E6.73105
G1 X120.603 Y136.533 E6.74324
G1 X120.965 Y137.343 E6.75659
G1 X121.21 Y138.111 E6.76872
G1 X121.389 Y138.912 E6.78107
G1 X121.505 Y139.985 E6.79731
G1 X121.507 Y140.935 E6.81161
G1 X121.449 Y142.81 E6.83984
G1 X121.442 Y145.479 E6.88
G1 X121.514 Y148.299 E6.92245
G1 X121.507 Y149.135 E6.93503
G1 X121.449 Y151.01 E6.96326
G1 X121.442 Y153.683 E7.00349
G1 X121.515 Y156.532 E7.04637
G1 X121.469 Y157.482 E7.06069
G1 X121.412 Y157.964 E7.06799
G1 X121.247 Y158.757 E7.08018
G1 X120.985 Y159.6 E7.09346
G1 X120.664 Y160.339 E7.10559
G1 X120.205 Y161.168 E7.11985
G1 X119.751 Y161.806 E7.13163
G1 X119.179 Y162.47 E7.14482
G1 X118.584 Y163.024 E7.15705
G1 X117.866 Y163.576 E7.17068
G1 X117.17 Y163.996 E7.18292
G1 X116.34 Y164.394 E7.19677
G1 X115.573 Y164.662 E7.20899
G1 X114.729 Y164.868 E7.22207
G1 X113.922 Y164.975 E7.23432
G1 X112.37 Y165 E7.25768
G1 X110.499 Y164.943 E7.28585
G1 X107.808 Y164.935 E7.32634
G1 X105.39 Y165.002 E7.36274
M204 S627
G0 F6030 X105.385 Y164.522
M204 S470
G1 F2010 X104.178 Y164.52 E7.38091
G1 X102.315 Y164.463 E7.40895
G1 X99.596 Y164.455 E7.44987
G1 X97.188 Y164.522 E7.48612
G1 X96.595 Y164.529 E7.49505
G1 X95.865 Y164.474 E7.50606
G1 X95.025 Y164.328 E7.51889
G1 X94.314 Y164.124 E7.53002
G1 X93.456 Y163.783 E7.54392
G1 X92.383 Y163.159 E7.5626
G1 X91.541 Y162.5 E7.57869
G1 X90.912 Y161.865 E7.59214
G1 X90.461 Y161.298 E7.60304
G1 X89.983 Y160.558 E7.6163
G1 X89.661 Y159.916 E7.6271
G1 X89.332 Y159.066 E7.64082
G1 X89.154 Y158.386 E7.6514
G1 X89.01 Y157.52 E7.66461
G1 X88.97 Y156.79 E7.67561
G1 X88.991 Y156.159 E7.68511
G1 X89.044 Y153.463 E7.72569
G1 X89.018 Y150.731 E7.7668
G1 X89.002 Y150.162 E7.77537
G1 X88.967 Y148.929 E7.79393
G1 X88.991 Y147.958 E7.80855
G1 X89.044 Y145.263 E7.84911
G1 X89.018 Y142.531 E7.89023
G1 X89.002 Y141.961 E7.89881
G1 X88.968 Y140.735 E7.91726
G1 X89.008 Y139.499 E7.93587
G1 X89.119 Y138.774 E7.94691
G1 X89.332 Y137.935 E7.95994
G1 X89.59 Y137.248 E7.97098
G1 X89.986 Y136.437 E7.98456
G1 X90.369 Y135.835 E7.9953
G1 X90.891 Y135.159 E8.00815
G1 X91.428 Y134.603 E8.01978
G1 X92.095 Y134.038 E8.03294
G1 X92.687 Y133.639 E8.04368
G1 X93.463 Y133.216 E8.05698
G1 X94.147 Y132.934 E8.06812
G1 X94.978 Y132.683 E8.08118
G1 X95.715 Y132.547 E8.09246
G1 X96.98 Y132.462 E8.11154
G1 X98.929 Y132.519 E8.14088
G1 X101.657 Y132.54 E8.18193
G1 X104.419 Y132.482 E8.2235
G1 X105.172 Y132.462 E8.23484
G1 X107.129 Y132.519 E8.2643
G1 X109.857 Y132.54 E8.30536
G1 X112.607 Y132.482 E8.34675
G1 X113.707 Y132.488 E8.3633
G1 X114.596 Y132.594 E8.37677
G1 X115.311 Y132.761 E8.38782
G1 X116.138 Y133.042 E8.40097
G1 X116.79 Y133.346 E8.41179
G1 X117.587 Y133.815 E8.42571
G1 X118.536 Y134.581 E8.44406
G1 X119.278 Y135.37 E8.46036
G1 X119.808 Y136.101 E8.47395
G1 X120.166 Y136.733 E8.48488
G1 X120.522 Y137.529 E8.498
G1 X120.742 Y138.217 E8.50887
G1 X120.918 Y139.008 E8.52106
G1 X121.026 Y140.02 E8.53638
G1 X121.027 Y140.92 E8.54992
G1 X120.969 Y142.794 E8.57814
G1 X120.962 Y145.494 E8.61877
G1 X121.029 Y148.176 E8.65914
G1 X121.027 Y149.12 E8.67335
G1 X120.969 Y150.994 E8.70156
G1 X120.962 Y153.694 E8.74219
G1 X121.035 Y156.549 E8.78517
G1 X120.992 Y157.425 E8.79837
G1 X120.935 Y157.907 E8.80567
G1 X120.787 Y158.619 E8.81662
G1 X120.53 Y159.448 E8.82968
G1 X120.242 Y160.111 E8.84055
G1 X119.791 Y160.923 E8.85453
G1 X119.384 Y161.496 E8.86511
G1 X118.823 Y162.148 E8.87805
G1 X118.289 Y162.646 E8.88904
G1 X117.583 Y163.188 E8.90243
G1 X116.959 Y163.565 E8.9134
G1 X116.143 Y163.956 E8.92702
G1 X115.454 Y164.196 E8.938
G1 X114.624 Y164.399 E8.95086
G1 X113.9 Y164.496 E8.96185
G1 X112.378 Y164.52 E8.98476
G1 X110.515 Y164.463 E9.01281
G1 X107.796 Y164.455 E9.05372
G1 X105.385 Y164.522 E9.09002
M204 S627
G0 F6030 X105.379 Y164.042
M204 S470
G1 F2010 X104.187 Y164.04 E9.10796
G1 X102.33 Y163.983 E9.13591
G1 X99.617 Y163.975 E9.17674
G1 X97.182 Y164.042 E9.2134
G1 X96.589 Y164.049 E9.22232
G1 X95.942 Y164 E9.23209
G1 X95.117 Y163.857 E9.24469
G1 X94.487 Y163.676 E9.25455
G1 X93.646 Y163.342 E9.26817
G1 X92.643 Y162.756 E9.28565
G1 X91.88 Y162.16 E9.30022
G1 X91.261 Y161.535 E9.31346
G1 X90.861 Y161.033 E9.32312
G1 X90.392 Y160.307 E9.33612
G1 X90.107 Y159.738 E9.3457
G1 X89.785 Y158.906 E9.35912
G1 X89.627 Y158.303 E9.3685
G1 X89.485 Y157.453 E9.38147
G1 X89.45 Y156.806 E9.39122
G1 X89.471 Y156.175 E9.40072
G1 X89.524 Y153.468 E9.44147
G1 X89.499 Y150.737 E9.48257
G1 X89.481 Y150.154 E9.49134
G1 X89.446 Y148.916 E9.50998
G1 X89.471 Y147.974 E9.52416
G1 X89.524 Y145.268 E9.56489
G1 X89.499 Y142.537 E9.60599
G1 X89.481 Y141.953 E9.61478
G1 X89.447 Y140.722 E9.63331
G1 X89.487 Y139.53 E9.65126
G1 X89.585 Y138.888 E9.66104
G1 X89.795 Y138.063 E9.67385
G1 X90.023 Y137.455 E9.68362
G1 X90.411 Y136.66 E9.69693
G1 X90.751 Y136.126 E9.70646
G1 X91.266 Y135.459 E9.71914
