;FLAVOR:Marlin
;TIME:5613
;Filament used: 0.977712m, 0m
;Layer height: 0.1
;MINX:78.88
;MINY:124.88
;MINZ:0.2
;MAXX:131.12
;MAXY:172.12
;MAXZ:7
;Generated with StratosEngine 1.6.0
T0
M82 ;absolute extrusion mode
;Machine Model: Sigma R19 
;Materials used: T0 ABS  
;Extruders used: T0 0.4  
M141 S0 	;Set chamber temperature 
M140 S100 	;Heat build surface
M104 T0 S235	;Heat extruder 0
M190 S100 	;Wait until bed temperature reached 
M109 T0 S235	;Heat extruder 0 and wait
G21 		;metric values 
G90 		;absolute positioning 
M204 S600 	;set default acceleration 
M205 X12.5 Y12.5 ;set default jerk 
M107 		;start with the fan off 
G28 X0 Y0 	;move X/Y to min endstops 
G28 Z0 		;move Z to min endstops 
G1 Z5 F200 	;safety Z axis movement

T0
G92 E0 		;set zero the extruded length 
G1 E15 F30
G92 E0 
G4 S2 		;stabilize hotend 
G1 E-0.5 F1000 
G92 E0

G4 P1
G4 P2
G4 P3

G92 E0
;LAYER_COUNT:69
;LAYER:0
M107
M204 S627
M205 X9.38 Y9.38
G1 F600 Z0.4
G0 F6030 X120.5 Y172.12 Z0.4
M204 S470
;TYPE:SKIRT
G1 F600 Z0.2
G1 F1050 E0
G1 F2010 X89.5 Y172.12 E0.4665
G1 X88.212 Y172.036 E0.48593
G1 X86.72 Y171.743 E0.50881
G1 X85.295 Y171.245 E0.53152
G1 X83.951 Y170.547 E0.55431
G1 X82.718 Y169.664 E0.57713
G1 X81.62 Y168.611 E0.60003
G1 X80.694 Y167.425 E0.62267
G1 X79.939 Y166.108 E0.64552
G1 X79.381 Y164.703 E0.66826
G1 X79.028 Y163.23 E0.69106
G1 X78.888 Y161.723 E0.71383
G1 X78.88 Y161.501 E0.71718
G1 X78.88 Y135.5 E1.10845
G1 X78.964 Y134.212 E1.12788
G1 X79.258 Y132.715 E1.15083
G1 X79.759 Y131.285 E1.17364
G1 X80.454 Y129.948 E1.19631
G1 X81.336 Y128.718 E1.21909
G1 X82.389 Y127.62 E1.24198
G1 X83.575 Y126.694 E1.26462
G1 X84.892 Y125.939 E1.28747
G1 X86.294 Y125.382 E1.31017
G1 X87.769 Y125.028 E1.333
G1 X89.271 Y124.889 E1.3557
G1 X89.492 Y124.881 E1.35902
G1 X120.5 Y124.88 E1.82565
G1 X121.788 Y124.964 E1.84507
G1 X123.289 Y125.259 E1.86809
G1 X124.707 Y125.756 E1.8907
G1 X126.05 Y126.453 E1.91347
G1 X127.282 Y127.336 E1.93628
G1 X128.373 Y128.382 E1.95903
G1 X129.305 Y129.574 E1.9818
G1 X130.065 Y130.9 E2.0048
G1 X130.618 Y132.295 E2.02738
G1 X130.972 Y133.769 E2.05019
G1 X131.112 Y135.277 E2.07298
G1 X131.12 Y135.499 E2.07632
G1 X131.12 Y161.5 E2.4676
G1 X131.036 Y162.788 E2.48702
G1 X130.744 Y164.276 E2.50984
G1 X130.245 Y165.705 E2.53262
G1 X129.547 Y167.05 E2.55542
G1 X128.664 Y168.282 E2.57823
G1 X127.611 Y169.38 E2.60112
G1 X126.425 Y170.306 E2.62377
G1 X125.106 Y171.061 E2.64664
G1 X123.707 Y171.618 E2.6693
G1 X122.231 Y171.972 E2.69214
G1 X120.722 Y172.112 E2.71494
G1 X120.5 Y172.12 E2.71829
M204 S627
G0 F6030 X120.5 Y171.64
M204 S470
G1 F2010 X89.5 Y171.64 E3.18479
G1 X88.246 Y171.557 E3.2037
G1 X86.822 Y171.274 E3.22555
G1 X85.463 Y170.795 E3.24723
G1 X84.181 Y170.126 E3.26899
G1 X83.006 Y169.28 E3.29078
G1 X81.96 Y168.272 E3.31264
G1 X81.078 Y167.138 E3.33426
G1 X80.361 Y165.879 E3.35606
G1 X79.831 Y164.535 E3.37781
G1 X79.497 Y163.128 E3.39957
G1 X79.367 Y161.689 E3.42131
G1 X79.36 Y161.501 E3.42414
G1 X79.36 Y135.5 E3.81542
G1 X79.443 Y134.246 E3.83433
G1 X79.727 Y132.818 E3.85624
G1 X80.208 Y131.454 E3.878
G1 X80.875 Y130.178 E3.89967
G1 X81.72 Y129.006 E3.92141
G1 X82.728 Y127.96 E3.94327
G1 X83.862 Y127.078 E3.96489
G1 X85.121 Y126.361 E3.98669
G1 X86.462 Y125.832 E4.00839
G1 X87.871 Y125.497 E4.03018
G1 X89.305 Y125.368 E4.05185
G1 X89.492 Y125.361 E4.05467
G1 X120.5 Y125.36 E4.52129
G1 X121.754 Y125.443 E4.5402
G1 X123.186 Y125.728 E4.56217
G1 X124.539 Y126.205 E4.58376
G1 X125.821 Y126.875 E4.60553
G1 X126.994 Y127.72 E4.62728
G1 X128.034 Y128.721 E4.64901
G1 X128.921 Y129.862 E4.67075
G1 X129.643 Y131.13 E4.69271
G1 X130.169 Y132.462 E4.71426
G1 X130.503 Y133.871 E4.73605
G1 X130.633 Y135.311 E4.75781
G1 X130.64 Y135.499 E4.76064
G1 X130.64 Y161.5 E5.15192
G1 X130.557 Y162.754 E5.17083
G1 X130.275 Y164.174 E5.19261
G1 X129.795 Y165.537 E5.21436
G1 X129.125 Y166.821 E5.23615
G1 X128.28 Y167.994 E5.25791
G1 X127.272 Y169.04 E5.27977
G1 X126.138 Y169.922 E5.30139
G1 X124.876 Y170.64 E5.32324
G1 X123.539 Y171.168 E5.34487
G1 X122.129 Y171.503 E5.36668
G1 X120.688 Y171.633 E5.38845
G1 X120.5 Y171.64 E5.39128
M204 S627
G0 F6030 X120.5 Y171.16
M204 S470
G1 F2010 X89.5 Y171.16 E5.85779
G1 X88.28 Y171.079 E5.87618
G1 X86.924 Y170.805 E5.897
G1 X85.631 Y170.345 E5.91766
G1 X84.41 Y169.705 E5.9384
G1 X83.293 Y168.896 E5.95915
G1 X82.3 Y167.932 E5.97998
G1 X81.463 Y166.85 E6.00057
G1 X80.782 Y165.649 E6.02134
G1 X80.28 Y164.367 E6.04206
G1 X79.966 Y163.026 E6.06279
G1 X79.845 Y161.655 E6.0835
G1 X79.84 Y161.501 E6.08582
G1 X79.84 Y135.5 E6.47709
G1 X79.921 Y134.28 E6.49549
G1 X80.196 Y132.92 E6.51637
G1 X80.658 Y131.622 E6.53711
G1 X81.297 Y130.408 E6.55775
G1 X82.104 Y129.293 E6.57846
G1 X83.068 Y128.3 E6.59929
G1 X84.15 Y127.463 E6.61988
G1 X85.351 Y126.782 E6.64065
G1 X86.629 Y126.281 E6.66131
G1 X87.973 Y125.966 E6.68208
G1 X89.339 Y125.846 E6.70272
G1 X89.492 Y125.841 E6.70502
G1 X120.5 Y125.84 E7.17164
G1 X121.72 Y125.921 E7.19004
G1 X123.084 Y126.197 E7.21098
G1 X124.371 Y126.655 E7.23154
G1 X125.591 Y127.296 E7.25228
G1 X126.707 Y128.104 E7.27301
G1 X127.694 Y129.061 E7.2937
G1 X128.537 Y130.149 E7.31441
G1 X129.222 Y131.36 E7.33535
G1 X129.719 Y132.63 E7.35587
G1 X130.034 Y133.973 E7.37663
G1 X130.155 Y135.345 E7.39736
G1 X130.16 Y135.499 E7.39968
G1 X130.16 Y161.5 E7.79095
G1 X130.079 Y162.72 E7.80935
G1 X129.806 Y164.072 E7.83011
G1 X129.346 Y165.369 E7.85082
G1 X128.704 Y166.591 E7.87159
G1 X127.896 Y167.707 E7.89232
G1 X126.932 Y168.7 E7.91315
G1 X125.85 Y169.537 E7.93374
G1 X124.647 Y170.219 E7.95455
G1 X123.371 Y170.718 E7.97516
G1 X122.027 Y171.034 E7.99594
G1 X120.654 Y171.155 E8.01668
G1 X120.5 Y171.16 E8.019
M204 S627
G0 F6030 X120.5 Y170.68
M204 S470
G1 F2010 X89.5 Y170.68 E8.4855
G1 X88.315 Y170.6 E8.50338
G1 X87.027 Y170.336 E8.52316
G1 X85.799 Y169.896 E8.54279
G1 X84.64 Y169.283 E8.56252
G1 X83.581 Y168.512 E8.58223
G1 X82.639 Y167.593 E8.60204
G1 X81.847 Y166.562 E8.6216
G1 X81.203 Y165.419 E8.64134
G1 X80.73 Y164.199 E8.66104
G1 X80.435 Y162.924 E8.68073
G1 X80.324 Y161.621 E8.70041
G1 X80.32 Y161.501 E8.70222
G1 X80.32 Y135.5 E9.09349
G1 X80.4 Y134.315 E9.11136
G1 X80.665 Y133.023 E9.13121
G1 X81.108 Y131.79 E9.15093
G1 X81.718 Y130.638 E9.17054
G1 X82.488 Y129.581 E9.19022
G1 X83.407 Y128.639 E9.21003
G1 X84.438 Y127.847 E9.22959
G1 X85.581 Y127.203 E9.24933
G1 X86.797 Y126.731 E9.26896
G1 X88.076 Y126.435 E9.28872
G1 X89.373 Y126.325 E9.30831
G1 X89.492 Y126.321 E9.3101
G1 X120.5 Y126.32 E9.77672
G1 X121.685 Y126.4 E9.79459
G1 X122.981 Y126.666 E9.8145
G1 X124.202 Y127.104 E9.83402
G1 X125.361 Y127.717 E9.85375
G1 X126.419 Y128.488 E9.87345
G1 X127.355 Y129.4 E9.89312
G1 X128.153 Y130.437 E9.91281
G1 X128.8 Y131.589 E9.93269
G1 X129.269 Y132.798 E9.95221
G1 X129.565 Y134.076 E9.97195
G1 X129.676 Y135.379 E9.99163
G1 X129.68 Y135.499 E9.99343
G1 X129.68 Y161.5 E10.38471
G1 X129.6 Y162.685 E10.40258
G1 X129.337 Y163.97 E10.42232
G1 X128.896 Y165.201 E10.442
G1 X128.283 Y166.361 E10.46174
G1 X127.512 Y167.419 E10.48144
G1 X126.593 Y168.361 E10.50125
G1 X125.562 Y169.153 E10.52081
G1 X124.417 Y169.797 E10.54058
G1 X123.203 Y170.269 E10.56018
G1 X121.924 Y170.565 E10.57994
G1 X120.619 Y170.676 E10.59964
G1 X120.5 Y170.68 E10.60144
M204 S627
G0 F6030 X120.5 Y170.2
M204 S470
G1 F2010 X89.5 Y170.2 E11.06794
G1 X88.349 Y170.121 E11.0853
G1 X87.129 Y169.867 E11.10405
G1 X85.967 Y169.446 E11.12265
G1 X84.87 Y168.862 E11.14135
G1 X83.869 Y168.128 E11.16003
G1 X82.979 Y167.254 E11.1788
G1 X82.231 Y166.275 E11.19734
G1 X81.625 Y165.189 E11.21606
G1 X81.18 Y164.032 E11.23471
G1 X80.904 Y162.822 E11.25339
G1 X80.803 Y161.586 E11.27205
G1 X80.8 Y161.501 E11.27333
G1 X80.8 Y135.5 E11.66461
G1 X80.879 Y134.349 E11.68197
G1 X81.134 Y133.125 E11.70078
G1 X81.557 Y131.958 E11.71946
G1 X82.139 Y130.869 E11.73804
G1 X82.872 Y129.869 E11.7567
G1 X83.746 Y128.979 E11.77547
G1 X84.725 Y128.231 E11.79401
G1 X85.811 Y127.625 E11.81273
G1 X86.965 Y127.181 E11.83133
G1 X88.178 Y126.904 E11.85006
G1 X89.407 Y126.804 E11.86861
G1 X89.492 Y126.801 E11.86989
G1 X120.5 Y126.8 E12.33652
G1 X121.651 Y126.879 E12.35388
G1 X122.878 Y127.135 E12.37274
G1 X124.034 Y127.554 E12.39124
G1 X125.131 Y128.139 E12.40995
G1 X126.131 Y128.872 E12.42861
G1 X127.016 Y129.739 E12.44725
G1 X127.769 Y130.725 E12.46592
G1 X128.379 Y131.819 E12.48477
G1 X128.819 Y132.966 E12.50326
G1 X129.096 Y134.178 E12.52197
G1 X129.197 Y135.414 E12.54063
G1 X129.2 Y135.499 E12.54191
G1 X129.2 Y161.5 E12.93318
G1 X129.121 Y162.651 E12.95055
G1 X128.868 Y163.868 E12.96925
G1 X128.446 Y165.034 E12.98791
G1 X127.861 Y166.131 E13.00662
G1 X127.128 Y167.131 E13.02528
G1 X126.254 Y168.021 E13.04405
G1 X125.275 Y168.769 E13.06259
G1 X124.187 Y169.376 E13.08134
G1 X123.035 Y169.819 E13.09991
G1 X121.822 Y170.096 E13.11864
G1 X120.585 Y170.197 E13.13731
G1 X120.5 Y170.2 E13.13859
M204 S627
G0 F6030 X120.5 Y169.72
M204 S470
G1 F2010 X89.5 Y169.72 E13.60509
G1 X88.28 Y169.627 E13.62351
G1 X87.133 Y169.369 E13.6412
G1 X86.042 Y168.954 E13.65876
G1 X85.012 Y168.384 E13.67648
G1 X84.079 Y167.676 E13.6941
G1 X83.252 Y166.837 E13.71183
G1 X82.56 Y165.901 E13.72935
G1 X82.003 Y164.866 E13.74704
G1 X81.601 Y163.765 E13.76467
G1 X81.358 Y162.617 E13.78233
G1 X81.28 Y161.501 E13.79917
G1 X81.28 Y135.5 E14.19044
G1 X81.373 Y134.28 E14.20886
G1 X81.632 Y133.129 E14.22661
G1 X82.049 Y132.034 E14.24424
G1 X82.616 Y131.012 E14.26183
G1 X83.324 Y130.079 E14.27945
G1 X84.163 Y129.252 E14.29718
G1 X85.099 Y128.56 E14.3147
G1 X86.134 Y128.003 E14.33239
G1 X87.231 Y127.602 E14.34996
G1 X88.383 Y127.358 E14.36768
G1 X89.492 Y127.281 E14.38441
G1 X120.5 Y127.28 E14.85103
G1 X121.72 Y127.373 E14.86945
G1 X122.874 Y127.633 E14.88725
G1 X123.959 Y128.046 E14.90472
G1 X124.988 Y128.616 E14.92242
G1 X125.921 Y129.324 E14.94005
G1 X126.743 Y130.156 E14.95765
G1 X127.44 Y131.1 E14.9753
G1 X128 Y132.141 E14.99309
G1 X128.398 Y133.231 E15.01055
G1 X128.642 Y134.383 E15.02828
G1 X128.72 Y135.499 E15.04511
G1 X128.72 Y161.5 E15.43638
G1 X128.627 Y162.719 E15.45478
G1 X128.371 Y163.864 E15.47244
G1 X127.954 Y164.959 E15.49007
G1 X127.384 Y165.988 E15.50777
G1 X126.676 Y166.921 E15.5254
G1 X125.837 Y167.748 E15.54313
G1 X124.901 Y168.44 E15.56064
G1 X123.865 Y168.996 E15.57834
G1 X122.769 Y169.398 E15.5959
G1 X121.617 Y169.642 E15.61362
G1 X120.5 Y169.72 E15.63047
M204 S627
G0 F6030 X120.5 Y169.24
M204 S470
G1 F2010 X89.483 Y169.239 E16.09723
G1 X88.383 Y169.158 E16.11383
G1 X87.301 Y168.92 E16.1305
G1 X86.272 Y168.533 E16.14704
G1 X85.3 Y168 E16.16373
G1 X84.418 Y167.337 E16.18033
G1 X83.636 Y166.55 E16.19703
G1 X82.981 Y165.671 E16.21352
G1 X82.453 Y164.698 E16.23018
G1 X82.07 Y163.663 E16.24679
G1 X81.837 Y162.583 E16.26342
G1 X81.76 Y161.501 E16.27974
G1 X81.761 Y135.483 E16.67127
G1 X81.842 Y134.383 E16.68787
G1 X82.081 Y133.297 E16.7046
G1 X82.47 Y132.264 E16.72121
G1 X83 Y131.3 E16.73777
G1 X83.663 Y130.418 E16.75437
G1 X84.45 Y129.636 E16.77107
G1 X85.329 Y128.981 E16.78756
G1 X86.302 Y128.453 E16.80422
G1 X87.334 Y128.071 E16.82078
G1 X88.417 Y127.837 E16.83746
G1 X89.492 Y127.761 E16.85367
G1 X120.5 Y127.76 E17.3203
G1 X121.617 Y127.842 E17.33715
G1 X122.706 Y128.082 E17.35393
G1 X123.729 Y128.467 E17.37038
G1 X124.7 Y129 E17.38705
G1 X125.582 Y129.663 E17.40365
G1 X126.359 Y130.444 E17.42023
G1 X127.019 Y131.329 E17.43684
G1 X127.55 Y132.309 E17.45362
G1 X127.929 Y133.334 E17.47006
G1 X128.163 Y134.417 E17.48674
G1 X128.24 Y135.499 E17.50306
G1 X128.239 Y161.517 E17.89459
G1 X128.158 Y162.617 E17.91119
G1 X127.921 Y163.696 E17.92781
G1 X127.533 Y164.729 E17.94442
G1 X127 Y165.7 E17.96109
G1 X126.337 Y166.582 E17.97769
G1 X125.55 Y167.364 E17.99439
G1 X124.671 Y168.019 E18.01088
G1 X123.697 Y168.547 E18.02756
G1 X122.666 Y168.929 E18.0441
G1 X121.583 Y169.163 E18.06077
G1 X120.5 Y169.24 E18.07711
M204 S627
G1 F2100 E12.07711
;MESH:SerpentinePlateCaptiveNut.stl(1)
G0 F6030 X120.425 Y168.062
G0 X122.064 Y167.803
G0 X122.844 Y167.378
G0 X123.515 Y166.796
G0 X124.045 Y166.082
G0 X124.411 Y165.271
G0 X124.592 Y164.399
G0 X124.582 Y163.512
G0 X124.383 Y162.646
G0 X124 Y161.843
G0 X123.454 Y161.14
G0 X122.771 Y160.572
G0 X119.619 Y158.915
G0 X118.975 Y158.43
G0 X118.44 Y157.774
G0 X118.093 Y157.019
G0 X117.942 Y156.207
G0 X117.991 Y155.382
G0 X124.411 Y134.271
G0 X124.592 Y133.399
G0 X124.582 Y132.512
G0 X124.383 Y131.646
G0 X124 Y130.843
G0 X123.454 Y130.14
G0 X121.453 Y128.889
G0 X121.534 Y128.314
M204 S470
;TYPE:WALL-OUTER
G1 F1050 E18.07711
G1 F2010 X122.548 Y128.535 E18.09273
G1 X123.515 Y128.897 E18.10827
G1 X124.427 Y129.395 E18.12391
G1 X125.251 Y130.012 E18.1394
G1 X125.988 Y130.749 E18.15508
G1 X126.605 Y131.573 E18.17057
G1 X127.106 Y132.492 E18.18632
G1 X127.467 Y133.459 E18.20186
G1 X127.686 Y134.466 E18.21736
G1 X127.76 Y135.5 E18.23296
G1 X127.76 Y161.5 E18.62422
G1 X127.686 Y162.534 E18.63982
G1 X127.467 Y163.541 E18.65533
G1 X127.103 Y164.515 E18.67098
G1 X126.605 Y165.427 E18.68662
G1 X125.988 Y166.251 E18.70211
G1 X125.245 Y166.993 E18.71791
G1 X124.427 Y167.605 E18.73328
G1 X123.515 Y168.103 E18.74892
G1 X122.541 Y168.467 E18.76457
G1 X121.534 Y168.686 E18.78007
G1 X120.497 Y168.76 E18.79572
G1 X89.503 Y168.76 E19.26213
G1 X88.466 Y168.686 E19.27778
G1 X87.459 Y168.467 E19.29328
G1 X86.485 Y168.103 E19.30893
G1 X85.573 Y167.605 E19.32457
G1 X84.749 Y166.988 E19.34006
G1 X84.007 Y166.245 E19.35586
G1 X83.395 Y165.427 E19.37123
G1 X82.897 Y164.515 E19.38687
G1 X82.533 Y163.541 E19.40252
G1 X82.314 Y162.534 E19.41803
G1 X82.24 Y161.5 E19.43363
G1 X82.24 Y135.5 E19.82489
G1 X82.314 Y134.466 E19.84049
G1 X82.535 Y133.452 E19.8561
G1 X82.901 Y132.475 E19.8718
G1 X83.395 Y131.573 E19.88728
G1 X84.012 Y130.749 E19.90277
G1 X84.755 Y130.007 E19.91857
G1 X85.573 Y129.395 E19.93394
G1 X86.485 Y128.897 E19.94958
G1 X87.459 Y128.533 E19.96523
G1 X88.466 Y128.314 E19.98074
G1 X89.495 Y128.241 E19.99626
G1 X120.497 Y128.24 E20.46279
G1 X121.534 Y128.314 E20.47844
M204 S627
G0 F6030 X121.729 Y128.356
G0 X121.616 Y128.872
G0 X121.605 Y128.922
G0 X120.278 Y128.893
G0 X93.411 Y134.271
G0 X93.045 Y135.082
G0 X92.515 Y135.796
G0 X91.844 Y136.378
G0 X91.064 Y136.803
G0 X90.208 Y137.051
G0 X89.321 Y137.107
G0 X88.404 Y136.965
G0 X87.611 Y136.652
G0 X86.872 Y136.162
G0 X86.252 Y135.522
G0 X85.443 Y133.955
G0 X85.992 Y133.771
M204 S470
G1 F2010 X86.241 Y134.509 E20.49016
G1 X86.665 Y135.202 E20.50238
G1 X87.206 Y135.761 E20.51409
G1 X87.852 Y136.189 E20.52575
G1 X88.541 Y136.461 E20.5369
G1 X89.344 Y136.586 E20.54913
G1 X90.119 Y136.536 E20.56082
G1 X90.865 Y136.32 E20.5725
G1 X91.547 Y135.949 E20.58419
G1 X92.132 Y135.441 E20.59585
G1 X92.595 Y134.817 E20.60754
G1 X92.914 Y134.11 E20.61921
G1 X93.072 Y133.349 E20.63091
G1 X93.064 Y132.573 E20.64258
G1 X92.89 Y131.818 E20.65424
G1 X92.555 Y131.116 E20.66595
G1 X92.079 Y130.503 E20.67763
G1 X91.482 Y130.008 E20.6893
G1 X90.794 Y129.652 E20.70096
G1 X90.081 Y129.456 E20.71208
G1 X89.306 Y129.414 E20.72376
G1 X88.539 Y129.539 E20.73546
G1 X87.818 Y129.827 E20.74714
G1 X87.175 Y130.263 E20.75883
G1 X86.641 Y130.827 E20.77052
G1 X86.241 Y131.492 E20.7822
G1 X85.992 Y132.228 E20.79389
G1 X85.912 Y132.962 E20.805
G1 X85.992 Y133.771 E20.81723
M204 S627
G0 F6030 X86.056 Y133.96
G0 X85.52 Y133.873
M204 S470
;TYPE:WALL-INNER
G1 F2010 X85.803 Y134.714 E20.83059
G1 X86.283 Y135.498 E20.84442
G1 X86.897 Y136.132 E20.8577
G1 X87.629 Y136.617 E20.87092
G1 X88.414 Y136.927 E20.88362
G1 X89.322 Y137.068 E20.89745
G1 X90.202 Y137.012 E20.91071
G1 X91.049 Y136.767 E20.92398
G1 X91.822 Y136.346 E20.93723
G1 X92.486 Y135.769 E20.95047
G1 X93.011 Y135.062 E20.96372
G1 X93.373 Y134.259 E20.97697
G1 X93.553 Y133.396 E20.99024
G1 X93.543 Y132.516 E21.00348
G1 X93.346 Y131.659 E21.01672
G1 X92.966 Y130.863 E21.02999
G1 X92.426 Y130.167 E21.04325
G1 X91.749 Y129.605 E21.05649
G1 X90.97 Y129.203 E21.06968
G1 X90.944 Y129.196 E21.07008
G1 X90.158 Y128.979 E21.08235
G1 X89.504 Y128.944 E21.09221
G1 X89.28 Y128.932 E21.09559
G1 X88.575 Y129.047 E21.10634
G1 X88.41 Y129.074 E21.10885
G1 X87.737 Y129.343 E21.11976
G1 X87.592 Y129.401 E21.12211
