;FLAVOR:Marlin
;TIME:4210
;Filament used: 1.03855m, 0m
;Layer height: 0.2
;MINX:72.975
;MINY:116.598
;MINZ:0.2
;MAXX:137.014
;MAXY:180.408
;MAXZ:8.4
;Generated with StratosEngine 1.6.0
T0
M82 ;absolute extrusion mode
;Machine Model: Sigma R19 
;Materials used: T0 TPU  
;Extruders used: T0 0.4  
M141 S0 	;Set chamber temperature 
M140 S60 	;Heat build surface
M104 T0 S210	;Heat extruder 0
M190 S60 	;Wait until bed temperature reached 
M109 T0 S210	;Heat extruder 0 and wait
G21 		;metric values 
G90 		;absolute positioning 
M204 S600 	;set default acceleration 
M205 X12.5 Y12.5 ;set default jerk 
M107 		;start with the fan off 
G28 X0 Y0 	;move X/Y to min endstops 
G28 Z0 		;move Z to min endstops 
G1 Z5 F200 	;safety Z axis movement

T0
G92 E0 		;set zero the extruded length 
G1 E15 F30
G92 E0 
G4 S2 		;stabilize hotend 
G1 E-0.5 F1000 
G92 E0

G4 P1
G4 P2
G4 P3

G92 E0
;LAYER_COUNT:42
;LAYER:0
M107
M204 S571
M205 X9.38 Y9.38
G0 F606 X99.075 Y180.4 Z0.2
M204 S428
;TYPE:SKIRT
G1 F804 X98.103 Y180.408 E0.01371
G1 X97.358 Y180.374 E0.02423
G1 X96.382 Y180.282 E0.03807
G1 X95.291 Y180.109 E0.05365
G1 X94.286 Y179.884 E0.06818
G1 X93.368 Y179.621 E0.08165
G1 X92.353 Y179.263 E0.09683
G1 X91.651 Y178.973 E0.10755
G1 X91.184 Y178.755 E0.11482
G1 X90.548 Y178.44 E0.12483
G1 X89.623 Y177.916 E0.13983
G1 X88.992 Y177.514 E0.15039
G1 X88.752 Y177.347 E0.15451
G1 X88.212 Y176.954 E0.16393
G1 X87.916 Y176.724 E0.16922
G1 X87.377 Y176.277 E0.1791
G1 X86.73 Y175.691 E0.19142
G1 X85.928 Y174.868 E0.20763
G1 X85.319 Y174.159 E0.22082
G1 X84.766 Y173.445 E0.23356
G1 X84.507 Y173.077 E0.2399
G1 X84.097 Y172.465 E0.2503
G1 X83.75 Y171.893 E0.25974
G1 X83.304 Y171.067 E0.27298
G1 X82.847 Y170.082 E0.2883
G1 X82.486 Y169.166 E0.30219
G1 X82.161 Y168.161 E0.31709
G1 X81.897 Y167.136 E0.33202
G1 X81.754 Y166.441 E0.34203
G1 X81.59 Y165.354 E0.35754
G1 X81.15 Y162.614 E0.39669
G1 X80.656 Y160.004 E0.43417
G1 X80.078 Y157.367 E0.47225
G1 X79.434 Y154.774 E0.50995
G1 X78.705 Y152.165 E0.54816
G1 X77.919 Y149.625 E0.58568
G1 X77.049 Y147.074 E0.6237
G1 X76.097 Y144.525 E0.66209
G1 X75.079 Y142.014 E0.70031
G1 X74.595 Y140.893 E0.71754
G1 X74.28 Y140.151 E0.72891
G1 X74.007 Y139.453 E0.73948
G1 X73.708 Y138.552 E0.75288
G1 X73.508 Y137.836 E0.76337
G1 X73.382 Y137.293 E0.77123
G1 X73.247 Y136.637 E0.78068
G1 X73.096 Y135.639 E0.79492
G1 X73.027 Y134.951 E0.80467
G1 X72.975 Y133.875 E0.81987
G1 X72.988 Y132.907 E0.83353
G1 X73.063 Y131.877 E0.8481
G1 X73.202 Y130.843 E0.86282
G1 X73.4 Y129.834 E0.87732
G1 X73.587 Y129.087 E0.88819
G1 X73.951 Y127.935 E0.90523
G1 X74.295 Y127.033 E0.91885
G1 X74.614 Y126.321 E0.92986
G1 X75.063 Y125.439 E0.94382
G1 X75.583 Y124.555 E0.95829
G1 X76.204 Y123.636 E0.97394
G1 X76.748 Y122.922 E0.9866
G1 X77.472 Y122.088 E1.00218
G1 X78.045 Y121.494 E1.01383
G1 X78.36 Y121.194 E1.01996
G1 X78.873 Y120.727 E1.02975
G1 X79.697 Y120.058 E1.04472
G1 X80.326 Y119.602 E1.05568
G1 X81.121 Y119.087 E1.06905
G1 X81.452 Y118.89 E1.07448
G1 X82.057 Y118.554 E1.08425
G1 X82.833 Y118.17 E1.09646
G1 X83.865 Y117.735 E1.11226
G1 X84.861 Y117.386 E1.12715
G1 X85.607 Y117.168 E1.13811
G1 X86.067 Y117.056 E1.14479
G1 X86.763 Y116.904 E1.15484
G1 X87.709 Y116.745 E1.16838
G1 X88.461 Y116.661 E1.17905
G1 X89.239 Y116.612 E1.19005
G1 X89.917 Y116.599 E1.19962
G1 X90.068 Y116.598 E1.20175
G1 X90.878 Y116.614 E1.21318
G1 X91.663 Y116.674 E1.22428
G1 X92.491 Y116.776 E1.23605
G1 X93.323 Y116.921 E1.24797
G1 X93.739 Y117.009 E1.25397
G1 X94.458 Y117.189 E1.26442
G1 X95.332 Y117.452 E1.2773
G1 X95.801 Y117.615 E1.2843
G1 X99 Y118.839 E1.33263
G1 X101.515 Y119.726 E1.37025
G1 X104.084 Y120.55 E1.40831
G1 X106.673 Y121.3 E1.44634
G1 X109.29 Y121.98 E1.48449
G1 X111.909 Y122.582 E1.5224
G1 X114.504 Y123.099 E1.55973
G1 X117.191 Y123.556 E1.59818
G1 X119.834 Y123.931 E1.63584
G1 X120.77 Y124.039 E1.64913
G1 X120.852 Y124.054 E1.65031
G1 X122.127 Y124.205 E1.66842
G1 X122.87 Y124.315 E1.67902
G1 X123.814 Y124.506 E1.69261
G1 X124.511 Y124.681 E1.70274
G1 X125.674 Y125.048 E1.71995
G1 X126.614 Y125.408 E1.73415
G1 X127.283 Y125.708 E1.74449
G1 X127.627 Y125.876 E1.7499
G1 X128.241 Y126.199 E1.75968
G1 X129.015 Y126.652 E1.77234
G1 X129.376 Y126.886 E1.7784
G1 X130.012 Y127.329 E1.78934
G1 X130.666 Y127.826 E1.80093
G1 X131.492 Y128.538 E1.81631
G1 X132.005 Y129.026 E1.8263
G1 X132.402 Y129.441 E1.8344
G1 X132.901 Y129.989 E1.84486
G1 X133.557 Y130.798 E1.85955
G1 X134.01 Y131.423 E1.87044
G1 X134.523 Y132.213 E1.88373
G1 X134.724 Y132.552 E1.88929
G1 X135.058 Y133.154 E1.89901
G1 X135.435 Y133.913 E1.91096
G1 X135.888 Y134.988 E1.92742
G1 X136.211 Y135.91 E1.9412
G1 X136.45 Y136.728 E1.95322
G1 X136.707 Y137.843 E1.96937
G1 X136.825 Y138.501 E1.9788
G1 X136.952 Y139.557 E1.9938
G1 X137.001 Y140.311 E2.00446
G1 X137.014 Y141.015 E2.0144
G1 X137.007 Y141.745 E2.0247
G1 X136.939 Y142.759 E2.03903
G1 X136.86 Y143.423 E2.04847
G1 X136.692 Y144.423 E2.06277
G1 X136.605 Y144.829 E2.06863
G1 X136.426 Y145.549 E2.0791
G1 X136.159 Y146.435 E2.09215
G1 X135.805 Y147.405 E2.10672
G1 X135.379 Y148.372 E2.12163
G1 X135.027 Y149.076 E2.13273
G1 X134.813 Y149.461 E2.13895
G1 X134.421 Y150.127 E2.14985
G1 X133.904 Y150.906 E2.16304
G1 X133.455 Y151.512 E2.17368
G1 X132.831 Y152.273 E2.18756
G1 X132.551 Y152.584 E2.19347
G1 X132.053 Y153.104 E2.20363
G1 X131.395 Y153.73 E2.21644
G1 X130.966 Y154.102 E2.22445
G1 X129.976 Y154.913 E2.2425
G1 X129.024 Y155.668 E2.25965
G1 X126.995 Y157.373 E2.29704
G1 X124.989 Y159.158 E2.33492
G1 X123.038 Y160.994 E2.37271
G1 X121.114 Y162.913 E2.41105
G1 X119.261 Y164.866 E2.44903
G1 X117.493 Y166.839 E2.48641
G1 X115.755 Y168.892 E2.52436
G1 X114.051 Y171.024 E2.56286
G1 X112.954 Y172.468 E2.58844
G1 X111.846 Y173.951 E2.61456
G1 X111.328 Y174.575 E2.626
G1 X111.028 Y174.909 E2.63234
G1 X110.547 Y175.41 E2.64213
G1 X109.867 Y176.055 E2.65536
G1 X109.092 Y176.709 E2.66966
G1 X108.512 Y177.153 E2.67997
G1 X107.446 Y177.868 E2.69808
G1 X106.573 Y178.375 E2.71232
G1 X105.961 Y178.688 E2.72202
G1 X104.964 Y179.136 E2.73744
G1 X104.076 Y179.474 E2.75084
G1 X103.041 Y179.796 E2.76613
G1 X102.056 Y180.036 E2.78044
G1 X101.032 Y180.222 E2.79512
G1 X100.274 Y180.318 E2.8059
G1 X99.789 Y180.358 E2.81276
G1 X99.075 Y180.4 E2.82285
M204 S571
G0 F606 X98.928 Y179.957
M204 S428
G1 F804 X98.111 Y179.958 E2.83438
G1 X97.38 Y179.925 E2.8447
G1 X96.432 Y179.834 E2.85814
G1 X95.368 Y179.665 E2.87334
G1 X94.39 Y179.446 E2.88748
G1 X93.498 Y179.19 E2.90057
G1 X92.509 Y178.84 E2.91537
G1 X91.831 Y178.561 E2.92571
G1 X91.383 Y178.352 E2.93269
G1 X90.747 Y178.037 E2.9427
G1 X89.854 Y177.53 E2.95719
G1 X89.246 Y177.142 E2.96736
G1 X89.017 Y176.983 E2.9713
G1 X88.477 Y176.59 E2.98072
G1 X88.204 Y176.378 E2.9856
G1 X87.665 Y175.931 E2.99548
G1 X87.038 Y175.362 E3.00742
G1 X86.255 Y174.558 E3.02325
G1 X85.664 Y173.871 E3.03604
G1 X85.127 Y173.177 E3.04842
G1 X84.881 Y172.826 E3.05446
G1 X84.471 Y172.214 E3.06486
G1 X83.983 Y171.39 E3.07837
G1 X83.644 Y170.741 E3.0887
G1 X83.258 Y169.898 E3.10178
G1 X82.907 Y169.007 E3.11529
G1 X82.591 Y168.029 E3.12979
G1 X82.335 Y167.03 E3.14434
G1 X82.197 Y166.36 E3.15399
G1 X82.126 Y165.911 E3.1604
G1 X82.025 Y165.219 E3.17027
G1 X81.598 Y162.561 E3.20825
G1 X81.094 Y159.899 E3.24647
G1 X80.517 Y157.264 E3.28453
G1 X79.876 Y154.686 E3.322
G1 X79.132 Y152.021 E3.36104
G1 X78.345 Y149.478 E3.39859
G1 X77.469 Y146.913 E3.43683
G1 X76.525 Y144.384 E3.47492
G1 X75.498 Y141.85 E3.51349
G1 X75.009 Y140.717 E3.5309
G1 X74.694 Y139.975 E3.54227
G1 X74.431 Y139.301 E3.55248
G1 X74.137 Y138.414 E3.56566
G1 X73.944 Y137.724 E3.57577
G1 X73.823 Y137.202 E3.58333
G1 X73.688 Y136.546 E3.59278
G1 X73.542 Y135.583 E3.60652
G1 X73.475 Y134.908 E3.61609
G1 X73.425 Y133.859 E3.6309
G1 X73.438 Y132.919 E3.64417
G1 X73.512 Y131.916 E3.65836
G1 X73.647 Y130.909 E3.67269
G1 X73.84 Y129.927 E3.68681
G1 X74.021 Y129.209 E3.69726
G1 X74.378 Y128.076 E3.71401
G1 X74.711 Y127.204 E3.72718
G1 X75.024 Y126.507 E3.73796
G1 X75.461 Y125.649 E3.75155
G1 X75.967 Y124.788 E3.76564
G1 X76.573 Y123.892 E3.7809
G1 X77.102 Y123.201 E3.79317
G1 X77.807 Y122.388 E3.80835
G1 X78.363 Y121.813 E3.81964
G1 X78.663 Y121.527 E3.82549
G1 X79.176 Y121.06 E3.83527
G1 X79.973 Y120.414 E3.84975
G1 X80.581 Y119.973 E3.86034
G1 X81.362 Y119.466 E3.87348
G1 X81.671 Y119.283 E3.87855
G1 X82.276 Y118.947 E3.88831
G1 X83.027 Y118.576 E3.90013
G1 X84.034 Y118.152 E3.91554
G1 X85.004 Y117.813 E3.93004
G1 X85.724 Y117.603 E3.94062
G1 X86.163 Y117.495 E3.947
G1 X86.859 Y117.343 E3.95705
G1 X87.771 Y117.191 E3.97009
G1 X88.51 Y117.108 E3.98058
G1 X89.259 Y117.061 E3.99117
G1 X90.062 Y117.048 E4.0025
G1 X90.853 Y117.063 E4.01366
G1 X91.621 Y117.122 E4.02453
G1 X92.422 Y117.221 E4.03592
G1 X93.242 Y117.363 E4.04766
G1 X93.63 Y117.446 E4.05325
G1 X94.349 Y117.626 E4.06371
G1 X95.196 Y117.881 E4.07619
G1 X95.64 Y118.035 E4.08282
G1 X98.831 Y119.257 E4.13103
G1 X101.402 Y120.163 E4.16948
G1 X103.963 Y120.985 E4.20743
G1 X106.544 Y121.732 E4.24534
G1 X109.152 Y122.409 E4.28335
G1 X111.821 Y123.023 E4.32199
G1 X114.449 Y123.546 E4.35979
G1 X117.09 Y123.996 E4.39759
G1 X119.789 Y124.379 E4.43604
G1 X120.719 Y124.486 E4.44925
G1 X120.8 Y124.501 E4.45041
G1 X122.074 Y124.652 E4.46851
G1 X122.792 Y124.758 E4.47875
G1 X123.721 Y124.946 E4.49212
G1 X124.392 Y125.115 E4.50189
G1 X125.535 Y125.475 E4.51879
G1 X126.442 Y125.824 E4.5325
G1 X127.098 Y126.118 E4.54264
G1 X127.418 Y126.274 E4.54767
G1 X128.032 Y126.597 E4.55745
G1 X128.782 Y127.037 E4.56972
G1 X129.119 Y127.255 E4.57538
G1 X129.755 Y127.698 E4.58632
G1 X130.388 Y128.18 E4.59754
G1 X131.193 Y128.874 E4.61254
G1 X131.681 Y129.338 E4.62204
G1 X132.07 Y129.744 E4.62997
G1 X132.569 Y130.292 E4.64043
G1 X133.201 Y131.073 E4.6546
G1 X133.639 Y131.678 E4.66514
G1 X134.143 Y132.454 E4.67819
G1 X134.331 Y132.77 E4.68338
G1 X134.665 Y133.372 E4.69309
G1 X135.029 Y134.107 E4.70466
G1 X135.471 Y135.158 E4.72075
G1 X135.785 Y136.053 E4.73413
G1 X136.015 Y136.843 E4.74574
G1 X136.268 Y137.94 E4.76162
G1 X136.422 Y138.864 E4.77484
G1 X136.504 Y139.605 E4.78535
G1 X136.551 Y140.332 E4.79563
G1 X136.564 Y141.022 E4.80537
G1 X136.557 Y141.738 E4.81547
G1 X136.491 Y142.718 E4.82933
G1 X136.393 Y143.513 E4.84063
G1 X136.249 Y144.342 E4.8525
G1 X136.168 Y144.721 E4.85797
G1 X135.989 Y145.441 E4.86843
G1 X135.73 Y146.299 E4.88108
G1 X135.384 Y147.244 E4.89527
G1 X134.97 Y148.185 E4.90978
G1 X134.629 Y148.866 E4.92052
G1 X134.425 Y149.233 E4.92645
G1 X134.033 Y149.899 E4.93735
G1 X133.536 Y150.648 E4.95003
G1 X133.094 Y151.243 E4.96049
G1 X132.487 Y151.982 E4.97398
G1 X132.226 Y152.272 E4.97948
G1 X131.728 Y152.792 E4.98964
G1 X131.09 Y153.399 E5.00206
G1 X130.681 Y153.754 E5.00971
G1 X129.696 Y154.561 E5.02767
G1 X128.753 Y155.309 E5.04465
G1 X126.688 Y157.044 E5.0827
G1 X124.681 Y158.83 E5.1206
G1 X122.713 Y160.682 E5.15873
G1 X120.806 Y162.584 E5.19673
G1 X118.935 Y164.556 E5.23508
G1 X117.151 Y166.547 E5.27279
G1 X115.394 Y168.622 E5.31115
G1 X113.716 Y170.722 E5.34907
G1 X112.596 Y172.196 E5.37519
G1 X111.493 Y173.672 E5.40119
G1 X110.985 Y174.284 E5.41241
G1 X110.703 Y174.597 E5.41835
G1 X110.222 Y175.098 E5.42815
G1 X109.561 Y175.725 E5.441
G1 X108.807 Y176.361 E5.45492
G1 X108.248 Y176.788 E5.46484
G1 X107.2 Y177.491 E5.48265
G1 X106.356 Y177.98 E5.49641
G1 X105.757 Y178.287 E5.5059
G1 X104.785 Y178.722 E5.52093
G1 X103.923 Y179.05 E5.53394
G1 X102.913 Y179.364 E5.54886
G1 X101.956 Y179.597 E5.56276
G1 X100.958 Y179.778 E5.57707
G1 X100.226 Y179.871 E5.58748
G1 X99.763 Y179.909 E5.59403
G1 X98.928 Y179.957 E5.60583
M204 S571
G0 F606 X98.914 Y179.507
M204 S428
G1 F804 X98.12 Y179.508 E5.61703
G1 X97.402 Y179.475 E5.62717
G1 X96.481 Y179.387 E5.64022
G1 X95.445 Y179.222 E5.65502
G1 X94.493 Y179.008 E5.66879
G1 X93.628 Y178.76 E5.68148
G1 X92.665 Y178.418 E5.6959
G1 X92.011 Y178.148 E5.70588
G1 X91.583 Y177.948 E5.71255
G1 X90.947 Y177.633 E5.72256
G1 X90.084 Y177.143 E5.73656
G1 X89.499 Y176.77 E5.74635
G1 X89.282 Y176.619 E5.75008
G1 X88.636 Y176.147 E5.76137
G1 X88.491 Y176.031 E5.76399
G1 X87.952 Y175.584 E5.77387
G1 X87.345 Y175.034 E5.78542
G1 X86.581 Y174.248 E5.80089
G1 X86.01 Y173.582 E5.81326
G1 X85.489 Y172.91 E5.82526
G1 X85.255 Y172.576 E5.83101
G1 X84.845 Y171.964 E5.8414
G1 X84.376 Y171.17 E5.85441
G1 X84.048 Y170.544 E5.86438
G1 X83.668 Y169.714 E5.87726
G1 X83.329 Y168.849 E5.89037
G1 X83.022 Y167.897 E5.90448
G1 X82.772 Y166.924 E5.91865
G1 X82.62 Y166.163 E5.9296
G1 X82.571 Y165.846 E5.93413
G1 X82.47 Y165.154 E5.94399
G1 X82.041 Y162.48 E5.9822
G1 X81.532 Y159.793 E6.02078
G1 X80.957 Y157.168 E6.05869
G1 X80.308 Y154.557 E6.09665
G1 X79.569 Y151.909 E6.13544
G1 X78.774 Y149.342 E6.17335
G1 X77.89 Y146.753 E6.21194
G1 X76.949 Y144.231 E6.24992
G1 X75.916 Y141.686 E6.28867
G1 X75.423 Y140.541 E6.30626
G1 X75.061 Y139.685 E6.31937
G1 X74.791 Y138.971 E6.33014
G1 X74.565 Y138.276 E6.34045
G1 X74.38 Y137.612 E6.35017
G1 X74.264 Y137.111 E6.35743
G1 X74.129 Y136.455 E6.36688
G1 X73.989 Y135.526 E6.38013
G1 X73.914 Y134.752 E6.3911
G1 X73.875 Y133.842 E6.40395
G1 X73.887 Y132.93 E6.41682
G1 X73.96 Y131.955 E6.43061
G1 X74.092 Y130.976 E6.44455
G1 X74.281 Y130.019 E6.45831
G1 X74.454 Y129.331 E6.46832
G1 X74.806 Y128.216 E6.48482
G1 X75.128 Y127.375 E6.49752
G1 X75.434 Y126.693 E6.50807
G1 X75.859 Y125.859 E6.52127
G1 X76.352 Y125.022 E6.53498
G1 X76.943 Y124.149 E6.54985
G1 X77.455 Y123.479 E6.56175
G1 X78.143 Y122.688 E6.57654
G1 X78.68 Y122.132 E6.58744
G1 X78.966 Y121.86 E6.59301
G1 X79.479 Y121.393 E6.6028
G1 X80.248 Y120.77 E6.61676
G1 X80.835 Y120.345 E6.62698
G1 X81.603 Y119.846 E6.6399
G1 X81.889 Y119.677 E6.64459
G1 X82.494 Y119.341 E6.65435
G1 X83.221 Y118.982 E6.66579
G1 X84.204 Y118.569 E6.68083
G1 X85.146 Y118.239 E6.69492
G1 X85.841 Y118.037 E6.70513
G1 X86.259 Y117.935 E6.7112
G1 X86.955 Y117.783 E6.72125
G1 X87.833 Y117.636 E6.73381
G1 X88.559 Y117.555 E6.74411
G1 X89.278 Y117.511 E6.75428
G1 X90.055 Y117.498 E6.76524
G1 X90.827 Y117.513 E6.77613
G1 X91.58 Y117.571 E6.78679
G1 X92.352 Y117.665 E6.79776
G1 X93.161 Y117.806 E6.80934
G1 X93.521 Y117.882 E6.81453
G1 X94.24 Y118.062 E6.82499
G1 X95.061 Y118.31 E6.83709
G1 X95.48 Y118.456 E6.84335
G1 X98.707 Y119.691 E6.8921
G1 X101.225 Y120.578 E6.92976
G1 X103.833 Y121.415 E6.9684
G1 X106.415 Y122.163 E7.00633
G1 X109.081 Y122.855 E7.04518
G1 X111.733 Y123.465 E7.08358
G1 X114.353 Y123.987 E7.12127
G1 X117.026 Y124.442 E7.15952
G1 X119.716 Y124.824 E7.19785
G1 X120.667 Y124.933 E7.21135
G1 X120.746 Y124.948 E7.21249
G1 X122.138 Y125.114 E7.23227
G1 X122.877 Y125.23 E7.24282
G1 X123.627 Y125.386 E7.25363
G1 X124.371 Y125.577 E7.26446
G1 X125.395 Y125.903 E7.27962
G1 X126.27 Y126.24 E7.29285
G1 X126.913 Y126.528 E7.30279
G1 X127.208 Y126.672 E7.30742
G1 X127.822 Y126.995 E7.31721
G1 X128.548 Y127.422 E7.32909
G1 X128.862 Y127.624 E7.33436
G1 X129.498 Y128.067 E7.3453
G1 X130.109 Y128.533 E7.35614
G1 X130.893 Y129.21 E7.37075
G1 X131.656 Y129.96 E7.38584
G1 X132.236 Y130.595 E7.39798
G1 X132.844 Y131.348 E7.41163
G1 X133.268 Y131.932 E7.42181
G1 X133.763 Y132.696 E7.43466
G1 X133.937 Y132.989 E7.43946
G1 X134.271 Y133.591 E7.44918
G1 X134.623 Y134.3 E7.46034
G1 X135.055 Y135.328 E7.47607
G1 X135.358 Y136.196 E7.48904
G1 X135.58 Y136.959 E7.50026
G1 X135.828 Y138.037 E7.51586
G1 X135.976 Y138.926 E7.52858
G1 X136.057 Y139.654 E7.53891
G1 X136.101 Y140.353 E7.54879
G1 X136.114 Y141.03 E7.55834
G1 X136.107 Y141.732 E7.56825
G1 X136.043 Y142.677 E7.58161
G1 X135.948 Y143.444 E7.59251
G1 X135.807 Y144.26 E7.6042
G1 X135.731 Y144.612 E7.60928
G1 X135.517 Y145.466 E7.6217
G1 X135.301 Y146.163 E7.63199
G1 X134.964 Y147.083 E7.64581
G1 X134.56 Y147.999 E7.65994
G1 X134.231 Y148.656 E7.6703
G1 X134.037 Y149.004 E7.67593
G1 X133.645 Y149.67 E7.68683
G1 X133.167 Y150.39 E7.69902
G1 X132.734 Y150.974 E7.70928
G1 X132.144 Y151.692 E7.72239
G1 X131.901 Y151.961 E7.7275
G1 X131.403 Y152.481 E7.73766
G1 X130.785 Y153.068 E7.74968
G1 X130.395 Y153.406 E7.75697
G1 X129.416 Y154.208 E7.77482
G1 X128.482 Y154.949 E7.79164
G1 X126.4 Y156.698 E7.83
G1 X124.373 Y158.502 E7.86828
