;FLAVOR:Marlin
;TIME:1400
;Filament used: 0.353661m, 0m
;Layer height: 0.2
;MINX:86.634
;MINY:130.131
;MINZ:0.2
;MAXX:123.36
;MAXY:166.869
;MAXZ:8.4
;Generated with StratosEngine 1.6.0
T0
M82 ;absolute extrusion mode
;Machine Model: Sigma R19 
;Materials used: T0 TPU  
;Extruders used: T0 0.4  
M141 S0 	;Set chamber temperature 
M140 S60 	;Heat build surface
M104 T0 S210	;Heat extruder 0
M190 S60 	;Wait until bed temperature reached 
M109 T0 S210	;Heat extruder 0 and wait
G21 		;metric values 
G90 		;absolute positioning 
M204 S600 	;set default acceleration 
M205 X12.5 Y12.5 ;set default jerk 
M107 		;start with the fan off 
G28 X0 Y0 	;move X/Y to min endstops 
G28 Z0 		;move Z to min endstops 
G1 Z5 F200 	;safety Z axis movement

T0
G92 E0 		;set zero the extruded length 
G1 E15 F30
G92 E0 
G4 S2 		;stabilize hotend 
G1 E-0.5 F1000 
G92 E0

G4 P1
G4 P2
G4 P3

G92 E0
;LAYER_COUNT:42
;LAYER:0
M107
M204 S571
M205 X9.38 Y9.38
G0 F606 X104.959 Y166.869 Z0.2
M204 S428
;TYPE:SKIRT
G1 F804 X103.818 Y166.829 E0.01611
G1 X102.677 Y166.72 E0.03228
G1 X101.597 Y166.549 E0.0477
G1 X100.494 Y166.306 E0.06364
G1 X99.466 Y166.012 E0.07872
G1 X98.415 Y165.643 E0.09444
G1 X97.778 Y165.387 E0.10412
G1 X97.055 Y165.054 E0.11535
G1 X96.454 Y164.755 E0.12482
G1 X95.812 Y164.405 E0.13514
G1 X94.88 Y163.828 E0.1506
G1 X93.95 Y163.172 E0.16666
G1 X93.049 Y162.447 E0.18297
G1 X92.277 Y161.748 E0.19767
G1 X91.492 Y160.945 E0.21351
G1 X90.767 Y160.105 E0.22916
G1 X90.349 Y159.575 E0.23869
G1 X89.905 Y158.955 E0.24944
G1 X89.525 Y158.391 E0.25904
G1 X89.164 Y157.81 E0.26869
G1 X88.827 Y157.208 E0.27842
G1 X88.455 Y156.479 E0.28997
G1 X88.121 Y155.743 E0.30137
G1 X87.732 Y154.757 E0.31633
G1 X87.376 Y153.665 E0.33253
G1 X87.094 Y152.583 E0.3483
G1 X86.926 Y151.76 E0.36015
G1 X86.831 Y151.151 E0.36885
G1 X86.739 Y150.446 E0.37888
G1 X86.673 Y149.74 E0.38888
G1 X86.634 Y148.618 E0.40472
G1 X86.661 Y147.495 E0.42057
G1 X86.753 Y146.396 E0.43613
G1 X86.918 Y145.282 E0.45202
G1 X87.13 Y144.255 E0.46681
G1 X87.425 Y143.169 E0.48269
G1 X87.633 Y142.524 E0.49225
G1 X87.916 Y141.771 E0.5036
G1 X88.25 Y140.965 E0.51591
G1 X88.644 Y140.143 E0.52877
G1 X88.98 Y139.515 E0.53881
G1 X89.568 Y138.538 E0.5549
G1 X89.84 Y138.13 E0.56182
G1 X90.233 Y137.579 E0.57137
G1 X90.83 Y136.813 E0.58507
G1 X91.631 Y135.906 E0.60214
G1 X92.369 Y135.168 E0.61686
G1 X93.021 Y134.58 E0.62925
G1 X94.011 Y133.786 E0.64715
G1 X94.592 Y133.364 E0.65729
G1 X95.606 Y132.717 E0.67425
G1 X96.577 Y132.178 E0.68992
G1 X97.575 Y131.701 E0.70553
G1 X98.534 Y131.308 E0.72015
G1 X99.633 Y130.936 E0.73652
G1 X100.462 Y130.704 E0.74866
G1 X101.021 Y130.574 E0.75676
G1 X101.693 Y130.435 E0.76644
G1 X102.421 Y130.314 E0.77685
G1 X103.513 Y130.193 E0.79235
G1 X104.689 Y130.135 E0.80896
G1 X105.027 Y130.131 E0.81373
G1 X105.754 Y130.148 E0.82399
G1 X106.862 Y130.229 E0.83966
G1 X107.912 Y130.366 E0.8546
G1 X109.088 Y130.596 E0.87151
G1 X109.866 Y130.79 E0.88282
G1 X111.093 Y131.177 E0.90097
G1 X111.748 Y131.416 E0.91081
G1 X112.824 Y131.883 E0.92736
G1 X113.83 Y132.394 E0.94328
G1 X114.728 Y132.92 E0.95796
G1 X115.178 Y133.212 E0.96553
G1 X115.749 Y133.609 E0.97534
G1 X116.467 Y134.152 E0.98804
G1 X116.995 Y134.594 E0.99775
G1 X117.548 Y135.089 E1.00822
G1 X118.084 Y135.613 E1.0188
G1 X118.415 Y135.961 E1.02557
G1 X118.881 Y136.473 E1.03534
G1 X119.376 Y137.066 E1.04624
G1 X120.046 Y137.966 E1.06207
G1 X120.646 Y138.878 E1.07747
G1 X121.206 Y139.857 E1.09338
G1 X121.686 Y140.826 E1.10864
G1 X122.118 Y141.846 E1.12426
G1 X122.485 Y142.887 E1.13984
G1 X122.691 Y143.57 E1.1499
G1 X122.867 Y144.266 E1.16003
G1 X123.021 Y144.962 E1.17008
G1 X123.162 Y145.75 E1.18138
G1 X123.288 Y146.793 E1.1962
G1 X123.345 Y147.659 E1.20844
G1 X123.36 Y148.404 E1.21896
G1 X123.352 Y149.174 E1.22982
G1 X123.312 Y149.934 E1.24056
G1 X123.195 Y151.009 E1.25581
G1 X122.988 Y152.215 E1.27308
G1 X122.905 Y152.597 E1.27859
G1 X122.735 Y153.275 E1.28845
G1 X122.445 Y154.247 E1.30276
G1 X122.062 Y155.298 E1.31854
G1 X121.633 Y156.285 E1.33373
G1 X121.313 Y156.937 E1.34397
G1 X120.939 Y157.615 E1.3549
G1 X120.53 Y158.303 E1.36619
G1 X120.008 Y159.089 E1.3795
G1 X119.533 Y159.732 E1.39078
G1 X118.827 Y160.59 E1.40645
G1 X118.049 Y161.426 E1.42256
G1 X117.289 Y162.15 E1.43737
G1 X116.476 Y162.839 E1.45241
G1 X115.91 Y163.275 E1.46249
G1 X115.248 Y163.736 E1.47387
G1 X114.684 Y164.105 E1.48338
G1 X114.05 Y164.485 E1.4938
G1 X113.054 Y165.007 E1.50967
G1 X112.024 Y165.471 E1.52561
G1 X111.038 Y165.848 E1.5405
G1 X109.915 Y166.197 E1.55709
G1 X108.867 Y166.455 E1.57232
G1 X107.758 Y166.657 E1.58822
G1 X106.925 Y166.764 E1.60007
G1 X106.371 Y166.81 E1.60791
G1 X105.656 Y166.852 E1.61802
G1 X104.959 Y166.869 E1.62785
M204 S571
G0 F606 X104.558 Y166.412
M204 S428
G1 F804 X103.84 Y166.38 E1.63799
G1 X102.727 Y166.273 E1.65377
G1 X101.674 Y166.106 E1.66881
G1 X100.599 Y165.869 E1.68434
G1 X99.596 Y165.581 E1.69906
G1 X98.57 Y165.221 E1.7144
G1 X97.786 Y164.898 E1.72636
G1 X97.256 Y164.651 E1.73461
G1 X96.655 Y164.352 E1.74408
G1 X96.042 Y164.018 E1.75393
G1 X95.121 Y163.449 E1.7692
G1 X94.215 Y162.808 E1.78486
G1 X93.337 Y162.1 E1.80077
G1 X92.584 Y161.419 E1.8151
G1 X91.819 Y160.635 E1.83055
G1 X91.112 Y159.816 E1.84581
G1 X90.588 Y159.142 E1.85786
G1 X90.278 Y158.704 E1.86543
G1 X89.824 Y158.028 E1.87692
G1 X89.309 Y157.153 E1.89124
G1 X88.934 Y156.436 E1.90266
G1 X88.531 Y155.558 E1.91628
G1 X88.153 Y154.598 E1.93084
G1 X87.806 Y153.533 E1.94664
G1 X87.531 Y152.476 E1.96205
G1 X87.369 Y151.679 E1.97352
G1 X87.277 Y151.093 E1.98189
G1 X87.185 Y150.388 E1.99192
G1 X87.122 Y149.716 E2.00145
G1 X87.084 Y148.608 E2.01709
G1 X87.11 Y147.512 E2.03255
G1 X87.201 Y146.44 E2.04773
G1 X87.362 Y145.354 E2.06322
G1 X87.569 Y144.353 E2.07764
G1 X87.857 Y143.294 E2.09312
G1 X88.111 Y142.523 E2.10458
G1 X88.579 Y141.338 E2.12255
G1 X88.887 Y140.661 E2.13304
G1 X89.376 Y139.729 E2.14789
G1 X89.951 Y138.776 E2.16359
G1 X90.206 Y138.391 E2.17011
G1 X90.599 Y137.84 E2.17966
G1 X91.181 Y137.095 E2.19299
G1 X91.964 Y136.209 E2.20968
G1 X92.682 Y135.491 E2.224
G1 X93.315 Y134.92 E2.23603
G1 X94.288 Y134.141 E2.25361
G1 X94.841 Y133.738 E2.26327
G1 X95.843 Y133.1 E2.28002
G1 X96.79 Y132.574 E2.29531
G1 X97.763 Y132.109 E2.31052
G1 X98.698 Y131.727 E2.32477
G1 X99.771 Y131.364 E2.34075
G1 X100.573 Y131.14 E2.3525
G1 X101.112 Y131.015 E2.3603
G1 X101.784 Y130.876 E2.36999
G1 X102.478 Y130.76 E2.37991
G1 X103.556 Y130.641 E2.39521
G1 X104.705 Y130.585 E2.41144
G1 X105.027 Y130.581 E2.41599
G1 X105.741 Y130.598 E2.42606
G1 X106.823 Y130.677 E2.44137
G1 X107.846 Y130.811 E2.45592
G1 X108.995 Y131.036 E2.47244
G1 X109.747 Y131.224 E2.48338
G1 X110.953 Y131.604 E2.50122
G1 X111.937 Y131.98 E2.51608
G1 X112.638 Y132.293 E2.52691
G1 X113.62 Y132.793 E2.54245
G1 X114.495 Y133.305 E2.55676
G1 X114.921 Y133.581 E2.56392
G1 X115.492 Y133.978 E2.57373
G1 X116.188 Y134.505 E2.58604
G1 X117.112 Y135.3 E2.60324
G1 X117.764 Y135.93 E2.61603
G1 X118.082 Y136.264 E2.62254
G1 X118.548 Y136.776 E2.63231
G1 X119.02 Y137.341 E2.64269
G1 X119.682 Y138.23 E2.65833
G1 X120.265 Y139.119 E2.67333
G1 X120.813 Y140.076 E2.68889
G1 X121.28 Y141.02 E2.70374
G1 X121.701 Y142.016 E2.719
G1 X122.059 Y143.03 E2.73417
G1 X122.257 Y143.686 E2.74384
G1 X122.428 Y144.363 E2.75369
G1 X122.582 Y145.059 E2.76374
G1 X122.716 Y145.813 E2.77455
G1 X122.84 Y146.841 E2.78916
G1 X122.896 Y147.68 E2.80102
G1 X122.91 Y148.411 E2.81133
G1 X122.902 Y149.168 E2.82201
G1 X122.864 Y149.893 E2.83226
G1 X122.749 Y150.954 E2.84731
G1 X122.546 Y152.133 E2.86419
G1 X122.468 Y152.488 E2.86932
G1 X122.298 Y153.166 E2.87918
G1 X122.016 Y154.111 E2.89309
G1 X121.641 Y155.137 E2.9085
G1 X121.223 Y156.1 E2.92332
G1 X120.916 Y156.726 E2.93315
G1 X120.552 Y157.386 E2.94379
G1 X120.147 Y158.068 E2.95498
G1 X119.639 Y158.831 E2.96791
G1 X119.172 Y159.463 E2.97899
G1 X118.484 Y160.299 E2.99427
G1 X117.724 Y161.114 E3.00999
G1 X116.983 Y161.82 E3.02443
G1 X116.19 Y162.491 E3.03908
G1 X115.645 Y162.911 E3.04879
G1 X115.002 Y163.359 E3.05985
G1 X114.438 Y163.728 E3.06936
G1 X113.833 Y164.09 E3.0793
G1 X112.85 Y164.606 E3.09496
G1 X111.844 Y165.059 E3.11053
G1 X110.885 Y165.424 E3.12501
G1 X109.787 Y165.766 E3.14123
G1 X108.766 Y166.016 E3.15606
G1 X107.684 Y166.213 E3.17158
G1 X106.877 Y166.317 E3.18306
G1 X106.344 Y166.361 E3.1906
G1 X105.629 Y166.403 E3.20071
G1 X104.558 Y166.412 E3.21582
M204 S571
G0 F606 X104.565 Y165.962
M204 S428
G1 F804 X103.862 Y165.93 E3.22574
G1 X102.776 Y165.826 E3.24113
G1 X101.75 Y165.663 E3.25579
G1 X100.703 Y165.431 E3.27092
G1 X99.727 Y165.15 E3.28525
G1 X98.726 Y164.799 E3.30021
G1 X97.968 Y164.487 E3.31178
G1 X97.456 Y164.248 E3.31975
G1 X96.855 Y163.949 E3.32922
G1 X95.931 Y163.428 E3.34418
G1 X95.363 Y163.069 E3.35366
G1 X94.48 Y162.444 E3.36893
G1 X93.624 Y161.753 E3.38445
G1 X92.892 Y161.09 E3.39838
G1 X92.145 Y160.325 E3.41346
G1 X91.456 Y159.527 E3.42834
G1 X90.949 Y158.874 E3.44
G1 X90.651 Y158.452 E3.44729
G1 X90.203 Y157.785 E3.45863
G1 X89.702 Y156.933 E3.47257
G1 X89.339 Y156.239 E3.48362
G1 X88.942 Y155.374 E3.49705
G1 X88.574 Y154.439 E3.51122
G1 X88.236 Y153.4 E3.52664
G1 X87.968 Y152.37 E3.54165
G1 X87.811 Y151.599 E3.55275
G1 X87.723 Y151.034 E3.56082
G1 X87.631 Y150.329 E3.57085
G1 X87.553 Y149.333 E3.58494
G1 X87.533 Y148.598 E3.59532
G1 X87.56 Y147.529 E3.6104
G1 X87.649 Y146.485 E3.62518
G1 X87.806 Y145.425 E3.6403
G1 X88.008 Y144.45 E3.65435
G1 X88.29 Y143.419 E3.66943
G1 X88.535 Y142.673 E3.68051
G1 X88.996 Y141.509 E3.69817
G1 X89.288 Y140.864 E3.70816
G1 X89.772 Y139.942 E3.72285
G1 X90.333 Y139.013 E3.73816
G1 X90.573 Y138.653 E3.74426
G1 X90.966 Y138.102 E3.75381
G1 X91.531 Y137.377 E3.76678
G1 X92.297 Y136.512 E3.78308
G1 X92.995 Y135.814 E3.79701
G1 X93.609 Y135.261 E3.80866
G1 X94.565 Y134.496 E3.82594
G1 X95.388 Y133.915 E3.84015
G1 X96.08 Y133.482 E3.85167
G1 X97.003 Y132.97 E3.86656
G1 X97.952 Y132.518 E3.88139
G1 X98.861 Y132.147 E3.89524
G1 X99.91 Y131.793 E3.91086
G1 X100.684 Y131.576 E3.9222
G1 X101.203 Y131.455 E3.92972
G1 X101.875 Y131.316 E3.9394
G1 X102.534 Y131.207 E3.94882
G1 X103.599 Y131.089 E3.96394
G1 X104.721 Y131.034 E3.97979
G1 X105.027 Y131.031 E3.9841
G1 X105.729 Y131.048 E3.99401
G1 X106.783 Y131.125 E4.00892
G1 X107.779 Y131.256 E4.02309
G1 X108.902 Y131.477 E4.03924
G1 X109.628 Y131.658 E4.04979
G1 X110.813 Y132.032 E4.06732
G1 X111.766 Y132.396 E4.08172
G1 X112.453 Y132.703 E4.09233
G1 X113.411 Y133.191 E4.1075
G1 X114.261 Y133.69 E4.12141
G1 X114.664 Y133.951 E4.12818
G1 X115.235 Y134.348 E4.13799
G1 X115.91 Y134.859 E4.14994
G1 X116.813 Y135.636 E4.16674
G1 X117.444 Y136.247 E4.17913
G1 X117.749 Y136.567 E4.18537
G1 X118.215 Y137.079 E4.19514
G1 X118.664 Y137.616 E4.20501
G1 X119.317 Y138.494 E4.22045
G1 X119.885 Y139.359 E4.23505
G1 X120.42 Y140.295 E4.25026
G1 X120.874 Y141.213 E4.26471
G1 X121.284 Y142.185 E4.27959
G1 X121.632 Y143.172 E4.29435
G1 X121.887 Y144.045 E4.30718
G1 X121.989 Y144.46 E4.31321
G1 X122.143 Y145.156 E4.32327
G1 X122.271 Y145.875 E4.33357
G1 X122.393 Y146.89 E4.348
G1 X122.446 Y147.701 E4.35946
G1 X122.46 Y148.419 E4.36959
G1 X122.452 Y149.162 E4.38008
G1 X122.416 Y149.852 E4.38982
G1 X122.302 Y150.9 E4.4047
G1 X122.103 Y152.05 E4.42116
G1 X122.032 Y152.379 E4.42591
G1 X121.862 Y153.057 E4.43577
G1 X121.586 Y153.976 E4.44931
G1 X121.221 Y154.976 E4.46433
G1 X120.813 Y155.915 E4.47877
G1 X120.518 Y156.516 E4.48822
G1 X120.165 Y157.156 E4.49853
G1 X119.764 Y157.832 E4.50962
G1 X119.271 Y158.573 E4.52217
G1 X118.811 Y159.194 E4.53307
G1 X118.141 Y160.008 E4.54795
G1 X117.399 Y160.803 E4.56329
G1 X116.677 Y161.49 E4.57735
G1 X115.904 Y162.143 E4.59163
G1 X115.268 Y162.629 E4.60292
G1 X114.756 Y162.983 E4.6117
G1 X114.192 Y163.352 E4.62121
G1 X113.617 Y163.696 E4.63066
G1 X112.646 Y164.204 E4.64612
G1 X111.665 Y164.646 E4.6613
G1 X110.732 Y165.001 E4.67539
G1 X109.659 Y165.334 E4.69124
G1 X108.666 Y165.578 E4.70566
G1 X107.61 Y165.77 E4.7208
G1 X106.829 Y165.869 E4.73191
G1 X106.318 Y165.912 E4.73914
G1 X105.603 Y165.954 E4.74925
G1 X104.565 Y165.962 E4.76389
M204 S571
G0 F606 X104.573 Y165.512
M204 S428
G1 F804 X103.884 Y165.481 E4.77362
G1 X102.826 Y165.378 E4.78862
G1 X101.827 Y165.219 E4.80289
G1 X100.808 Y164.993 E4.81762
G1 X99.857 Y164.719 E4.83158
G1 X98.882 Y164.376 E4.84616
G1 X98.151 Y164.075 E4.85731
G1 X97.657 Y163.845 E4.865
G1 X97.056 Y163.546 E4.87447
G1 X96.162 Y163.042 E4.88895
G1 X95.45 Y162.587 E4.90087
G1 X94.744 Y162.08 E4.91313
G1 X93.911 Y161.407 E4.92824
G1 X93.199 Y160.762 E4.9418
G1 X92.471 Y160.016 E4.9565
G1 X91.801 Y159.237 E4.971
G1 X91.31 Y158.605 E4.98229
G1 X91.025 Y158.201 E4.98926
G1 X90.582 Y157.542 E5.00047
G1 X90.094 Y156.713 E5.01404
G1 X89.743 Y156.042 E5.02472
G1 X89.352 Y155.19 E5.03795
G1 X88.994 Y154.279 E5.05175
G1 X88.666 Y153.268 E5.06675
G1 X88.406 Y152.263 E5.08139
G1 X88.254 Y151.519 E5.09211
G1 X88.169 Y150.976 E5.09986
G1 X88.077 Y150.271 E5.10989
G1 X88.002 Y149.309 E5.1235
G1 X87.983 Y148.587 E5.13369
G1 X88.01 Y147.546 E5.14839
G1 X88.097 Y146.529 E5.16279
G1 X88.251 Y145.497 E5.17751
G1 X88.448 Y144.547 E5.19119
G1 X88.722 Y143.544 E5.20586
G1 X88.959 Y142.824 E5.21656
G1 X89.412 Y141.679 E5.23393
G1 X89.69 Y141.067 E5.24341
G1 X90.168 Y140.156 E5.25793
G1 X90.715 Y139.251 E5.27284
G1 X90.939 Y138.914 E5.27855
G1 X91.332 Y138.363 E5.2881
G1 X91.881 Y137.66 E5.30068
G1 X92.63 Y136.814 E5.31663
G1 X93.309 Y136.136 E5.33016
G1 X93.903 Y135.601 E5.34144
G1 X94.842 Y134.85 E5.3584
G1 X95.638 Y134.289 E5.37214
G1 X96.317 Y133.865 E5.38344
G1 X97.217 Y133.367 E5.39795
G1 X98.14 Y132.927 E5.41237
G1 X99.025 Y132.566 E5.42586
G1 X100.048 Y132.221 E5.44109
G1 X100.795 Y132.012 E5.45203
G1 X101.294 Y131.896 E5.45926
G1 X101.966 Y131.757 E5.46894
G1 X103 Y131.601 E5.48369
G1 X103.784 Y131.525 E5.49481
G1 X104.737 Y131.484 E5.50826
G1 X105.027 Y131.481 E5.51235
G1 X105.717 Y131.498 E5.52209
G1 X106.743 Y131.574 E5.53661
G1 X107.713 Y131.701 E5.55041
G1 X108.809 Y131.917 E5.56617
G1 X109.508 Y132.092 E5.57633
G1 X110.673 Y132.46 E5.59357
G1 X111.595 Y132.812 E5.60749
G1 X112.268 Y133.113 E5.61789
G1 X113.201 Y133.589 E5.63267
G1 X114.028 Y134.074 E5.6462
G1 X114.408 Y134.32 E5.65258
G1 X114.979 Y134.717 E5.66239
G1 X115.631 Y135.212 E5.67394
G1 X116.514 Y135.972 E5.69038
G1 X117.125 Y136.563 E5.70237
G1 X117.416 Y136.87 E5.70834
G1 X117.882 Y137.382 E5.71811
G1 X118.532 Y138.181 E5.73264
G1 X118.953 Y138.758 E5.74271
G1 X119.505 Y139.6 E5.75692
G1 X120.026 Y140.514 E5.77176
G1 X120.467 Y141.406 E5.7858
G1 X120.867 Y142.355 E5.80033
G1 X121.205 Y143.315 E5.81469
G1 X121.452 Y144.162 E5.82713
G1 X121.549 Y144.557 E5.83287
G1 X121.703 Y145.253 E5.84293
G1 X121.825 Y145.938 E5.85274
G1 X121.946 Y146.938 E5.86695
G1 X121.997 Y147.722 E5.87804
G1 X122.01 Y148.426 E5.88797
G1 X122.003 Y149.156 E5.89827
G1 X121.934 Y150.181 E5.91277
G1 X121.855 Y150.846 E5.92221
G1 X121.661 Y151.968 E5.93828
G1 X121.595 Y152.269 E5.94262
G1 X121.387 Y153.092 E5.9546
G1 X121.157 Y153.841 E5.96565
G1 X120.801 Y154.816 E5.9803
G1 X120.403 Y155.729 E5.99435
G1 X120.042 Y156.454 E6.00577
G1 X119.778 Y156.927 E6.01342
G1 X119.38 Y157.596 E6.0244
G1 X118.902 Y158.315 E6.03658
G1 X118.45 Y158.926 E6.0473
G1 X117.798 Y159.717 E6.06176
G1 X117.074 Y160.492 E6.07673
G1 X116.372 Y161.159 E6.09039
G1 X115.619 Y161.796 E6.1043
G1 X115.003 Y162.265 E6.11522
G1 X114.509 Y162.606 E6.12369
G1 X113.945 Y162.975 E6.1332
G1 X113.087 Y163.473 E6.1472
G1 X112.443 Y163.803 E6.15741
G1 X111.486 Y164.233 E6.17221
G1 X110.58 Y164.578 E6.18588
G1 X109.532 Y164.903 E6.20136
G1 X108.565 Y165.139 E6.21541
G1 X107.536 Y165.326 E6.23016
G1 X106.78 Y165.422 E6.24091
G1 X106.292 Y165.462 E6.24782
G1 X105.577 Y165.504 E6.25793
G1 X104.573 Y165.512 E6.27209
M204 S571
G0 F606 X104.581 Y165.062
M204 S428
G1 F804 X103.907 Y165.031 E6.28161
G1 X102.876 Y164.931 E6.29622
G1 X101.904 Y164.776 E6.31011
G1 X100.913 Y164.556 E6.32443
G1 X99.987 Y164.289 E6.33803
G1 X99.038 Y163.954 E6.35222
G1 X98.333 Y163.664 E6.36298
G1 X97.857 Y163.442 E6.37039
G1 X97.256 Y163.143 E6.37986
G1 X96.392 Y162.655 E6.39386
